/* XPM */
static char *pistol_fire[] = {
"48 48 16 1",
". c None",
"C c #55663F",
"M c #5D636E",
"S c #F2C49A",
"Y c #FFD84A",
"Z c #8E5E40",
"c c #3E4C31",
"d c #25272C",
"h c #8C93A0",
"k c #16171A",
"m c #3A3E46",
"o c #FF9A2E",
"r c #E0531F",
"s c #E2A878",
"y c #FFF6C2",
"z c #B9805A",
"................rr...oooooo...rr................",
"..................ooooYYYYoooo..................",
"..................ooYYYyyYYYoo..................",
"..................ooYYyyyyYYoo..................",
"..................ooYYyyyyYYoo..................",
"..................kkkYYyyYYkkk..................",
"..................mmmoYYYYommm..................",
"................rrkkkkooookkkkrr................",
"................rkmmmmkkkkmmmmkr................",
".................kmhhhhhhhhhhmk.................",
".................kmMMmmmmmmddmk.................",
".................kmMMmmmmmmddmk.................",
".................kmMMmmhhmmddmk.................",
".................kmMMmmhhmmddmk.................",
".................kmMMmmmmmmddmk.................",
".................kmMMddddddddmk.................",
".................kmMMmmmmmmddmk.................",
"..............kkkkmMMmmmmmmddmk.................",
".............kkSszmMMddddddddmk.................",
".............kSSszmMMmmmmmmddmk.................",
".............kSSszmMMmmmmmmddmk.................",
".............kSSszmMMddddddddmk.................",
".............kSSszmMMmmmmmmddmk.................",
".............kSSszmMMmmmmmmddmk.................",
".............kSSszmMMmmmmmmddmk.................",
".............kSSszmMMmmmmmmddmk.................",
".............kSSszkkkkkkkkkkkkk.................",
".............kSSszkkkkkkkkkkkkkkkk..............",
".............kSSssssssssssssssszzzk.............",
"..............kSSSsssssszsssssszzzk.............",
"..............kSSSsssssszsssssszzzk.............",
"..............kSSSsssssszZZZZZZZZZk.............",
"..............kSSSsssssszsssssszzzk.............",
"..............kSSSsssssszsssssszzzk.............",
"..............kSSSsssssszZZZZZZZZZk.............",
"..............kSSSsssssszsssssszzzk.............",
"..............kSSSsssssszsssssszzzk.............",
"..............kSSSsssssszZZZZZZZZZk.............",
"..............kSSSsssssszsssssszzzk.............",
"..............kSSSsssssszsssssszzzk.............",
"...........kkkkSSSsssssszsssssszzzkkk...........",
"...........cCCCCCcccccccccccccccccccc...........",
"...........cCCCCCcccccccccccccccccccc...........",
"...........cCCCCCcccccccccccccccccccc...........",
"...........cCCCCCcccccccccccccccccccc...........",
"...........cCCCCCcccccccccccccccccccc...........",
"...........cCCCCCcccccccccccccccccccc...........",
"...........cCCCCCcccccccccccccccccccc..........."};
