/* XPM */
static char *pistol_0[] = {
"64 64 26 1",
"a c #000000",
"b c #202020",
"c c #2C2C2C",
"d c #484848",
"e c #543C1C",
"f c #545454",
"g c #646464",
"h c #707070",
"i c #744C28",
"j c #7C7C7C",
"k c #80502C",
"l c None",
"m c #989898",
"n c #A86840",
"o c #A8A8A8",
"p c #B47044",
"q c #C87C4C",
"r c #DC8854",
"s c #E88C58",
"t c #F0945C",
"u c #FC9C60",
"v c #FCA470",
"w c #FCB080",
"x c #FCB890",
"y c #FCC4A4",
"z c #FCD8C4",
"llllllllllllllllllllllllllllllllllllllllllllllllllllllllllllllll",
"llllllllllllllllllllllllllllllllllllllllllllllllllllllllllllllll",
"llllllllllllllllllllllllllllllllllllllllllllllllllllllllllllllll",
"llllllllllllllllllllllllllllllllllllllllllllllllllllllllllllllll",
"llllllllllllllllllllllllllllllllllllllllllllllllllllllllllllllll",
"llllllllllllllllllllllllllllllllllllllllllllllllllllllllllllllll",
"llllllllllllllllllllllllllllllllllllllllllllllllllllllllllllllll",
"llllllllllllllllllllllllllllllllllllllllllllllllllllllllllllllll",
"llllllllllllllllllllllllllllllllllllllllllllllllllllllllllllllll",
"llllllllllllllllllllllllllllllllllllllllllllllllllllllllllllllll",
"llllllllllllllllllllllllllllllllllllllllllllllllllllllllllllllll",
"llllllllllllllllllllllllllllllllllllllllllllllllllllllllllllllll",
"llllllllllllllllllllllllllllllllllllllllllllllllllllllllllllllll",
"llllllllllllllllllllllllllllllllllllllllllllllllllllllllllllllll",
"llllllllllllllllllllllllllllllllllllllllllllllllllllllllllllllll",
"llllllllllllllllllllllllllllllllllllllllllllllllllllllllllllllll",
"llllllllllllllllllllllllllllllllllllllllllllllllllllllllllllllll",
"llllllllllllllllllllllllllllllllllllllllllllllllllllllllllllllll",
"llllllllllllllllllllllllllllllllllllllllllllllllllllllllllllllll",
"llllllllllllllllllllllllllllllllllllllllllllllllllllllllllllllll",
"llllllllllllllllllllllllllllllllllllllllllllllllllllllllllllllll",
"llllllllllllllllllllllllllllllllllllllllllllllllllllllllllllllll",
"llllllllllllllllllllllllllllllllllllllllllllllllllllllllllllllll",
"llllllllllllllllllllllllllllllllllllllllllllllllllllllllllllllll",
"llllllllllllllllllllllllllllllllllllllllllllllllllllllllllllllll",
"llllllllllllllllllllllllllllllllllllllllllllllllllllllllllllllll",
"llllllllllllllllllllllllllllllllllllllllllllllllllllllllllllllll",
"llllllllllllllllllllllllllllllllllllllllllllllllllllllllllllllll",
"llllllllllllllllllllllllllllllllllllllllllllllllllllllllllllllll",
"llllllllllllllllllllllllllllllllllllllllllllllllllllllllllllllll",
"llllllllllllllllllllllllllllllllllllllllllllllllllllllllllllllll",
"llllllllllllllllllllllllllllllllllllllllllllllllllllllllllllllll",
"llllllllllllllllllllllllllllllllllllllllllllllllllllllllllllllll",
"llllllllllllllllllllllllllllllllllllllllllllllllllllllllllllllll",
"llllllllllllllllllllllllllllllllllllllllllllllllllllllllllllllll",
"llllllllllllllllllllllllllllllllllllllllllllllllllllllllllllllll",
"llllllllllllllllllllllllllllllllllllllllllllllllllllllllllllllll",
"llllllllllllllllllllllllllllllllllllllllllllllllllllllllllllllll",
"llllllllllllllllllllllllllllllllllllllllllllllllllllllllllllllll",
"llllllllllllllllllllllllllllllllllllllllllllllllllllllllllllllll",
"llllllllllllllllllllllllllllllllllllllllllllllllllllllllllllllll",
"llllllllllllllllllllllllllllllllllllllllllllllllllllllllllllllll",
"llllllllllllllllllllllllllllllllllllllllllllllllllllllllllllllll",
"llllllllllllllllllllllllllllllllllllllllllllllllllllllllllllllll",
"llllllllllllllllllllllllllllllllllllllllllllllllllllllllllllllll",
"llllllllllllllllllllllllllllllllllllllllllllllllllllllllllllllll",
"llllllllllllllllllllllllllllllllalllllllllllllllllllllllllllllll",
"lllllllllllllllllllllllllllllllfhfllllllllllllllllllllllllllllll",
"lllllllllllllllllllllllllllllldjojdlllllllllllllllllllllllllllll",
"lllllllllllllllllllllllllllllldjojdlllllllllllllllllllllllllllll",
"llllllllllllllllllllllllllllljjdjdjjllllllllllllllllllllllllllll",
"llllllllllllllllllllllllllllcjmcccgjflllllllllllllllllllllllllll",
"llllllllllllllllllllllllllllcjohjhgjdlllllllllllllllllllllllllll",
"llllllllllllllllllllllllllllcjommmgjclllllllllllllllllllllllllll",
"llllllllllllllllllllllllllllcdmoooddalllllllllllllllllllllllllll",
"llllllllllllllllllllllllllllcbjdddabanllllllllllllllllllllllllll",
"llllllllllllllllllllllllllltcbgcccabanplllllllllllllllllllllllll",
"lllllllllllllllllllllllllltwwbgcccabenplllllllllllllllllllllllll",
"llllllllllllllllllllllllllvyzqaaaabbipppllllllllllllllllllllllll",
"llllllllllllllllllllllllllvwzzqkkkpssrqpllllllllllllllllllllllll",
"lllllllllllllllllllllllllvwwzzzzyxwvssrpllllllllllllllllllllllll",
"lllllllllllllllllllllllllvwswzzzyxwvusrqllllllllllllllllllllllll",
"lllllllllllllllllllllllllvwvswwwwwvuusrqllllllllllllllllllllllll",
"lllllllllllllllllllllllllvwwuuwwwvvuusrqllllllllllllllllllllllll"};
