/* XPM */
static char *pistol_3[] = {
"64 64 29 1",
"a c #000000",
"b c #202020",
"c c #2C2C2C",
"d c #383838",
"e c #484848",
"f c #545454",
"g c #646464",
"h c #707070",
"i c #7C7C7C",
"j c #80502C",
"k c #8C8C8C",
"l c None",
"m c #989898",
"n c #A8A8A8",
"o c #B47044",
"p c #B4B4B4",
"q c #BC7848",
"r c #C87C4C",
"s c #D08050",
"t c #DC8854",
"u c #E88C58",
"v c #F0945C",
"w c #FC9C60",
"x c #FCA470",
"y c #FCB080",
"z c #FCB890",
"A c #FCBC9C",
"B c #FCC4A4",
"C c #FCD8C4",
"llllllllllllllllllllllllllllllllllllllllllllllllllllllllllllllll",
"llllllllllllllllllllllllllllllllllllllllllllllllllllllllllllllll",
"llllllllllllllllllllllllllllllllllllllllllllllllllllllllllllllll",
"llllllllllllllllllllllllllllllllllllllllllllllllllllllllllllllll",
"llllllllllllllllllllllllllllllllllllllllllllllllllllllllllllllll",
"llllllllllllllllllllllllllllllllllllllllllllllllllllllllllllllll",
"llllllllllllllllllllllllllllllllllllllllllllllllllllllllllllllll",
"llllllllllllllllllllllllllllllllllllllllllllllllllllllllllllllll",
"llllllllllllllllllllllllllllllllllllllllllllllllllllllllllllllll",
"llllllllllllllllllllllllllllllllllllllllllllllllllllllllllllllll",
"llllllllllllllllllllllllllllllllllllllllllllllllllllllllllllllll",
"llllllllllllllllllllllllllllllllllllllllllllllllllllllllllllllll",
"llllllllllllllllllllllllllllllllllllllllllllllllllllllllllllllll",
"llllllllllllllllllllllllllllllllllllllllllllllllllllllllllllllll",
"llllllllllllllllllllllllllllllllllllllllllllllllllllllllllllllll",
"llllllllllllllllllllllllllllllllllllllllllllllllllllllllllllllll",
"llllllllllllllllllllllllllllllllllllllllllllllllllllllllllllllll",
"llllllllllllllllllllllllllllllllllllllllllllllllllllllllllllllll",
"llllllllllllllllllllllllllllllllllllllllllllllllllllllllllllllll",
"llllllllllllllllllllllllllllllllllllllllllllllllllllllllllllllll",
"llllllllllllllllllllllllllllllllllllllllllllllllllllllllllllllll",
"llllllllllllllllllllllllllllllllllllllllllllllllllllllllllllllll",
"llllllllllllllllllllllllllllllllllllllllllllllllllllllllllllllll",
"llllllllllllllllllllllllllllllllllllllllllllllllllllllllllllllll",
"llllllllllllllllllllllllllllllllllllllllllllllllllllllllllllllll",
"llllllllllllllllllllllllllllllllllllllllllllllllllllllllllllllll",
"llllllllllllllllllllllllllllllllllllllllllllllllllllllllllllllll",
"llllllllllllllllllllllllllllllllllllllllllllllllllllllllllllllll",
"llllllllllllllllllllllllllllllllllllllllllllllllllllllllllllllll",
"llllllllllllllllllllllllllllllllllllllllllllllllllllllllllllllll",
"llllllllllllllllllllllllllllllllllllllllllllllllllllllllllllllll",
"llllllllllllllllllllllllllllllllllllllllllllllllllllllllllllllll",
"llllllllllllllllllllllllllllllllllllllllllllllllllllllllllllllll",
"llllllllllllllllllllllllllllllllllllllllllllllllllllllllllllllll",
"lllllllllllllllllllllllllllllllldlllllllllllllllllllllllllllllll",
"lllllllllllllllllllllllllllllllfhfllllllllllllllllllllllllllllll",
"lllllllllllllllllllllllllllllleinielllllllllllllllllllllllllllll",
"lllllllllllllllllllllllllllllleinielllllllllllllllllllllllllllll",
"lllllllllllllllllllllllllllllleinielllllllllllllllllllllllllllll",
"lllllllllllllllllllllllllllllleinielllllllllllllllllllllllllllll",
"llllllllllllllllllllllllllllliigkgiillllllllllllllllllllllllllll",
"llllllllllllllllllllllllllllgiigkgiiglllllllllllllllllllllllllll",
"llllllllllllllllllllllllllllfindedgiflllllllllllllllllllllllllll",
"llllllllllllllllllllllllllllfmmcccgielllllllllllllllllllllllllll",
"llllllllllllllllllllllllllllfnphihgidlllllllllllllllllllllllllll",
"llllllllllllllllllllllllllllfnppppgecollllllllllllllllllllllllll",
"lllllllllllllllllllllllllllxfkpkkkeeaoolllllllllllllllllllllllll",
"llllllllllllllllllllllllllxAffieeecbaoolllllllllllllllllllllllll",
"llllllllllllllllllllllllllxAgfgcccabaqoollllllllllllllllllllllll",
"llllllllllllllllllllllllllxAifgcccaafrqollllllllllllllllllllllll",
"lllllllllllllllllllllllllxxyyifaaabforqollllllllllllllllllllllll",
"lllllllllllllllllllllllllxxyCzrjjjouutrollllllllllllllllllllllll",
"lllllllllllllllllllllllllxyyCBBBBzyxuutollllllllllllllllllllllll",
"lllllllllllllllllllllllllxyuyBBBBzyxwutrllllllllllllllllllllllll",
"lllllllllllllllllllllllllxyxuxxxxxxwwutrllllllllllllllllllllllll",
"lllllllllllllllllllllllllvyyuuwwwwwwuusrllllllllllllllllllllllll",
"llllllllllllllllllllllllltyyytsssssssssrllllllllllllllllllllllll",
"llllllllllllllllllllllllmmmmiqqqqqiiiiiiglllllllllllllllllllllll",
"lllllllllllllllllllllllmnnnmihhrqfimmmiiigllllllllllllllllllllll",
"lllllllllllllllllllllllmnnnmiihffiimmiiiigllllllllllllllllllllll",
"llllllllllllllllllllllmmnmkhiigffiiihhhgggglllllllllllllllllllll",
"lllllllllllllllllllllmnnnnmmhgggefihikiiigggllllllllllllllllllll",
"lllllllllllllllllllllnnnnmmiiigfefhikkkiiiggllllllllllllllllllll",
"llllllllllllllllllllmnnnmmiiiggfefhikkkiiiigglllllllllllllllllll"};
