/* XPM */
static char *mutant[] = {
"521 456 67 1",
"a c #000000",
"b c #000040",
"c c #044000",
"d c #044C00",
"e c #045800",
"f c #046400",
"g c #047000",
"h c #1C1C1C",
"i c #202020",
"j c #28200C",
"k c #282828",
"l c #2C2C2C",
"m c #303030",
"n c #343434",
"o c #383838",
"p c #400000",
"q c #400040",
"r c #403018",
"s c #483818",
"t c #484848",
"u c #4C0000",
"v c #543C1C",
"w c #545454",
"x c #580000",
"y c #580058",
"z c #5C4020",
"A c #5C5C5C",
"B c None",
"C c #640000",
"D c #646464",
"E c #6C0070",
"F c #6C4824",
"G c #700000",
"H c #707070",
"I c #744C28",
"J c #7C0000",
"K c #7C7C7C",
"L c None",
"M c #840084",
"N c #880000",
"O c #885830",
"P c #8C8C8C",
"Q c #989898",
"R c #9C009C",
"S c #9C4C00",
"T c #A0643C",
"U c #A86840",
"V c #A8A8A8",
"W c #B00000",
"X c #B45400",
"Y c #B47044",
"Z c #B4B4B4",
"0 c #BC0000",
"1 c #C0C0C0",
"2 c #C800CC",
"3 c #D0D0D0",
"4 c #DCDCDC",
"5 c #EC0000",
"6 c #ECECEC",
"7 c #FC4040",
"8 c #FC5C5C",
"9 c #FC7C7C",
"# c #FC8820",
"$ c #FC9C9C",
"% c #FCA85C",
"& c #FCF400",
"* c #FCFCFC",
"LLLLLLLLLLLLLLLLLLLLLLLLLLLLLLLLLLLLLLLLLLLLLLLLLLLLLLLLLLLLLLLLLLLLLLLLLLLLLLLLLLLLLLLLLLLLLLLLLLLLLLLLLLLLLLLLLLLLLLLLLLLLLLLLLLLLLLLLLLLLLLLLLLLLLLLLLLLLLLLLLLLLLLLLLLLLLLLLLLLLLLLLLLLLLLLLLLLLLLLLLLLLLLLLLLLLLLLLLLLLLLLLLLLLLLLLLLLLLLLLLLLLLLLLLLLLLLLLLLLLLLLLLLLLLLLLLLLLLLLLLLLLLLLLLLLLLLLLLLLLLLLLLLLLLLLLLLLLLLLLLLLLLLLLLLLLLLLLLLLLLLLLLLLLLLLLLLLLLLLLLLLLLLLLLLLLLLLLLLLLLLLLLLLLLLLLLLLLLLLLLLLLLLLLLLLLLLLLLLLLLLLLLLLLLLLLLLLLLLLLLLLLLLLLLLLLLLLLLLLLLLLLLLLLLLLLLLLLLLLLLLLLLLLLLLLLLLLLLLLLLLLLLLLLLLLLLLLLLLLLL",
"LBBBBBBBBBBBBBBBBBBBBBBBBBBBBBBBBBBBBBBBBBBBBBBBBBBBBBBBBBBBBBBBBLBBBBBBBBBBBBBBBBBBBBBBBBBBBBBBBBBBBBBBBBBBBBBBBBBBBBBBBBBBBBBBBBLBBBBBBBBBBBBBBBBBBBBBBBBBBBBBBBBBBBBBBBBBBBBBBBBBBBBBBBBBBBBBBBBLBBBBBBBBBBBBBBBBBBBBBBBBBBBBBBBBBBBBBBBBBBBBBBBBBBBBBBBBBBBBBBBBLBBBBBBBBBBBBBBBBBBBBBBBBBBBBBBBBBBBBBBBBBBBBBBBBBBBBBBBBBBBBBBBBLBBBBBBBBBBBBBBBBBBBBBBBBBBBBBBBBBBBBBBBBBBBBBBBBBBBBBBBBBBBBBBBBLBBBBBBBBBBBBBBBBBBBBBBBBBBBBBBBBBBBBBBBBBBBBBBBBBBBBBBBBBBBBBBBBLBBBBBBBBBBBBBBBBBBBBBBBBBBBBBBBBBBBBBBBBBBBBBBBBBBBBBBBBBBBBBBBBL",
"LBBBBBBBBBBBBBBBBBBBBBBBBBBBBBBBBBBBBBBBBBBBBBBBBBBBBBBBBBBBBBBBBLBBBBBBBBBBBBBBBBBBBBBBBBBBBBBBBBBBBBBBBBBBBBBBBBBBBBBBBBBBBBBBBBLBBBBBBBBBBBBBBBBBBBBBBBBBBBBBBBBBBBBBBBBBBBBBBBBBBBBBBBBBBBBBBBBLBBBBBBBBBBBBBBBBBBBBBBBBBBBBBBBBBBBBBBBBBBBBBBBBBBBBBBBBBBBBBBBBLBBBBBBBBBBBBBBBBBBBBBBBBBBBBBBBBBBBBBBBBBBBBBBBBBBBBBBBBBBBBBBBBLBBBBBBBBBBBBBBBBBBBBBBBBBBBBBBBBBBBBBBBBBBBBBBBBBBBBBBBBBBBBBBBBLBBBBBBBBBBBBBBBBBBBBBBBBBBBBBBBBBBBBBBBBBBBBBBBBBBBBBBBBBBBBBBBBLBBBBBBBBBBBBBBBBBBBBBBBBBBBBBBBBBBBBBBBBBBBBBBBBBBBBBBBBBBBBBBBBL",
"LBBBBBBBBBBBBBBBBBBBBBBBBBBBBBBBBBBBBBBBBBBBBBBBBBBBBBBBBBBBBBBBBLBBBBBBBBBBBBBBBBBBBBBBBBBBBBBBBBBBBBBBBBBBBBBBBBBBBBBBBBBBBBBBBBLBBBBBBBBBBBBBBBBBBBBBBBBBBBBBBBBBBBBBBBBBBBBBBBBBBBBBBBBBBBBBBBBLBBBBBBBBBBBBBBBBBBBBBBBBBBBBBBBBBBBBBBBBBBBBBBBBBBBBBBBBBBBBBBBBLBBBBBBBBBBBBBBBBBBBBBBBBBBBBBBBBBBBBBBBBBBBBBBBBBBBBBBBBBBBBBBBBLBBBBBBBBBBBBBBBBBBBBBBBBBBBBBBBBBBBBBBBBBBBBBBBBBBBBBBBBBBBBBBBBLBBBBBBBBBBBBBBBBBBBBBBBBBBBBBBBBBBBBBBBBBBBBBBBBBBBBBBBBBBBBBBBBLBBBBBBBBBBBBBBBBBBBBBBBBBBBBBBBBBBBBBBBBBBBBBBBBBBBBBBBBBBBBBBBBL",
"LBBBBBBBBBBBBBBBBBBBBBBBBBBBBBBBBBBBBBBBBBBBBBBBBBBBBBBBBBBBBBBBBLBBBBBBBBBBBBBBBBBBBBBBBBBBBBBBBBBBBBBBBBBBBBBBBBBBBBBBBBBBBBBBBBLBBBBBBBBBBBBBBBBBBBBBBBBBBBBBBBBBBBBBBBBBBBBBBBBBBBBBBBBBBBBBBBBLBBBBBBBBBBBBBBBBBBBBBBBBBBBBBBBBBBBBBBBBBBBBBBBBBBBBBBBBBBBBBBBBLBBBBBBBBBBBBBBBBBBBBBBBBBBBBBBBBBBBBBBBBBBBBBBBBBBBBBBBBBBBBBBBBLBBBBBBBBBBBBBBBBBBBBBBBBBBBBBBBBBBBBBBBBBBBBBBBBBBBBBBBBBBBBBBBBLBBBBBBBBBBBBBBBBBBBBBBBBBBBBBBBBBBBBBBBBBBBBBBBBBBBBBBBBBBBBBBBBLBBBBBBBBBBBBBBBBBBBBBBBBBBBBBBBBBBBBBBBBBBBBBBBBBBBBBBBBBBBBBBBBL",
"LBBBBBBBBBBBBBBBBBBBBBBBBBBBBBBBBBBBBBBBBBBBBBBBBBBBBBBBBBBBBBBBBLBBBBBBBBBBBBBBBBBBBBBBBBBBBBBBBBBBBBBBBBBBBBBBBBBBBBBBBBBBBBBBBBLBBBBBBBBBBBBBBBBBBBBBBBBBBBBBBBBBBBBBBBBBBBBBBBBBBBBBBBBBBBBBBBBLBBBBBBBBBBBBBBBBBBBBBBBBBBBBBBBBBBBBBBBBBBBBBBBBBBBBBBBBBBBBBBBBLBBBBBBBBBBBBBBBBBBBBBBBBBBBBBBBBBBBBBBBBBBBBBBBBBBBBBBBBBBBBBBBBLBBBBBBBBBBBBBBBBBBBBBBBBBBBBBBBBBBBBBBBBBBBBBBBBBBBBBBBBBBBBBBBBLBBBBBBBBBBBBBBBBBBBBBBBBBBBBBBBBBBBBBBBBBBBBBBBBBBBBBBBBBBBBBBBBLBBBBBBBBBBBBBBBBBBBBBBBBBBBBBBBBBBBBBBBBBBBBBBBBBBBBBBBBBBBBBBBBL",
"LBBBBBBBBBBBBBBBBBBBBBBBBBBBBBBBBBBBBBBBBBBBBBBBBBBBBBBBBBBBBBBBBLBBBBBBBBBBBBBBBBBBBBBBBBBBBBBBBBBBBBBBBBBBBBBBBBBBBBBBBBBBBBBBBBLBBBBBBBBBBBBBBBBBBBBBBBBBBBBBBBBBBBBBBBBBBBBBBBBBBBBBBBBBBBBBBBBLBBBBBBBBBBBBBBBBBBBBBBBBBBBBBBBBBBBBBBBBBBBBBBBBBBBBBBBBBBBBBBBBLBBBBBBBBBBBBBBBBBBBBBBBBBBBBBBBBBBBBBBBBBBBBBBBBBBBBBBBBBBBBBBBBLBBBBBBBBBBBBBBBBBBBBBBBBBBBBBBBBBBBBBBBBBBBBBBBBBBBBBBBBBBBBBBBBLBBBBBBBBBBBBBBBBBBBBBBBBBBBBBBBBBBBBBBBBBBBBBBBBBBBBBBBBBBBBBBBBLBBBBBBBBBBBBBBBBBBBBBBBBBBBBBBBBBBBBBBBBBBBBBBBBBBBBBBBBBBBBBBBBL",
"LBBBBBBBBBBBBBBBBBBBBBBBBBBBBBBBBBBBBBBBBBBBBBBBBBBBBBBBBBBBBBBBBLBBBBBBBBBBBBBBBBBBBBBBBBBBBBBBBBBBBBBBBBBBBBBBBBBBBBBBBBBBBBBBBBLBBBBBBBBBBBBBBBBBBBBBBBBBBBBBBBBBBBBBBBBBBBBBBBBBBBBBBBBBBBBBBBBLBBBBBBBBBBBBBBBBBBBBBBBBBBBBBBBBBBBBBBBBBBBBBBBBBBBBBBBBBBBBBBBBLBBBBBBBBBBBBBBBBBBBBBBBBBBBBBBBBBBBBBBBBBBBBBBBBBBBBBBBBBBBBBBBBLBBBBBBBBBBBBBBBBBBBBBBBBBBBBBBBBBBBBBBBBBBBBBBBBBBBBBBBBBBBBBBBBLBBBBBBBBBBBBBBBBBBBBBBBBBBBBBBBBBBBBBBBBBBBBBBBBBBBBBBBBBBBBBBBBLBBBBBBBBBBBBBBBBBBBBBBBBBBBBBBBBBBBBBBBBBBBBBBBBBBBBBBBBBBBBBBBBL",
"LBBBBBBBBBBBBBBBBBBBBBBBBBBBBBBBBBBBBBBBBBBBBBBBBBBBBBBBBBBBBBBBBLBBBBBBBBBBBBBBBBBBBBBBBBBBBBBBBBBBBBBBBBBBBBBBBBBBBBBBBBBBBBBBBBLBBBBBBBBBBBBBBBBBBBBBBBBBBBBBBBBBBBBBBBBBBBBBBBBBBBBBBBBBBBBBBBBLBBBBBBBBBBBBBBBBBBBBBBBBBBBBBBBBBBBBBBBBBBBBBBBBBBBBBBBBBBBBBBBBLBBBBBBBBBBBBBBBBBBBBBBBBBBBBBBBBBBBBBBBBBBBBBBBBBBBBBBBBBBBBBBBBLBBBBBBBBBBBBBBBBBBBBBBBBBBBBBBBBBBBBBBBBBBBBBBBBBBBBBBBBBBBBBBBBLBBBBBBBBBBBBBBBBBBBBBBBBBBBBBBBBBBBBBBBBBBBBBBBBBBBBBBBBBBBBBBBBLBBBBBBBBBBBBBBBBBBBBBBBBBBBBBBBBBBBBBBBBBBBBBBBBBBBBBBBBBBBBBBBBL",
"LBBBBBBBBBBBBBBBBBBBBBBBBBBBBBBBBBBBBBBBBBBBBBBBBBBBBBBBBBBBBBBBBLBBBBBBBBBBBBBBBBBBBBBBBBBBBBBBBBBBBBBBBBBBBBBBBBBBBBBBBBBBBBBBBBLBBBBBBBBBBBBBBBBBBBBBBBBBBBBBBBBBBBBBBBBBBBBBBBBBBBBBBBBBBBBBBBBLBBBBBBBBBBBBBBBBBBBBBBBBBBBBBBBBBBBBBBBBBBBBBBBBBBBBBBBBBBBBBBBBLBBBBBBBBBBBBBBBBBBBBBBBBBBBBBBBBBBBBBBBBBBBBBBBBBBBBBBBBBBBBBBBBLBBBBBBBBBBBBBBBBBBBBBBBBBBBBBBBBBBBBBBBBBBBBBBBBBBBBBBBBBBBBBBBBLBBBBBBBBBBBBBBBBBBBBBBBBBBBBBBBBBBBBBBBBBBBBBBBBBBBBBBBBBBBBBBBBLBBBBBBBBBBBBBBBBBBBBBBBBBBBBBBBBBBBBBBBBBBBBBBBBBBBBBBBBBBBBBBBBL",
"LBBBBBBBBBBBBBBBBBBBBBBBBBBBBBBBBBBBBBBBBBBBBBBBBBBBBBBBBBBBBBBBBLBBBBBBBBBBBBBBBBBBBBBBBBBBBBBBBBBBBBBBBBBBBBBBBBBBBBBBBBBBBBBBBBLBBBBBBBBBBBBBBBBBBBBBBBBBBBBBBBBBBBBBBBBBBBBBBBBBBBBBBBBBBBBBBBBLBBBBBBBBBBBBBBBBBBBBBBBBBBBBBBBBBBBBBBBBBBBBBBBBBBBBBBBBBBBBBBBBLBBBBBBBBBBBBBBBBBBBBBBBBBBBBBBBBBBBBBBBBBBBBBBBBBBBBBBBBBBBBBBBBLBBBBBBBBBBBBBBBBBBBBBBBBBBBBBBBBBBBBBBBBBBBBBBBBBBBBBBBBBBBBBBBBLBBBBBBBBBBBBBBBBBBBBBBBBBBBBBBBBBBBBBBBBBBBBBBBBBBBBBBBBBBBBBBBBLBBBBBBBBBBBBBBBBBBBBBBBBBBBBBBBBBBBBBBBBBBBBBBBBBBBBBBBBBBBBBBBBL",
"LBBBBBBBBBBBBBBBBBBBBBBBBBBBBBBBBBBBBBBBBBBBBBBBBBBBBBBBBBBBBBBBBLBBBBBBBBBBBBBBBBBBBBBBBBBBBBBBBBBBBBBBBBBBBBBBBBBBBBBBBBBBBBBBBBLBBBBBBBBBBBBBBBBBBBBBBBBBBBBBBBBBBBBBBBBBBBBBBBBBBBBBBBBBBBBBBBBLBBBBBBBBBBBBBBBBBBBBBBBBBBBBBBBBBBBBBBBBBBBBBBBBBBBBBBBBBBBBBBBBLBBBBBBBBBBBBBBBBBBBBBBBBBBBBBBBBBBBBBBBBBBBBBBBBBBBBBBBBBBBBBBBBLBBBBBBBBBBBBBBBBBBBBBBBBBBBBBBBBBBBBBBBBBBBBBBBBBBBBBBBBBBBBBBBBLBBBBBBBBBBBBBBBBBBBBBBBBBBBBBBBBBBBBBBBBBBBBBBBBBBBBBBBBBBBBBBBBLBBBBBBBBBBBBBBBBBBBBBBBBBBBBBBBBBBBBBBBBBBBBBBBBBBBBBBBBBBBBBBBBL",
"LBBBBBBBBBBBBBBBBBBBBBBBBBBBBBBBBBBBBBBBBBBBBBBBBBBBBBBBBBBBBBBBBLBBBBBBBBBBBBBBBBBBBBBBBBBBBBBBBBBBBBBBBBBBBBBBBBBBBBBBBBBBBBBBBBLBBBBBBBBBBBBBBBBBBBBBBBBBBBBBBBBBBBBBBBBBBBBBBBBBBBBBBBBBBBBBBBBLBBBBBBBBBBBBBBBBBBBBBBBBBBBBBBBBBBBBBBBBBBBBBBBBBBBBBBBBBBBBBBBBLBBBBBBBBBBBBBBBBBBBBBBBBBBBBBBBBBBBBBBBBBBBBBBBBBBBBBBBBBBBBBBBBLBBBBBBBBBBBBBBBBBBBBBBBBBBBBBBBBBBBBBBBBBBBBBBBBBBBBBBBBBBBBBBBBLBBBBBBBBBBBBBBBBBBBBBBBBBBBBBBBBBBBBBBBBBBBBBBBBBBBBBBBBBBBBBBBBLBBBBBBBBBBBBBBBBBBBBBBBBBBBBBBBBBBBBBBBBBBBBBBBBBBBBBBBBBBBBBBBBL",
"LBBBBBBBBBBBBBBBBBBBBBBBBBBBBBBBBBBBBBBBBBBBBBBBBBBBBBBBBBBBBBBBBLBBBBBBBBBBBBBBBBBBBBBBBBBBBBBBBBBBBBBBBBBBBBBBBBBBBBBBBBBBBBBBBBLBBBBBBBBBBBBBBBBBBBBBBBBBBBBBBBBBBBBBBBBBBBBBBBBBBBBBBBBBBBBBBBBLBBBBBBBBBBBBBBBBBBBBBBBBBBBBBBBBBBBBBBBBBBBBBBBBBBBBBBBBBBBBBBBBLBBBBBBBBBBBBBBBBBBBBBBBBBBBBBBBBBBBBBBBBBBBBBBBBBBBBBBBBBBBBBBBBLBBBBBBBBBBBBBBBBBBBBBBBBBBBBBBBBBBBBBBBBBBBBBBBBBBBBBBBBBBBBBBBBLBBBBBBBBBBBBBBBBBBBBBBBBBBBBBBBBBBBBBBBBBBBBBBBBBBBBBBBBBBBBBBBBLBBBBBBBBBBBBBBBBBBBBBBBBBBBBBBBBBBBBBBBBBBBBBBBBBBBBBBBBBBBBBBBBL",
"LBBBBBBBBBBBBBBBBBBBBBBBBBBBBBBBBBBBBBBBBBBBBBBBBBBBBBBBBBBBBBBBBLBBBBBBBBBBBBBBBBBBBBBBBBBBBBBBBBBBBBBBBBBBBBBBBBBBBBBBBBBBBBBBBBLBBBBBBBBBBBBBBBBBBBBBBBBBBBBBBBBBBBBBBBBBBBBBBBBBBBBBBBBBBBBBBBBLBBBBBBBBBBBBBBBBBBBBBBBBBBBBBBBBBBBBBBBBBBBBBBBBBBBBBBBBBBBBBBBBLBBBBBBBBBBBBBBBBBBBBBBBBBBBBBBBBBBBBBBBBBBBBBBBBBBBBBBBBBBBBBBBBLBBBBBBBBBBBBBBBBBBBBBBBBBBBBBBBBBBBBBBBBBBBBBBBBBBBBBBBBBBBBBBBBLBBBBBBBBBBBBBBBBBBBBBBBBBBBBBBBBBBBBBBBBBBBBBBBBBBBBBBBBBBBBBBBBLBBBBBBBBBBBBBBBBBBBBBBBBBBBBBBBBBBBBBBBBBBBBBBBBBBBBBBBBBBBBBBBBL",
"LBBBBBBBBBBBBBBBBBBBBBBBBBBBBBBBBBBBBBBBBBBBBBBBBBBBBBBBBBBBBBBBBLBBBBBBBBBBBBBBBBBBBBBBBBBBBBBBBBBBBBBBBBBBBBBBBBBBBBBBBBBBBBBBBBLBBBBBBBBBBBBBBBBBBBBBBBBBBBBBBBBBBBBBBBBBBBBBBBBBBBBBBBBBBBBBBBBLBBBBBBBBBBBBBBBBBBBBBBBBBBBBBBBBBBBBBBBBBBBBBBBBBBBBBBBBBBBBBBBBLBBBBBBBBBBBBBBBBBBBBBBBBBBBBBBBBBBBBBBBBBBBBBBBBBBBBBBBBBBBBBBBBLBBBBBBBBBBBBBBBBBBBBBBBBBBBBBBBBBBBBBBBBBBBBBBBBBBBBBBBBBBBBBBBBLBBBBBBBBBBBBBBBBBBBBBBBBBBBBBBBBBBBBBBBBBBBBBBBBBBBBBBBBBBBBBBBBLBBBBBBBBBBBBBBBBBBBBBBBBBBBBBBBBBBBBBBBBBBBBBBBBBBBBBBBBBBBBBBBBL",
"LBBBBBBBBBBBBBBBBBBBBBBBBBBBBBBBBBBBBBBBBBBBBBBBBBBBBBBBBBBBBBBBBLBBBBBBBBBBBBBBBBBBBBBBBBBBBBBBBBBBBBBBBBBBBBBBBBBBBBBBBBBBBBBBBBLBBBBBBBBBBBBBBBBBBBBBBBBBBBBBBBBBBBBBBBBBBBBBBBBBBBBBBBBBBBBBBBBLBBBBBBBBBBBBBBBBBBBBBBBBBBBBBBBBBBBBBBBBBBBBBBBBBBBBBBBBBBBBBBBBLBBBBBBBBBBBBBBBBBBBBBBBBBBBBBBBBBBBBBBBBBBBBBBBBBBBBBBBBBBBBBBBBLBBBBBBBBBBBBBBBBBBBBBBBBBBBBBBBBBBBBBBBBBBBBBBBBBBBBBBBBBBBBBBBBLBBBBBBBBBBBBBBBBBBBBBBBBBBBBBBBBBBBBBBBBBBBBBBBBBBBBBBBBBBBBBBBBLBBBBBBBBBBBBBBBBBBBBBBBBBBBBBBBBBBBBBBBBBBBBBBBBBBBBBBBBBBBBBBBBL",
"LBBBBBBBBBBBBBBBBBBBBBBBBBBBBBBBBBBBBBBBBBBBBBBBBBBBBBBBBBBBBBBBBLBBBBBBBBBBBBBBBBBBBBBBBBBBBBBBBBBBBBBBBBBBBBBBBBBBBBBBBBBBBBBBBBLBBBBBBBBBBBBBBBBBBBBBBBBBBBBBBBBBBBBBBBBBBBBBBBBBBBBBBBBBBBBBBBBLBBBBBBBBBBBBBBBBBBBBBBBBBBBBBBBBBBBBBBBBBBBBBBBBBBBBBBBBBBBBBBBBLBBBBBBBBBBBBBBBBBBBBBBBBBBBBBBBBBBBBBBBBBBBBBBBBBBBBBBBBBBBBBBBBLBBBBBBBBBBBBBBBBBBBBBBBBBBBBBBBBBBBBBBBBBBBBBBBBBBBBBBBBBBBBBBBBLBBBBBBBBBBBBBBBBBBBBBBBBBBBBBBBBBBBBBBBBBBBBBBBBBBBBBBBBBBBBBBBBLBBBBBBBBBBBBBBBBBBBBBBBBBBBBBBBBBBBBBBBBBBBBBBBBBBBBBBBBBBBBBBBBL",
"LBBBBBBBBBBBBBBBBBBBBBBBBBBBBaaaaaaaaBBBBBBBBBBBBBBBBBBBBBBBBBBBBLBBBBBBBBBBBBBBBBBBBBBBBBBBBBiiiiiiiiiBBBBBBBBBBBBBBBBBBBBBBBBBBBLBBBBBBBBBBBBBBBBBBBBBBBBBBBBBBiiiiiiiiiBBBBBBBBBBBBBBBBBBBBBBBBBLBBBBBBBBBBBBBBBBBBBBBBBBBBiiiiiiaaaBBBBBBBBBBBBBBBBBBBBBBBBBBBBBLBBBBBBBBBBBBBBBBBBBBBBBBBBBBBllliiaaaBBBBBBBBBBBBBBBBBBBBBBBBBBBLBBBBBBBBBBBBBBBBBBBBBBBBBBBBBiiiiiiiiiBBBBBBBBBBBBBBBBBBBBBBBBBBLBBBBBBBBBBBBBBBBBBBBBBBBBiiiiiiiiiBBBBBBBBBBBBBBBBBBBBBBBBBBBBBBLBBBBBBBBBBBBBBBBBBBBBBBBBBBBiiiiiiiiiBBBBBBBBBBBBBBBBBBBBBBBBBBBL",
"LBBBBBBBBBBBBBBBBBBBBBBBBBBBBlttttttaBBBBBBBBBBBBBBBBBBBBBBBBBBBBLBBBBBBBBBBBBBBBBBBBBBBBBBBBBwwwwoiiiiBBBBBBBBBBBBBBBBBBBBBBBBBBBLBBBBBBBBBBBBBBBBBBBBBBBBBBBBBBwwtoiiiiiBBBBBBBBBBBBBBBBBBBBBBBBBLBBBBBBBBBBBBBBBBBBBBBBBBBBtoiiiiaaaBBBBBBBBBBBBBBBBBBBBBBBBBBBBBLBBBBBBBBBBBBBBBBBBBBBBBBBBBBBlliaaaaaBBBBBBBBBBBBBBBBBBBBBBBBBBBLBBBBBBBBBBBBBBBBBBBBBBBBBBBBBiiiiiiiotBBBBBBBBBBBBBBBBBBBBBBBBBBLBBBBBBBBBBBBBBBBBBBBBBBBBiiiiiotwwBBBBBBBBBBBBBBBBBBBBBBBBBBBBBBLBBBBBBBBBBBBBBBBBBBBBBBBBBBBiiiiowwwwBBBBBBBBBBBBBBBBBBBBBBBBBBBL",
"LBBBBBBBBBBBBBBBBBBBBBBBBBBBBiDZZQQDiBBBBBBBBBBBBBBBBBBBBBBBBBBBBLBBBBBBBBBBBBBBBBBBBBBBBBBBBBHQQHDoiiiBBBBBBBBBBBBBBBBBBBBBBBBBBBLBBBBBBBBBBBBBBBBBBBBBBBBBBBBBBHQQHtoiiiBBBBBBBBBBBBBBBBBBBBBBBBBLBBBBBBBBBBBBBBBBBBBBBBBBBBQHtoiiaaaBBBBBBBBBBBBBBBBBBBBBBBBBBBBBLBBBBBBBBBBBBBBBBBBBBBBBBBBBBBiliaaaaiBBBBBBBBBBBBBBBBBBBBBBBBBBBLBBBBBBBBBBBBBBBBBBBBBBBBBBBBBiiiiiotDDBBBBBBBBBBBBBBBBBBBBBBBBBBLBBBBBBBBBBBBBBBBBBBBBBBBBiiiotHHHHBBBBBBBBBBBBBBBBBBBBBBBBBBBBBBLBBBBBBBBBBBBBBBBBBBBBBBBBBBBiiioDHKKHBBBBBBBBBBBBBBBBBBBBBBBBBBBL",
"LBBBBBBBBBBBBBBBBBBBBBBBBBBBBt14PZ41tBBBBBBBBBBBBBBBBBBBBBBBBBBBBLBBBBBBBBBBBBBBBBBBBBBBBBBBBB4Q4QHwHiiBBBBBBBBBBBBBBBBBBBBBBBBBBBLBBBBBBBBBBBBBBBBBBBBBBBBBBBBBB44ZQwHHiiBBBBBBBBBBBBBBBBBBBBBBBBBLBBBBBBBBBBBBBBBBBBBBBBBBBBZQwHoiaaaBBBBBBBBBBBBBBBBBBBBBBBBBBBBBLBBBBBBBBBBBBBBBBBBBBBBBBBBBBBtliaaaatBBBBBBBBBBBBBBBBBBBBBBBBBBBLBBBBBBBBBBBBBBBBBBBBBBBBBBBBBiiiioDwDHBBBBBBBBBBBBBBBBBBBBBBBBBBLBBBBBBBBBBBBBBBBBBBBBBBBBii1HwQHQQBBBBBBBBBBBBBBBBBBBBBBBBBBBBBBLBBBBBBBBBBBBBBBBBBBBBBBBBBBBiiHwHQVKVBBBBBBBBBBBBBBBBBBBBBBBBBBBL",
"LBBBBBBBBBBBBBBBBBBBBBBBBBBBBKV5PDWVKBBBBBBBBBBBBBBBBBBBBBBBBBBBBLBBBBBBBBBBBBBBBBBBBBBBBBBBBBGQ0GHHHoiBBBBBBBBBBBBBBBBBBBBBBBBBBBLBBBBBBBBBBBBBBBBBBBBBBBBBBBBBBQ0QHHHHiiBBBBBBBBBBBBBBBBBBBBBBBBBLBBBBBBBBBBBBBBBBBBBBBBBBBBQHHHoiaaaBBBBBBBBBBBBBBBBBBBBBBBBBBBBBLBBBBBBBBBBBBBBBBBBBBBBBBBBBBBKliaaaaDBBBBBBBBBBBBBBBBBBBBBBBBBBBLBBBBBBBBBBBBBBBBBBBBBBBBBBBBBiiiioDDHwBBBBBBBBBBBBBBBBBBBBBBBBBBLBBBBBBBBBBBBBBBBBBBBBBBBBii1HHHD0DBBBBBBBBBBBBBBBBBBBBBBBBBBBBBBLBBBBBBBBBBBBBBBBBBBBBBBBBBBBioHHHG0KGBBBBBBBBBBBBBBBBBBBBBBBBBBBL",
"LBBBBBBBBBBBBBBBBBBBBBBBBBBBBK14ZP41KBBBBBBBBBBBBBBBBBBBBBBBBBBBBLBBBBBBBBBBBBBBBBBBBBBBBBBBBBP44ZQtwoiBBBBBBBBBBBBBBBBBBBBBBBBBBBLBBBBBBBBBBBBBBBBBBBBBBBBBBBBBQ441QQtwoiBBBBBBBBBBBBBBBBBBBBBBBBBLBBBBBBBBBBBBBBBBBBBBBBBBBB1QQtwtiaaBBBBBBBBBBBBBBBBBBBBBBBBBBBBBLBBBBBBBBBBBBBBBBBBBBBBBBBBBBBKliaaatDBBBBBBBBBBBBBBBBBBBBBBBBBBBLBBBBBBBBBBBBBBBBBBBBBBBBBBBBBiiitwtDHHBBBBBBBBBBBBBBBBBBBBBBBBBBLBBBBBBBBBBBBBBBBBBBBBBBBBioPPVQQQHHBBBBBBBBBBBBBBBBBBBBBBBBBBBBBLBBBBBBBBBBBBBBBBBBBBBBBBBBBBiowtQKKZHBBBBBBBBBBBBBBBBBBBBBBBBBBBL",
"LBBBBBBBBBBBBBBBBBBBBBBBBBBBBBQZVVZQBBBBBBBBBBBBBBBBBBBBBBBBBBBBBLBBBBBBBBBBBBBBBBBBBBBBBBBBBBHZZQQwtoBBBBBBBBBBBBBBBBBBBBBBBBBBBBLBBBBBBBBBBBBBBBBBBBBBBBBBBBBBBPVQ1QwtoBBBBBBBBBBBBBBBBBBBBBBBBBBLBBBBBBBBBBBBBBBBBBBBBBBBBBQ1QwttooBBBBBBBBBBBBBBBBBBBBBBBBBBBBBBLBBBBBBBBBBBBBBBBBBBBBBBBBBBBBBQtaatDBBBBBBBBBBBBBBBBBBBBBBBBBBBBLBBBBBBBBBBBBBBBBBBBBBBBBBBBBBBQPKDwKDDBBBBBBBBBBBBBBBBBBBBBBBBBBLBBBBBBBBBBBBBBBBBBBBBBBBBB1VPV1QPKBBBBBBBBBBBBBBBBBBBBBBBBBBBBBBLBBBBBBBBBBBBBBBBBBBBBBBBBBBBBZQZQKKKwBBBBBBBBBBBBBBBBBBBBBBBBBBBL",
"LBBBBBBBBBBBBBBBBBBBBBBBBBBBBBQVHKVKBBBBBBBBBBBBBBBBBBBBBBBBBBBBBLBBBBBBBBBBBBBBBBBBBBBBBBBBBBtDKZQDwoBBBBBBBBBBBBBBBBBBBBBBBBBBBBLBBBBBBBBBBBBBBBBBBBBBBBBBBBBBBwVKZQDwoBBBBBBBBBBBBBBBBBBBBBBBBBBLBBBBBBBBBBBBBBBBBBBBBBBBBBKZQDwtooBBBBBBBBBBBBBBBBBBBBBBBBBBBBBBLBBBBBBBBBBBBBBBBBBBBBBBBBBBBBBQVHKHDBBBBBBBBBBBBBBBBBBBBBBBBBBBBLBBBBBBBBBBBBBBBBBBBBBBBBBBBBBBQPKDDKDtBBBBBBBBBBBBBBBBBBBBBBBBBBLBBBBBBBBBBBBBBBBBBBBBBBBBB1VPVZKPwBBBBBBBBBBBBBBBBBBBBBBBBBBBBBBLBBBBBBBBBBBBBBBBBBBBBBBBBBBBBZQZQKDwtBBBBBBBBBBBBBBBBBBBBBBBBBBBL",
"LBBBBBBBBBBBBBBBBBBBBBBBBBBBBBQZ11ZwBBBBBBBBBBBBBBBBBBBBBBBBBBBBBLBBBBBBBBBBBBBBBBBBBBBBBBBBBBHZZQDHwoBBBBBBBBBBBBBBBBBBBBBBBBBBBBLBBBBBBBBBBBBBBBBBBBBBBBBBBBBBBKPZQDDwoBBBBBBBBBBBBBBBBBBBBBBBBBBLBBBBBBBBBBBBBBBBBBBBBBBBBBZQDDwtooBBBBBBBBBBBBBBBBBBBBBBBBBBBBBBLBBBBBBBBBBBBBBBBBBBBBBBBBBBBBBQZ1KHwBBBBBBBBBBBBBBBBBBBBBBBBBBBBLBBBBBBBBBBBBBBBBBBBBBBBBBBBBBBQPKDDHHDBBBBBBBBBBBBBBBBBBBBBBBBBBLBBBBBBBBBBBBBBBBBBBBBBBBBB1VPDQZPKBBBBBBBBBBBBBBBBBBBBBBBBBBBBBBLBBBBBBBBBBBBBBBBBBBBBBBBBBBBBZQKZQKDDBBBBBBBBBBBBBBBBBBBBBBBBBBBL",
"LBBBBBBBBBBBBBBBBBBBBBBBBBBBBdZwHHHwdBBBBBBBBBBBBBBBBBBBBBBBBBBBBLBBBBBBBBBBBBBBBBBBBBBBBBBBBBBBtwHHtokBBBBBBBBBBBBBBBBBBBBBBBBBBBLBBBBBBBBBBBBBBBBBBBBBBBBBBBBBBBBDHHDtokBBBBBBBBBBBBBBBBBBBBBBBBBLBBBBBBBBBBBBBBBBBBBBBBBBBBBBccnnlllBBBBBBBBBBBBBBBBBBBBBBBBBBBBBLBBBBBBBBBBBBBBBBBBBBBBBBBBBBBdddcccccBBBBBBBBBBBBBBBBBBBBBBBBBBBLBBBBBBBBBBBBBBBBBBBBBBBBBBBBBdddddccwBBBBBBBBBBBBBBBBBBBBBBBBBBBLBBBBBBBBBBBBBBBBBBBBBBBBBcctPHHDBBBBBBBBBBBBBBBBBBBBBBBBBBBBBBBBLBBBBBBBBBBBBBBBBBBBBBBBBBBBBdoQKHwtBBBBBBBBBBBBBBBBBBBBBBBBBBBBBL",
"LBBBBBBBBBBBBBBBBBBBBBBBBBBdddoZPZPodcclBBBBBBBBBBBBBBBBBBBBBBBBBLBBBBBBBBBBBBBBBBBBBBBBBBBBBBBdZPHwtokkBBBBBBBBBBBBBBBBBBBBBBBBBBLBBBBBBBBBBBBBBBBBBBBBBBBBBBBBBBdVKdddkaBBBBBBBBBBBBBBBBBBBBBBBBBLBBBBBBBBBBBBBBBBBBBBBBBBBBBcccnnllllBBBBBBBBBBBBBBBBBBBBBBBBBBBBLBBBBBBBBBBBBBBBBBBBBBBBBBBBdddddcddccclBBBBBBBBBBBBBBBBBBBBBBBBBLBBBBBBBBBBBBBBBBBBBBBBBBBBBBdddccccccBBBBBBBBBBBBBBBBBBBBBBBBBBBLBBBBBBBBBBBBBBBBBBBBBBBBBcccccKVlBBBBBBBBBBBBBBBBBBBBBBBBBBBBBBBLBBBBBBBBBBBBBBBBBBBBBBBBBBBddotKHwwmBBBBBBBBBBBBBBBBBBBBBBBBBBBBL",
"LBBBBBBBBBBBBBBBBBBBBBBBBddddcddlilddcccclBBBBBBBBBBBBBBBBBBBBBBBLBBBBBBBBBBBBBBBBBBBBBBBBBBBmddZHDtodccckBBBBBBBBBBBBBBBBBBBBBBBBLBBBBBBBBBBBBBBBBBBBBBBBBBBBBBBccdddccciBBBBBBBBBBBBBBBBBBBBBBBBBLBBBBBBBBBBBBBBBBBBBBBBBBBddddcccnmlllBBBBBBBBBBBBBBBBBBBBBBBBBBBLBBBBBBBBBBBBBBBBBBBBBBBBBddddddddddddccllBBBBBBBBBBBBBBBBBBBBBBBLBBBBBBBBBBBBBBBBBBBBBBBBBBBdddddddddlloBBBBBBBBBBBBBBBBBBBBBBBBBLBBBBBBBBBBBBBBBBBBBBBBBBBccddccliiBBBBBBBBBBBBBBBBBBBBBBBBBBBBBBLBBBBBBBBBBBBBBBBBBBBBBBBBddddcotDwwkkkBBBBBBBBBBBBBBBBBBBBBBBBBBL",
"LBBBBBBBBBBBBBBBBBBBBBBBcdcdddclnilnnndddclBBBBBBBBBBBBBBBBBBBBBBLBBBBBBBBBBBBBBBBBBBBBBBBBBmcldccdddcddcckBBBBBBBBBBBBBBBBBBBBBBBLBBBBBBBBBBBBBBBBBBBBBBBBBBBBBBdcdddddcliBBBBBBBBBBBBBBBBBBBBBBBBLBBBBBBBBBBBBBBBBBBBBBBBBdddcccccnmlllcBBBBBBBBBBBBBBBBBBBBBBBBBBLBBBBBBBBBBBBBBBBBBBBBBBBdddcdddddddddccmllBBBBBBBBBBBBBBBBBBBBBBLBBBBBBBBBBBBBBBBBBBBBBBBBBdddcddddddddooBBBBBBBBBBBBBBBBBBBBBBBBLBBBBBBBBBBBBBBBBBBBBBBBBccddcnlliiBBBBBBBBBBBBBBBBBBBBBBBBBBBBBBLBBBBBBBBBBBBBBBBBBBBBBBBddcccccccmmkkkkBBBBBBBBBBBBBBBBBBBBBBBBBL",
"LBBBBBBBBBBBBBBBBBBBBBBBcdcncddddidddddcncnBBBBBBBBBBBBBBBBBBBBBBLBBBBBBBBBBBBBBBBBBBBBBBBBBcddccdcccddccccBBBBBBBBBBBBBBBBBBBBBBBLBBBBBBBBBBBBBBBBBBBBBBBBBBBBBddddddcolliBBBBBBBBBBBBBBBBBBBBBBBBLBBBBBBBBBBBBBBBBBBBBBBBdddnnoonnnllkicBBBBBBBBBBBBBBBBBBBBBBBBBBLBBBBBBBBBBBBBBBBBBBBBBBBddcddddddcddcconmlBBBBBBBBBBBBBBBBBBBBBBLBBBBBBBBBBBBBBBBBBBBBBBBBddddcddddddddoooBBBBBBBBBBBBBBBBBBBBBBBLBBBBBBBBBBBBBBBBBBBBBBBBccddcnmlliiBBBBBBBBBBBBBBBBBBBBBBBBBBBBBLBBBBBBBBBBBBBBBBBBBBBBBBdccmmmmmmmmkkkkBBBBBBBBBBBBBBBBBBBBBBBBBL",
"LBBBBBBBBBBBBBBBBBBBBBBBddncddddtQtGdGdcmlclBBBBBBBBBBBBBBBBBBBBBLBBBBBBBBBBBBBBBBBBBBBBQBBBcdddcdddddcdccckBBBBBBBBBBBBBBBBBBBBBBLBBBBBBBBBBBBBBBBBBQBBBBBBBBBBddddddcolliBBBBBBBBBBBBBBBBBBBBBBBBLBBBBBBBBBBBBBBBBBBBBBQBdddllmmmmllkkilBBBBBBBBBBBBBBBBBBBBBBBBBBLBBBBBBBBBBBBBBBBBBBBBBBddccddddddccccoonnlBBBBBBBBBBBBBBBBBBBBBBLBBBBBBBBBBBBBBBBBBBBBBBBBddddcddddddddoomBwBBBBBBBBBBBBBBBBBBBBBLBBBBBBBBBBBBBBBBBBBBBBBBccddcnmlliiBBBBBBBBBBDBBBBBBBBBBBBBBBBBBLBBBBBBBBBBBBBBBBBBBBBBBddccmmmmmmkkkkkkBBBQBBBBBBBBBBBBBBBBBBBBBL",
"LBBBBBBBBBBBBBBBBBBBBBBcdclnddddHiHdddcnildlBBBBBBBBBBBBBBBBBBBBBLBBBBBBBBBBBBBBBBBBBBBBlHHHHDtDcdGdGdcddcmkBBBBBBBBBBBBBBBBBBBBBBLBBBBBBBBBBBBBBBBBBHHHHDDDDDtDdNNdcdcolliBBBBBBBBBBBBBBBBBBBBBBBBLBBBBBBBBBBBBBBBBBBBBHHHdddciklllllkkilBBBBBBBBBBBBBBBBBBBBBBBBBBLBBBBBBBBBBBBBBBBBBBBBBBddclddddddcconnnnnllBBBBBBBBBBBBBBBBBBBBBLBBBBBBBBBBBBBBBBBBBBBBBBBdoddcdddddcddoomottBBBBBBBBBBBBBBBBBBBBLBBBBBBBBBBBBBBBBBBBBBBBBccddcnmllxutltttttttttBBBBBBBBBBBBBBBBBBLBBBBBBBBBBBBBBBBBBBBBBBddcccmmmmmkktltttttlBBBBBBBBBBBBBBBBBBBBBL",
"LBBBBBBBBBBBBBBBBBBBBBBcdcilnccdtoolccnljndnBBBBBBBBBBBBBBBBBBBBBLBBBBBBBBBBBBBBBBBBBBBBDtooooiicdddcccddcmkBBBBBBBBBBBBBBBBBBBBBBLBBBBBBBBBBBBBBBBBBDtooooooollccddcdcolliBBBBBBBBBBBBBBBBBBBBBBBBLBBBBBBBBBBBBBBBBBBBBDtodddciklllkkkiilBBBBBBBBBBBBBBBBBBBBBBBBBBLBBBBBBBBBBBBBBBBBBBBBBBddcnldddddcnnonnnnmlBBBBBBBBBBBBBBBBBBBBBLBBBBBBBBBBBBBBBBBBBBBBBBBdmcdcddddccddoomoooBBBBBBBBBBBBBBBBBBBBLBBBBBBBBBBBBBBBBBBBBBBBBccddcnmlliilllllllllooBBBBBBBBBBBBBBBBBBLBBBBBBBBBBBBBBBBBBBBBBBddccmkkkkkkkiiooooooBBBBBBBBBBBBBBBBBBBBBL",
"LBBBBBBBBBBBBBBBBBBBBBBddcljccdP6aHilnljjddnBBBBBBBBBBBBBBBBBBBBBLBBBBBBBBBBBBBBBBBBBBBBBBiHiaHwHwcccmmddcmkBBBBBBBBBBBBBBBBBBBBBBLBBBBBBBBBBBBBBBBBBBBBBiHiiHwoHlcdoddcllBBBBBBBBBBBBBBBBBBBBBBBBBLBBBBBBBBBBBBBBBBBBBBBBBdddciklllkiiiilBBBBBBBBBBBBBBBBBBBBBBBBBBLBBBBBBBBBBBBBBBBBBBBBBBddcnlccccccnnnnnlnnlBBBBBBBBBBBBBBBBBBBBBLBBBBBBBBBBBBBBBBBBBBBBBBBdmcdccdddccddommBBBBBBBBBBBBBBBBBBBBBBBLBBBBBBBBBBBBBBBBBBBBBBBBBcddcnmliiHowHiiHiBBBBBBBBBBBBBBBBBBBBBBLBBBBBBBBBBBBBBBBBBBBBBBddccmkkkkkotwHaiHiBBBBBBBBBBBBBBBBBBBBBBBL",
"LBBBBBBBBBBBBBBBBBBBBBBcclljcldPDaliiiijjnncBBBBBBBBBBBBBBBBBBBBBLBBBBBBBBBBBBBBBBBBBBBBBBBiDolttolccckddcmkBBBBBBBBBBBBBBBBBBBBBBLBBBBBBBBBBBBBBBBBBBBBBBiHtiatwtldoccdclBBBBBBBBBBBBBBBBBBBBBBBBBLBBBBBBBBBBBBBBBBBBBBBBBBdcciklkkkiiiilBBBBBBBBBBBBBBBBBBBBBBBBBBLBBBBBBBBBBBBBBBBBBBBBBBddcnlncccccnnnnmlnmlBBBBBBBBBBBBBBBBBBBBBLBBBBBBBBBBBBBBBBBBBBBBBBBdmcdccdddccddommBBBBBBBBBBBBBBBBBBBBBBBLBBBBBBBBBBBBBBBBBBBBBBBBBccdcmllitwtaitHiBBBBBBBBBBBBBBBBBBBBBBBLBBBBBBBBBBBBBBBBBBBBBBBddccmikkkkottloDiBBBBBBBBBBBBBBBBBBBBBBBBL",
"LBBBBBBBBBBBBBBBBBBBBBBdljjilcdPDwoiiiijiddcBBBBBBBBBBBBBBBBBBBBBLBBBBBBBBBBBBBBBBBBBBBBBBBmQHalliilcckmccmkBBBBBBBBBBBBBBBBBBBBBBLBBBBBBBBBBBBBBBBBBBBBBBBPtialtolclllllkBBBBBBBBBBBBBBBBBBBBBBBBBLBBBBBBBBBBBBBBBBBBBBBBBdccciilkkiiiillBBBBBBBBBBBBBBBBBBBBBBBBBBLBBBBBBBBBBBBBBBBBBBBBBBddcmlnncccnnnnmllmllBBBBBBBBBBBBBBBBBBBBBLBBBBBBBBBBBBBBBBBBBBBBBBBdmcddcdddccddommBBBBBBBBBBBBBBBBBBBBBBBLBBBBBBBBBBBBBBBBBBBBBBBBBcddmllliotlaitPBBBBBBBBBBBBBBBBBBBBBBBBLBBBBBBBBBBBBBBBBBBBBBBBddcmmiikkiillaQDmBBBBBBBBBBBBBBBBBBBBBBBBL",
"LBBBBBBBBBBBBBBBBBBBBBBdddjlcccDttoiiiiainncBBBBBBBBBBBBBBBBBBBBBLBBBBBBBBBBBBBBBBBBBBBBBBBBQHaiiiiiillddcckBBBBBBBBBBBBBBBBBBBBBBLBBBBBBBBBBBBBBBBBBBBBBBBDoiailllclddckkBBBBBBBBBBBBBBBBBBBBBBBBBLBBBBBBBBBBBBBBBBBBBBBBBBdcciiikkiiiiilBBBBBBBBBBBBBBBBBBBBBBBBBBLBBBBBBBBBBBBBBBBBBBBBBBddcmlnnnccnmllllilliBBBBBBBBBBBBBBBBBBBBBLBBBBBBBBBBBBBBBBBBBBBBBBBdmcddcdddccddomBBBBBBBBBBBBBBBBBBBBBBBBLBBBBBBBBBBBBBBBBBBBBBBBBBcdddcmliiliaioDBBBBBBBBBBBBBBBBBBBBBBBBLBBBBBBBBBBBBBBBBBBBBBBBddcccliiiiiiiaQDBBBBBBBBBBBBBBBBBBBBBBBBBL",
"LBBBBBBBBBBBBBBBBBBBBBBcnllilcllaalllliailllBBBBBBBBBBBBBBBBBBBBBLBBBBBBBBBBBBBBBBBBBBBBBBBBcaaaccllillmcmmkBBBBBBBBBBBBBBBBBBBBBBLBBBBBBBBBBBBBBBBBBBBBBBBBaaaBBcccldclkiBBBBBBBBBBBBBBBBBBBBBBBBBLBBBBBBBBBBBBBBBBBBBBBBBddcoiiilkiiiiicBBBBBBBBBBBBBBBBBBBBBBBBBBLBBBBBBBBBBBBBBBBBBBBBBBddcnlnccccconmmiilliBBBBBBBBBBBBBBBBBBBBBLBBBBBBBBBBBBBBBBBBBBBBBBBdmcddcdddccooommBBBBBBBBBBBBBBBBBBBBBBBLBBBBBBBBBBBBBBBBBBBBBBBBBcddccmlliBBaaaBBBBBBBBBBBBBBBBBBBBBBBBBLBBBBBBBBBBBBBBBBBBBBBBBddmmmliiikiiaaacBBBBBBBBBBBBBBBBBBBBBBBBBL",
"LBBBBBBBBBBBBBBBBBBBBBBccnljmcccclcccmlilddnBBBBBBBBBBBBBBBBBBBBBLBBBBBBBBBBBBBBBBBBBBBBBBBBmkcccccmmkmddcmkBBBBBBBBBBBBBBBBBBBBBBLBBBBBBBBBBBBBBBBBBBBBBBBBBBBBBdddcdckikiBBBBBBBBBBBBBBBBBBBBBBBBLBBBBBBBBBBBBBBBBBBBBBBBddclikllkkiiiicBBBBBBBBBBBBBBBBBBBBBBBBBBLBBBBBBBBBBBBBBBBBBBBBBBddcnlcccccconnmlilliBBBBBBBBBBBBBBBBBBBBBLBBBBBBBBBBBBBBBBBBBBBBBBBfmddddddddcooomiBBBBBBBBBBBBBBBBBBBBBBBLBBBBBBBBBBBBBBBBBBBBBBBBccddccclliBBBBBBBBBBBBBBBBBBBBBBBBBBBBBBLBBBBBBBBBBBBBBBBBBBBBBBddcccmikikiiiiimBBBBBBBBBBBBBBBBBBBBBBBBBL",
"LBBBBBBBBBBBBBBBBBBBBBBccnjcccddclccccmilldcBBBBBBBBBBBBBBBBBBBBBLBBBBBBBBBBBBBBBBBBBBBBBBBmcmddcddcmjcddcmkBBBBBBBBBBBBBBBBBBBBBBLBBBBBBBBBBBBBBBBBBBBBBBBBBBBBBdddcdckikiBBBBBBBBBBBBBBBBBBBBBBBBLBBBBBBBBBBBBBBBBBBBBBBBddciikllkkiiiiBBBBBBBBBBBBBBBBBBBBBBBBBBBLBBBBBBBBBBBBBBBBBBBBBBBddcllddddccconmliliiBBBBBBBBBBBBBBBBBBBBBLBBBBBBBBBBBBBBBBBBBBBBBBBBddddcddddoooomiBBBBBBBBBBBBBBBBBBBBBBBLBBBBBBBBBBBBBBBBBBBBBBBBccdddcclliBBBBBBBBBBBBBBBBBBBBBBBBBBBBBBLBBBBBBBBBBBBBBBBBBBBBBBddccccjkkkkiiiimmBBBBBBBBBBBBBBBBBBBBBBBBL",
"LBBBBBBBBBBBBBBBBBBBBBBcnljccdddclccccmiilllBBBBBBBBBBBBBBBBBBBBBLBBBBBBBBBBBBBBBBBBBBBBBBBmccddcddcmkddcckBBBBBBBBBBBBBBBBBBBBBBBLBBBBBBBBBBBBBBBBBBBBBBBBBBBBBBdlPDiiikkiBBBBBBBBBBBBBBBBBBBBBBBBLBBBBBBBBBBBBBBBBBBBBBBBccliiklkkkiiiiBBBBBBBBBBBBBBBBBBBBBBBBBBBLBBBBBBBBBBBBBBBBBBBBBBBeeIllddddccconmliziiBBBBBBBBBBBBBBBBBBBBBLBBBBBBBBBBBBBBBBBBBBBBBBBBddddcddddommmmiBBBBBBBBBBBBBBBBBBBBBBBLBBBBBBBBBBBBBBBBBBBBBBBBcckddiDwliBBBBBBBBBBBBBBBBBBBBBBBBBBBBBBLBBBBBBBBBBBBBBBBBBBBBBBBdcccckkkkkiiiimmBBBBBBBBBBBBBBBBBBBBBBBBL",
"LBBBBBBBBBBBBBBBBBBBBBBBVPjcddddclccccmiiDPBBBBBBBBBBBBBBBBBBBBBBLBBBBBBBBBBBBBBBBBBBBBBBBBmccddcddcmmkkmmkBBBBBBBBBBBBBBBBBBBBBBBLBBBBBBBBBBBBBBBBBBBBBBBBBBBBBBdPPPDtlkkiBBBBBBBBBBBBBBBBBBBBBBBBLBBBBBBBBBBBBBBBBBBBBBBBZAAiiklkkkiiiiBBBBBBBBBBBBBBBBBBBBBBBBBBBLBBBBBBBBBBBBBBBBBBBBBBBBwvccddddcnconmlirwBBBBBBBBBBBBBBBBBBBBBBLBBBBBBBBBBBBBBBBBBBBBBBBBBddddcddddommmmiiBBBBBBBBBBBBBBBBBBBBBBLBBBBBBBBBBBBBBBBBBBBBBBBccclPHHHwiBBBBBBBBBBBBBBBBBBBBBBBBBBBBBBLBBBBBBBBBBBBBBBBBBBBBBBBddmkkmkkkkiiiimmBBBBBBBBBBBBBBBBBBBBBBBBL",
"LBBBBBBBBBBBBBBBBBBBBBBB44acddndclccncmiiPDBBBBBBBBBBBBBBBBBBBBBBLBBBBBBBBBBBBBBBBBBBBBBBBBBacddccdcmw3wkkBBBBBBBBBBBBBBBBBBBBBBBBLBBBBBBBBBBBBBBBBBBBBBBBBBBBBBBiOPPDtlkkiBBBBBBBBBBBBBBBBBBBBBBBBLBBBBBBBBBBBBBBBBBBBBBBBZQAiiklkkkiiiiBBBBBBBBBBBBBBBBBBBBBBBBBBBLBBBBBBBBBBBBBBBBBBBBBBBBZwccddddcmconmlitHBBBBBBBBBBBBBBBBBBBBBBLBBBBBBBBBBBBBBBBBBBBBBBBBBddddcddddommmmwBBBBBBBBBBBBBBBBBBBBBBBLBBBBBBBBBBBBBBBBBBBBBBBBccclPHHHOiBBBBBBBBBBBBBBBBBBBBBBBBBBBBBBLBBBBBBBBBBBBBBBBBBBBBBBBBdkZQwkkkkiiiiaBBBBBBBBBBBBBBBBBBBBBBBBBL",
"LBBBBBBBBBBBBBBBBBBBBBBBVSjlnonllallllliivDBBBBBBBBBBBBBBBBBBBBBBLBBBBBBBBBBBBBBBBBBBBBBBBBBUiiiiiiii3VKwiBBBBBBBBBBBBBBBBBBBBBBBBLBBBBBBBBBBBBBBBBBBBBBBBBBBBBBB6PPDtaaaaBBBBBBBBBBBBBBBBBBBBBBBBBLBBBBBBBBBBBBBBBBBBBBBB6ZQHlliiiiiiiiiBBBBBBBBBBBBBBBBBBBBBBBBBBBLBBBBBBBBBBBBBBBBBBBBBBBBQHccccmmiimlliiiwwBBBBBBBBBBBBBBBBBBBBBBLBBBBBBBBBBBBBBBBBBBBBBBBBBBcccccmmmmmdOwwBBBBBBBBBBBBBBBBBBBBBBBLBBBBBBBBBBBBBBBBBBBBBBBBBmmmmPHwwQBBBBBBBBBBBBBBBBBBBBBBBBBBBBBBLBBBBBBBBBBBBBBBBBBBBBBBBBiZZQQiiiiiiiiUBBBBBBBBBBBBBBBBBBBBBBBBBL",
"LBBBBBBBBBBBBBBBBBBBBBBBB1lcccllialmmmliiDBBBBBBBBBBBBBBBBBBBBBBBLBBBBBBBBBBBBBBBBBBBBBBBBB6OmccclmmmOVKwiBBBBBBBBBBBBBBBBBBBBBBBBLBBBBBBBBBBBBBBBBBBBBBBBBBBBBB6QdcllkiiiBBBBBBBBBBBBBBBBBBBBBBBBBLBBBBBBBBBBBBBBBBBBBBBB6BAmccnllkjikklBBBBBBBBBBBBBBBBBBBBBBBBBBBLBBBBBBBBBBBBBBBBBBBBBBBBBwcdcccoiiddconlPBBBBBBBBBBBBBBBBBBBBBBBLBBBBBBBBBBBBBBBBBBBBBBBBBBBdddccddddcdHwwBBBBBBBBBBBBBBBBBBBBBBBLBBBBBBBBBBBBBBBBBBBBBBBBBdddcnmliDQBBBBBBBBBBBBBBBBBBBBBBBBBBBBBLBBBBBBBBBBBBBBBBBBBBBBBBBi3ZVOmmkikkiiOKBBBBBBBBBBBBBBBBBBBBBBBBL",
"LBBBBBBBBBBBBBBBBBBBBBBBB6lcdcclialccmmliKBBBBBBBBBBBBBBBBBBBBBBBLBBBBBBBBBBBBBBBBBBBBBBBB6tBmddmlmc6VKwiiBBBBBBBBBBBBBBBBBBBBBBBBLBBBBBBBBBBBBBBBBBBBBBBBBBBBB666ddclkiiiBBBBBBBBBBBBBBBBBBBBBBBBBLBBBBBBBBBBBBBBBBBBBBB6VVBccccnlkjikklBBBBBBBBBBBBBBBBBBBBBBBBBBBLBBBBBBBBBBBBBBBBBBBBBBBBBPcddccoicddconlPBBBBBBBBBBBBBBBBBBBBBBBLBBBBBBBBBBBBBBBBBBBBBBBBBBBddddcddddcmmHHBBBBBBBBBBBBBBBBBBBBBBBLBBBBBBBBBBBBBBBBBBBBBBBBBdddcnmli1QQBBBBBBBBBBBBBBBBBBBBBBBBBBBBLBBBBBBBBBBBBBBBBBBBBBBBBBddwKV6kkikkiiBtKBBBBBBBBBBBBBBBBBBBBBBBL",
"LBBBBBBBBBBBBBBBBBBBBBBBB6lcdccliamdccmliKBBBBBBBBBBBBBBBBBBBBBBBLBBBBBBBBBBBBBBBBBBBBBBB66QBmdcmlm6HcmlkiBBBBBBBBBBBBBBBBBBBBBBBBLBBBBBBBBBBBBBBBBBBBBBBBBBBB666QddddciiiBBBBBBBBBBBBBBBBBBBBBBBBBLBBBBBBBBBBBBBBBBBBBBB6VVBddccnlkjikklBBBBBBBBBBBBBBBBBBBBBBBBBBBLBBBBBBBBBBBBBBBBBBBBBBBBBPcdddcoicddconlPBBBBBBBBBBBBBBBBBBBBBBBLBBBBBBBBBBBBBBBBBBBBBBBBBBBddddcddddcmmPHHBBBBBBBBBBBBBBBBBBBBBBLBBBBBBBBBBBBBBBBBBBBBBBBBdddcnmli11QQBBBBBBBBBBBBBBBBBBBBBBBBBBBLBBBBBBBBBBBBBBBBBBBBBBBBBddcnmHKmikkiiBQZKBBBBBBBBBBBBBBBBBBBBBBL",
"LBBBBBBBBBBBBBBBBBBBBBBBB6oddcclialcdcmliKBBBBBBBBBBBBBBBBBBBBBBBLBBBBBBBBBBBBBBBBBBBBBB66QQBmdccl666cmmliBBBBBBBBBBBBBBBBBBBBBBBBLBBBBBBBBBBBBBBBBBBBBBBBBBBBB6QBddcllciiBBBBBBBBBBBBBBBBBBBBBBBBBLBBBBBBBBBBBBBBBBBBBB6VVBBdcccnlkjikklBBBBBBBBBBBBBBBBBBBBBBBBBBBLBBBBBBBBBBBBBBBBBBBBBBBBBBcdddcoicddconlBBBBBBBBBBBBBBBBBBBBBBBBLBBBBBBBBBBBBBBBBBBBBBBBBBBBdddccddddcmmPHHBBBBBBBBBBBBBBBBBBBBBBLBBBBBBBBBBBBBBBBBBBBBBBBBdddcnmliB11BBBBBBBBBBBBBBBBBBBBBBBBBBBBLBBBBBBBBBBBBBBBBBBBBBBBBBddcnm61KikkiiBZZZKBBBBBBBBBBBBBBBBBBBBBL",
"LBBBBBBBBBBBBBBBBBBBBBBBBBodddcclalmdcmliBBBBBBBBBBBBBBBBBBBBBBBBLBBBBBBBBBBBBBBBBBBBBBBBQHBBmdcc666VcmmliBBBBBBBBBBBBBBBBBBBBBBBBLBBBBBBBBBBBBBBBBBBBBBBBBBBBBBBBcddclkiiBBBBBBBBBBBBBBBBBBBBBBBBBLBBBBBBBBBBBBBBBBBBBBBVVBBdddcnljjikklBBBBBBBBBBBBBBBBBBBBBBBBBBBLBBBBBBBBBBBBBBBBBBBBBBBBBBcddccoicddconlBBBBBBBBBBBBBBBBBBBBBBBBLBBBBBBBBBBBBBBBBBBBBBBBBBBBdddccddddcmmBPHHBBBBBBBBBBBBBBBBBBBBBLBBBBBBBBBBBBBBBBBBBBBBBBBdddcnmliBBBBBBBBBBBBBBBBBBBBBBBBBBBBBBBLBBBBBBBBBBBBBBBBBBBBBBBBBddcnm661KkkiiBBZZBBBBBBBBBBBBBBBBBBBBBBL",
"LBBBBBBBBBBBBBBBBBBBBBBBBBoddclciimccdmliBBBBBBBBBBBBBBBBBBBBBBBBLBBBBBBBBBBBBBBBBBBBBBBBBBBBmddcw6VdcmmkiBBBBBBBBBBBBBBBBBBBBBBBBLBBBBBBBBBBBBBBBBBBBBBBBBBBBBBBBccdclkiBBBBBBBBBBBBBBBBBBBBBBBBBBLBBBBBBBBBBBBBBBBBBBBBBBBBddccnljiiiklBBBBBBBBBBBBBBBBBBBBBBBBBBBLBBBBBBBBBBBBBBBBBBBBBBBBBBddddcoidddconlBBBBBBBBBBBBBBBBBBBBBBBBLBBBBBBBBBBBBBBBBBBBBBBBBBBBBddcmcddccmmBPHHBBBBBBBBBBBBBBBBBBBBBLBBBBBBBBBBBBBBBBBBBBBBBBBBddcnmliBBBBBBBBBBBBBBBBBBBBBBBBBBBBBBBLBBBBBBBBBBBBBBBBBBBBBBBBBddcnmm66kkkiiBBBBBBBBBBBBBBBBBBBBBBBBBBL",
"LBBBBBBBBBBBBBBBBBBBBBBBBBlcdddlijcdddcliBBBBBBBBBBBBBBBBBBBBBBBBLBBBBBBBBBBBBBBBBBBBBBBBBBBBBccmmiddmmkiiBBBBBBBBBBBBBBBBBBBBBBBBLBBBBBBBBBBBBBBBBBBBBBBBBBBBBBBBdcllkiiBBBBBBBBBBBBBBBBBBBBBBBBBBLBBBBBBBBBBBBBBBBBBBBBBBBBdddclljiiiiBBBBBBBBBBBBBBBBBBBBBBBBBBBBLBBBBBBBBBBBBBBBBBBBBBBBBBBdcccniicccoliiBBBBBBBBBBBBBBBBBBBBBBBBLBBBBBBBBBBBBBBBBBBBBBBBBBBBdccmmcccmmmmBBPBBBBBBBBBBBBBBBBBBBBBBLBBBBBBBBBBBBBBBBBBBBBBBBBBdcnnmliBBBBBBBBBBBBBBBBBBBBBBBBBBBBBBBLBBBBBBBBBBBBBBBBBBBBBBBBBddcnmmkikkkiBBBBBBBBBBBBBBBBBBBBBBBBBBBL",
"LBBBBBBBBBBBBBBBBBBBBBBBBBoddcccljjccmmmiBBBBBBBBBBBBBBBBBBBBBBBBLBBBBBBBBBBBBBBBBBBBBBBBBBBBBddmmimcccmkiBBBBBBBBBBBBBBBBBBBBBBBBLBBBBBBBBBBBBBBBBBBBBBBBBBBBBBBBddddclkiBBBBBBBBBBBBBBBBBBBBBBBBBLBBBBBBBBBBBBBBBBBBBBBBBBBddddcnkjklllBBBBBBBBBBBBBBBBBBBBBBBBBBBLBBBBBBBBBBBBBBBBBBBBBBBBBBddddcoiddconliBBBBBBBBBBBBBBBBBBBBBBBBLBBBBBBBBBBBBBBBBBBBBBBBBBBBddddcddddcmmBBBBBBBBBBBBBBBBBBBBBBBBBLBBBBBBBBBBBBBBBBBBBBBBBBBdddcnmliBBBBBBBBBBBBBBBBBBBBBBBBBBBBBBBLBBBBBBBBBBBBBBBBBBBBBBBBBcnnmmmkikkkiBBBBBBBBBBBBBBBBBBBBBBBBBBBL",
"LBBBBBBBBBBBBBBBBBBBBBBBBBodddclijmcdcmkiBBBBBBBBBBBBBBBBBBBBBBBBLBBBBBBBBBBBBBBBBBBBBBBBBBBBBccmmimcccmkiBBBBBBBBBBBBBBBBBBBBBBBBLBBBBBBBBBBBBBBBBBBBBBBBBBBBBBBBddddclkiBBBBBBBBBBBBBBBBBBBBBBBBBLBBBBBBBBBBBBBBBBBBBBBBBBBcddccnkjiiklBBBBBBBBBBBBBBBBBBBBBBBBBBBLBBBBBBBBBBBBBBBBBBBBBBBBBBcdddcoiddconliBBBBBBBBBBBBBBBBBBBBBBBBLBBBBBBBBBBBBBBBBBBBBBBBBBBBddddcddddcmmBBBBBBBBBBBBBBBBBBBBBBBBBLBBBBBBBBBBBBBBBBBBBBBBBBBdddcnmliBBBBBBBBBBBBBBBBBBBBBBBBBBBBBBBLBBBBBBBBBBBBBBBBBBBBBBBBBddnmmkkikkkiBBBBBBBBBBBBBBBBBBBBBBBBBBBL",
"LBBBBBBBBBBBBBBBBBBBBBBBBBBlccliijjmcikkiBBBBBBBBBBBBBBBBBBBBBBBBLBBBBBBBBBBBBBBBBBBBBBBBBBBBBmmmkikmmmmkjBBBBBBBBBBBBBBBBBBBBBBBBLBBBBBBBBBBBBBBBBBBBBBBBBBBBBBBBBcccclkiBBBBBBBBBBBBBBBBBBBBBBBBBLBBBBBBBBBBBBBBBBBBBBBBBBBBcccnlkjiiklBBBBBBBBBBBBBBBBBBBBBBBBBBBLBBBBBBBBBBBBBBBBBBBBBBBBBBcccconmccnlliBBBBBBBBBBBBBBBBBBBBBBBBBLBBBBBBBBBBBBBBBBBBBBBBBBBBBddddcdddccmmBBBBBBBBBBBBBBBBBBBBBBBBBLBBBBBBBBBBBBBBBBBBBBBBBBBddcnnmiBBBBBBBBBBBBBBBBBBBBBBBBBBBBBBBBLBBBBBBBBBBBBBBBBBBBBBBBBBddcnkkkikkkiBBBBBBBBBBBBBBBBBBBBBBBBBBBL",
"LBBBBBBBBBBBBBBBBBBBBBBBBBBiiiiiaBiiiiiaBBBBBBBBBBBBBBBBBBBBBBBBBLBBBBBBBBBBBBBBBBBBBBBBBBBBBBBiiiaiiiiiaaBBBBBBBBBBBBBBBBBBBBBBBBLBBBBBBBBBBBBBBBBBBBBBBBBBBBBBBBBoiiiiaBBBBBBBBBBBBBBBBBBBBBBBBBBLBBBBBBBBBBBBBBBBBBBBBBBBBBiiiaaaaaaaBBBBBBBBBBBBBBBBBBBBBBBBBBBBLBBBBBBBBBBBBBBBBBBBBBBBBBBnliaaaaaaaaaiBBBBBBBBBBBBBBBBBBBBBBBBBLBBBBBBBBBBBBBBBBBBBBBBBBBBBBiiaiiiiiaaBBBBBBBBBBBBBBBBBBBBBBBBBBLBBBBBBBBBBBBBBBBBBBBBBBBBBliiaaaBBBBBBBBBBBBBBBBBBBBBBBBBBBBBBBBLBBBBBBBBBBBBBBBBBBBBBBBBBaaaaaaaaaaaBBBBBBBBBBBBBBBBBBBBBBBBBBBBL",
"LBBBBBBBBBBBBBBBBBBBBBBBBBBoooiiaBiooliaBBBBBBBBBBBBBBBBBBBBBBBBBLBBBBBBBBBBBBBBBBBBBBBBBBBBBBBolliaoolliaBBBBBBBBBBBBBBBBBBBBBBBBLBBBBBBBBBBBBBBBBBBBBBBBBBBBBBBBBonliiaBBBBBBBBBBBBBBBBBBBBBBBBBBLBBBBBBBBBBBBBBBBBBBBBBBBBBoliaahaaahBBBBBBBBBBBBBBBBBBBBBBBBBBBBLBBBBBBBBBBBBBBBBBBBBBBBBBBnliaaaaaaaaaiBBBBBBBBBBBBBBBBBBBBBBBBBLBBBBBBBBBBBBBBBBBBBBBBBBBBBBloaiooliaaBBBBBBBBBBBBBBBBBBBBBBBBBBLBBBBBBBBBBBBBBBBBBBBBBBBBBoliaaaBBBBBBBBBBBBBBBBBBBBBBBBBBBBBBBBLBBBBBBBBBBBBBBBBBBBBBBBBBooliiaaaaaiBBBBBBBBBBBBBBBBBBBBBBBBBBBBL",
"LBBBBBBBBBBBBBBBBBBBBBBBBBBoooliaBiooliaBBBBBBBBBBBBBBBBBBBBBBBBBLBBBBBBBBBBBBBBBBBBBBBBBBBBBBBolliaoolliaBBBBBBBBBBBBBBBBBBBBBBBBLBBBBBBBBBBBBBBBBBBBBBBBBBBBBBBBBonliiaBBBBBBBBBBBBBBBBBBBBBBBBBBLBBBBBBBBBBBBBBBBBBBBBBBBBBoliaahaaahBBBBBBBBBBBBBBBBBBBBBBBBBBBBLBBBBBBBBBBBBBBBBBBBBBBBBBBnllaaaaaaaaaiBBBBBBBBBBBBBBBBBBBBBBBBBLBBBBBBBBBBBBBBBBBBBBBBBBBBBBloaiooliaaBBBBBBBBBBBBBBBBBBBBBBBBBBLBBBBBBBBBBBBBBBBBBBBBBBBBBoliaaaBBBBBBBBBBBBBBBBBBBBBBBBBBBBBBBBLBBBBBBBBBBBBBBBBBBBBBBBBBooliiaaaaiiBBBBBBBBBBBBBBBBBBBBBBBBBBBBL",
"LBBBBBBBBBBBBBBBBBBBBBBBBBBiooliaBiooliaBBBBBBBBBBBBBBBBBBBBBBBBBLBBBBBBBBBBBBBBBBBBBBBBBBBBBBBolliaoooliaBBBBBBBBBBBBBBBBBBBBBBBBLBBBBBBBBBBBBBBBBBBBBBBBBBBBBBBBBonliaaBBBBBBBBBBBBBBBBBBBBBBBBBBLBBBBBBBBBBBBBBBBBBBBBBBBBBoliaahaaahBBBBBBBBBBBBBBBBBBBBBBBBBBBBLBBBBBBBBBBBBBBBBBBBBBBBBBBBnlaaaaaaaaaBBBBBBBBBBBBBBBBBBBBBBBBBBLBBBBBBBBBBBBBBBBBBBBBBBBBBBBloaiooliaaBBBBBBBBBBBBBBBBBBBBBBBBBBLBBBBBBBBBBBBBBBBBBBBBBBBBBooiaaaBBBBBBBBBBBBBBBBBBBBBBBBBBBBBBBBLBBBBBBBBBBBBBBBBBBBBBBBBBooliiaaaaiiBBBBBBBBBBBBBBBBBBBBBBBBBBBBL",
"LBBBBBBBBBBBBBBBBBBBBBBBBBBiiiaaBBBolliaBBBBBBBBBBBBBBBBBBBBBBBBBLBBBBBBBBBBBBBBBBBBBBBBBBBBBBBlliaaloolaBBBBBBBBBBBBBBBBBBBBBBBBBLBBBBBBBBBBBBBBBBBBBBBBBBBBBBBBBBBiiaiBBBBBBBBBBBBBBBBBBBBBBBBBBBLBBBBBBBBBBBBBBBBBBBBBBBBBBommahaaahBBBBBBBBBBBBBBBBBBBBBBBBBBBBBLBBBBBBBBBBBBBBBBBBBBBBBBBBBiiiiaBaaaaaBBBBBBBBBBBBBBBBBBBBBBBBBBLBBBBBBBBBBBBBBBBBBBBBBBBBBBBBilailiiiaBBBBBBBBBBBBBBBBBBBBBBBBBBLBBBBBBBBBBBBBBBBBBBBBBBBBBBiaaaBBBBBBBBBBBBBBBBBBBBBBBBBBBBBBBBBLBBBBBBBBBBBBBBBBBBBBBBBBBBaliiaaaaiiBBBBBBBBBBBBBBBBBBBBBBBBBBBBL",
"LBBBBBBBBBBBBBBBBBBBBBBBBBBBiaaaBBBaiiaBBBBBBBBBBBBBBBBBBBBBBBBBBLBBBBBBBBBBBBBBBBBBBBBBBBBBBBBBliiaiiiiaBBBBBBBBBBBBBBBBBBBBBBBBBLBBBBBBBBBBBBBBBBBBBBBBBBBBBBBBBBooiiaBBBBBBBBBBBBBBBBBBBBBBBBBBBLBBBBBBBBBBBBBBBBBBBBBBBBBBBiiahaaahBBBBBBBBBBBBBBBBBBBBBBBBBBBBBLBBBBBBBBBBBBBBBBBBBBBBBBBBniiaaaBaaaaanBBBBBBBBBBBBBBBBBBBBBBBBBLBBBBBBBBBBBBBBBBBBBBBBBBBBBBBilailiiiaBBBBBBBBBBBBBBBBBBBBBBBBBBLBBBBBBBBBBBBBBBBBBBBBBBBBBBaiaaaBBBBBBBBBBBBBBBBBBBBBBBBBBBBBBBBLBBBBBBBBBBBBBBBBBBBBBBBBBBaiaaaaaaaBBBBBBBBBBBBBBBBBBBBBBBBBBBBBL",
"LBBBBBBBBBBBBBBBBBBBBBBBBBBiooolaBaoolliBBBBBBBBBBBBBBBBBBBBBBBBBLBBBBBBBBBBBBBBBBBBBBBBBBBBBBooolaioooiiaBBBBBBBBBBBBBBBBBBBBBBBBLBBBBBBBBBBBBBBBBBBBBBBBBBBBBBBooonliiaBBBBBBBBBBBBBBBBBBBBBBBBBBLBBBBBBBBBBBBBBBBBBBBBBBBBooniaahaaahBBBBBBBBBBBBBBBBBBBBBBBBBBBBLBBBBBBBBBBBBBBBBBBBBBBBBBnnliaaaBaaaaailBBBBBBBBBBBBBBBBBBBBBBBBLBBBBBBBBBBBBBBBBBBBBBBBBBBBBlooiooliiaaBBBBBBBBBBBBBBBBBBBBBBBBBLBBBBBBBBBBBBBBBBBBBBBBBBBBoliaaaaaBBBBBBBBBBBBBBBBBBBBBBBBBBBBBBLBBBBBBBBBBBBBBBBBBBBBBBBBolliaaaaaaaiBBBBBBBBBBBBBBBBBBBBBBBBBBBL",
"LBBBBBBBBBBBBBBBBBBBBBBBBBioooolaBaooolliBBBBBBBBBBBBBBBBBBBBBBBBLBBBBBBBBBBBBBBBBBBBBBBBBBBBooolaioolliiaBBBBBBBBBBBBBBBBBBBBBBBBLBBBBBBBBBBBBBBBBBBBBBBBBBBBBoooonnliiaBBBBBBBBBBBBBBBBBBBBBBBBBBLBBBBBBBBBBBBBBBBBBBBBBBBooomiaahaaahBBBBBBBBBBBBBBBBBBBBBBBBBBBBLBBBBBBBBBBBBBBBBBBBBBBBBBnnliaaaaaaaaailBBBBBBBBBBBBBBBBBBBBBBBBLBBBBBBBBBBBBBBBBBBBBBBBBBBBBlooiooliaaaaaBBBBBBBBBBBBBBBBBBBBBBBLBBBBBBBBBBBBBBBBBBBBBBBBBBoliaaaaaaaBBBBBBBBBBBBBBBBBBBBBBBBBBBBLBBBBBBBBBBBBBBBBBBBBBBBBBolliaaaaaaaaiBBBBBBBBBBBBBBBBBBBBBBBBBBL",
"LBBBBBBBBBBBBBBBBBBBBBBBBBillliaBBBaiiiiiBBBBBBBBBBBBBBBBBBBBBBBBLBBBBBBBBBBBBBBBBBBBBBBBBBBilllaallliiiiaBBBBBBBBBBBBBBBBBBBBBBBBLBBBBBBBBBBBBBBBBBBBBBBBBBBBBiiiiiiaaaaBBBBBBBBBBBBBBBBBBBBBBBBBBLBBBBBBBBBBBBBBBBBBBBBBBnnmmiiaahaaahBBBBBBBBBBBBBBBBBBBBBBBBBBBBLBBBBBBBBBBBBBBBBBBBBBBBBBBnliaaaaaaaaaiBBBBBBBBBBBBBBBBBBBBBBBBBLBBBBBBBBBBBBBBBBBBBBBBBBBBBBlooiooliaaaaaaBBBBBBBBBBBBBBBBBBBBBBLBBBBBBBBBBBBBBBBBBBBBBBBBBolaaiiiiiiBBBBBBBBBBBBBBBBBBBBBBBBBBBBLBBBBBBBBBBBBBBBBBBBBBBBBBolliiaaaaaaaiiBBBBBBBBBBBBBBBBBBBBBBBBBL",
"LLLLLLLLLLLLLLLLLLLLLLLLLLLLLLLLLLLLLLLLLLLLLLLLLLLLLLLLLLLLLLLLLLLLLLLLLLLLLLLLLLLLLLLLLLLLLLLLLLLLLLLLLLLLLLLLLLLLLLLLLLLLLLLLLLLLLLLLLLLLLLLLLLLLLLLLLLLLLLLLLLLLLLLLLLLLLLLLLLLLLLLLLLLLLLLLLLLLLLLLLLLLLLLLLLLLLLLLLLLLLLLLLLLLLLLLLLLLLLLLLLLLLLLLLLLLLLLLLLLLLLLLLLLLLLLLLLLLLLLLLLLLLLLLLLLLLLLLLLLLLLLLLLLLLLLLLLLLLLLLLLLLLLLLLLLLLLLLLLLLLLLLLLLLLLLLLLLLLLLLLLLLLLLLLLLLLLLLLLLLLLLLLLLLLLLLLLLLLLLLLLLLLLLLLLLLLLLLLLLLLLLLLLLLLLLLLLLLLLLLLLLLLLLLLLLLLLLLLLLLLLLLLLLLLLLLLLLLLLLLLLLLLLLLLLLLLLLLLLLLLLLLLLLLLLLLLLLLLLLLL",
"LBBBBBBBBBBBBBBBBBBBBBBBBBBBBBBBBBBBBBBBBBBBBBBBBBBBBBBBBBBBBBBBBLBBBBBBBBBBBBBBBBBBBBBBBBBBBBBBBBBBBBBBBBBBBBBBBBBBBBBBBBBBBBBBBBLBBBBBBBBBBBBBBBBBBBBBBBBBBBBBBBBBBBBBBBBBBBBBBBBBBBBBBBBBBBBBBBBLBBBBBBBBBBBBBBBBBBBBBBBBBBBBBBBBBBBBBBBBBBBBBBBBBBBBBBBBBBBBBBBBLBBBBBBBBBBBBBBBBBBBBBBBBBBBBBBBBBBBBBBBBBBBBBBBBBBBBBBBBBBBBBBBBLBBBBBBBBBBBBBBBBBBBBBBBBBBBBBBBBBBBBBBBBBBBBBBBBBBBBBBBBBBBBBBBBLBBBBBBBBBBBBBBBBBBBBBBBBBBBBBBBBBBBBBBBBBBBBBBBBBBBBBBBBBBBBBBBBLBBBBBBBBBBBBBBBBBBBBBBBBBBBBBBBBBBBBBBBBBBBBBBBBBBBBBBBBBBBBBBBBL",
"LBBBBBBBBBBBBBBBBBBBBBBBBBBBBBBBBBBBBBBBBBBBBBBBBBBBBBBBBBBBBBBBBLBBBBBBBBBBBBBBBBBBBBBBBBBBBBBBBBBBBBBBBBBBBBBBBBBBBBBBBBBBBBBBBBLBBBBBBBBBBBBBBBBBBBBBBBBBBBBBBBBBBBBBBBBBBBBBBBBBBBBBBBBBBBBBBBBLBBBBBBBBBBBBBBBBBBBBBBBBBBBBBBBBBBBBBBBBBBBBBBBBBBBBBBBBBBBBBBBBLBBBBBBBBBBBBBBBBBBBBBBBBBBBBBBBBBBBBBBBBBBBBBBBBBBBBBBBBBBBBBBBBLBBBBBBBBBBBBBBBBBBBBBBBBBBBBBBBBBBBBBBBBBBBBBBBBBBBBBBBBBBBBBBBBLBBBBBBBBBBBBBBBBBBBBBBBBBBBBBBBBBBBBBBBBBBBBBBBBBBBBBBBBBBBBBBBBLBBBBBBBBBBBBBBBBBBBBBBBBBBBBBBBBBBBBBBBBBBBBBBBBBBBBBBBBBBBBBBBBL",
"LBBBBBBBBBBBBBBBBBBBBBBBBBBBBBBBBBBBBBBBBBBBBBBBBBBBBBBBBBBBBBBBBLBBBBBBBBBBBBBBBBBBBBBBBBBBBBBBBBBBBBBBBBBBBBBBBBBBBBBBBBBBBBBBBBLBBBBBBBBBBBBBBBBBBBBBBBBBBBBBBBBBBBBBBBBBBBBBBBBBBBBBBBBBBBBBBBBLBBBBBBBBBBBBBBBBBBBBBBBBBBBBBBBBBBBBBBBBBBBBBBBBBBBBBBBBBBBBBBBBLBBBBBBBBBBBBBBBBBBBBBBBBBBBBBBBBBBBBBBBBBBBBBBBBBBBBBBBBBBBBBBBBLBBBBBBBBBBBBBBBBBBBBBBBBBBBBBBBBBBBBBBBBBBBBBBBBBBBBBBBBBBBBBBBBLBBBBBBBBBBBBBBBBBBBBBBBBBBBBBBBBBBBBBBBBBBBBBBBBBBBBBBBBBBBBBBBBLBBBBBBBBBBBBBBBBBBBBBBBBBBBBBBBBBBBBBBBBBBBBBBBBBBBBBBBBBBBBBBBBL",
"LBBBBBBBBBBBBBBBBBBBBBBBBBBBBBBBBBBBBBBBBBBBBBBBBBBBBBBBBBBBBBBBBLBBBBBBBBBBBBBBBBBBBBBBBBBBBBBBBBBBBBBBBBBBBBBBBBBBBBBBBBBBBBBBBBLBBBBBBBBBBBBBBBBBBBBBBBBBBBBBBBBBBBBBBBBBBBBBBBBBBBBBBBBBBBBBBBBLBBBBBBBBBBBBBBBBBBBBBBBBBBBBBBBBBBBBBBBBBBBBBBBBBBBBBBBBBBBBBBBBLBBBBBBBBBBBBBBBBBBBBBBBBBBBBBBBBBBBBBBBBBBBBBBBBBBBBBBBBBBBBBBBBLBBBBBBBBBBBBBBBBBBBBBBBBBBBBBBBBBBBBBBBBBBBBBBBBBBBBBBBBBBBBBBBBLBBBBBBBBBBBBBBBBBBBBBBBBBBBBBBBBBBBBBBBBBBBBBBBBBBBBBBBBBBBBBBBBLBBBBBBBBBBBBBBBBBBBBBBBBBBBBBBBBBBBBBBBBBBBBBBBBBBBBBBBBBBBBBBBBL",
"LBBBBBBBBBBBBBBBBBBBBBBBBBBBBBBBBBBBBBBBBBBBBBBBBBBBBBBBBBBBBBBBBLBBBBBBBBBBBBBBBBBBBBBBBBBBBBBBBBBBBBBBBBBBBBBBBBBBBBBBBBBBBBBBBBLBBBBBBBBBBBBBBBBBBBBBBBBBBBBBBBBBBBBBBBBBBBBBBBBBBBBBBBBBBBBBBBBLBBBBBBBBBBBBBBBBBBBBBBBBBBBBBBBBBBBBBBBBBBBBBBBBBBBBBBBBBBBBBBBBLBBBBBBBBBBBBBBBBBBBBBBBBBBBBBBBBBBBBBBBBBBBBBBBBBBBBBBBBBBBBBBBBLBBBBBBBBBBBBBBBBBBBBBBBBBBBBBBBBBBBBBBBBBBBBBBBBBBBBBBBBBBBBBBBBLBBBBBBBBBBBBBBBBBBBBBBBBBBBBBBBBBBBBBBBBBBBBBBBBBBBBBBBBBBBBBBBBLBBBBBBBBBBBBBBBBBBBBBBBBBBBBBBBBBBBBBBBBBBBBBBBBBBBBBBBBBBBBBBBBL",
"LBBBBBBBBBBBBBBBBBBBBBBBBBBBBBBBBBBBBBBBBBBBBBBBBBBBBBBBBBBBBBBBBLBBBBBBBBBBBBBBBBBBBBBBBBBBBBBBBBBBBBBBBBBBBBBBBBBBBBBBBBBBBBBBBBLBBBBBBBBBBBBBBBBBBBBBBBBBBBBBBBBBBBBBBBBBBBBBBBBBBBBBBBBBBBBBBBBLBBBBBBBBBBBBBBBBBBBBBBBBBBBBBBBBBBBBBBBBBBBBBBBBBBBBBBBBBBBBBBBBLBBBBBBBBBBBBBBBBBBBBBBBBBBBBBBBBBBBBBBBBBBBBBBBBBBBBBBBBBBBBBBBBLBBBBBBBBBBBBBBBBBBBBBBBBBBBBBBBBBBBBBBBBBBBBBBBBBBBBBBBBBBBBBBBBLBBBBBBBBBBBBBBBBBBBBBBBBBBBBBBBBBBBBBBBBBBBBBBBBBBBBBBBBBBBBBBBBLBBBBBBBBBBBBBBBBBBBBBBBBBBBBBBBBBBBBBBBBBBBBBBBBBBBBBBBBBBBBBBBBL",
"LBBBBBBBBBBBBBBBBBBBBBBBBBBBBBBBBBBBBBBBBBBBBBBBBBBBBBBBBBBBBBBBBLBBBBBBBBBBBBBBBBBBBBBBBBBBBBBBBBBBBBBBBBBBBBBBBBBBBBBBBBBBBBBBBBLBBBBBBBBBBBBBBBBBBBBBBBBBBBBBBBBBBBBBBBBBBBBBBBBBBBBBBBBBBBBBBBBLBBBBBBBBBBBBBBBBBBBBBBBBBBBBBBBBBBBBBBBBBBBBBBBBBBBBBBBBBBBBBBBBLBBBBBBBBBBBBBBBBBBBBBBBBBBBBBBBBBBBBBBBBBBBBBBBBBBBBBBBBBBBBBBBBLBBBBBBBBBBBBBBBBBBBBBBBBBBBBBBBBBBBBBBBBBBBBBBBBBBBBBBBBBBBBBBBBLBBBBBBBBBBBBBBBBBBBBBBBBBBBBBBBBBBBBBBBBBBBBBBBBBBBBBBBBBBBBBBBBLBBBBBBBBBBBBBBBBBBBBBBBBBBBBBBBBBBBBBBBBBBBBBBBBBBBBBBBBBBBBBBBBL",
"LBBBBBBBBBBBBBBBBBBBBBBBBBBBBBBBBBBBBBBBBBBBBBBBBBBBBBBBBBBBBBBBBLBBBBBBBBBBBBBBBBBBBBBBBBBBBBBBBBBBBBBBBBBBBBBBBBBBBBBBBBBBBBBBBBLBBBBBBBBBBBBBBBBBBBBBBBBBBBBBBBBBBBBBBBBBBBBBBBBBBBBBBBBBBBBBBBBLBBBBBBBBBBBBBBBBBBBBBBBBBBBBBBBBBBBBBBBBBBBBBBBBBBBBBBBBBBBBBBBBLBBBBBBBBBBBBBBBBBBBBBBBBBBBBBBBBBBBBBBBBBBBBBBBBBBBBBBBBBBBBBBBBLBBBBBBBBBBBBBBBBBBBBBBBBBBBBBBBBBBBBBBBBBBBBBBBBBBBBBBBBBBBBBBBBLBBBBBBBBBBBBBBBBBBBBBBBBBBBBBBBBBBBBBBBBBBBBBBBBBBBBBBBBBBBBBBBBLBBBBBBBBBBBBBBBBBBBBBBBBBBBBBBBBBBBBBBBBBBBBBBBBBBBBBBBBBBBBBBBBL",
"LBBBBBBBBBBBBBBBBBBBBBBBBBBBBBBBBBBBBBBBBBBBBBBBBBBBBBBBBBBBBBBBBLBBBBBBBBBBBBBBBBBBBBBBBBBBBBBBBBBBBBBBBBBBBBBBBBBBBBBBBBBBBBBBBBLBBBBBBBBBBBBBBBBBBBBBBBBBBBBBBBBBBBBBBBBBBBBBBBBBBBBBBBBBBBBBBBBLBBBBBBBBBBBBBBBBBBBBBBBBBBBBBBBBBBBBBBBBBBBBBBBBBBBBBBBBBBBBBBBBLBBBBBBBBBBBBBBBBBBBBBBBBBBBBBBBBBBBBBBBBBBBBBBBBBBBBBBBBBBBBBBBBLBBBBBBBBBBBBBBBBBBBBBBBBBBBBBBBBBBBBBBBBBBBBBBBBBBBBBBBBBBBBBBBBLBBBBBBBBBBBBBBBBBBBBBBBBBBBBBBBBBBBBBBBBBBBBBBBBBBBBBBBBBBBBBBBBLBBBBBBBBBBBBBBBBBBBBBBBBBBBBBBBBBBBBBBBBBBBBBBBBBBBBBBBBBBBBBBBBL",
"LBBBBBBBBBBBBBBBBBBBBBBBBBBBBBBBBBBBBBBBBBBBBBBBBBBBBBBBBBBBBBBBBLBBBBBBBBBBBBBBBBBBBBBBBBBBBBBBBBBBBBBBBBBBBBBBBBBBBBBBBBBBBBBBBBLBBBBBBBBBBBBBBBBBBBBBBBBBBBBBBBBBBBBBBBBBBBBBBBBBBBBBBBBBBBBBBBBLBBBBBBBBBBBBBBBBBBBBBBBBBBBBBBBBBBBBBBBBBBBBBBBBBBBBBBBBBBBBBBBBLBBBBBBBBBBBBBBBBBBBBBBBBBBBBBBBBBBBBBBBBBBBBBBBBBBBBBBBBBBBBBBBBLBBBBBBBBBBBBBBBBBBBBBBBBBBBBBBBBBBBBBBBBBBBBBBBBBBBBBBBBBBBBBBBBLBBBBBBBBBBBBBBBBBBBBBBBBBBBBBBBBBBBBBBBBBBBBBBBBBBBBBBBBBBBBBBBBLBBBBBBBBBBBBBBBBBBBBBBBBBBBBBBBBBBBBBBBBBBBBBBBBBBBBBBBBBBBBBBBBL",
"LBBBBBBBBBBBBBBBBBBBBBBBBBBBBBBBBBBBBBBBBBBBBBBBBBBBBBBBBBBBBBBBBLBBBBBBBBBBBBBBBBBBBBBBBBBBBBBBBBBBBBBBBBBBBBBBBBBBBBBBBBBBBBBBBBLBBBBBBBBBBBBBBBBBBBBBBBBBBBBBBBBBBBBBBBBBBBBBBBBBBBBBBBBBBBBBBBBLBBBBBBBBBBBBBBBBBBBBBBBBBBBBBBBBBBBBBBBBBBBBBBBBBBBBBBBBBBBBBBBBLBBBBBBBBBBBBBBBBBBBBBBBBBBBBBBBBBBBBBBBBBBBBBBBBBBBBBBBBBBBBBBBBLBBBBBBBBBBBBBBBBBBBBBBBBBBBBBBBBBBBBBBBBBBBBBBBBBBBBBBBBBBBBBBBBLBBBBBBBBBBBBBBBBBBBBBBBBBBBBBBBBBBBBBBBBBBBBBBBBBBBBBBBBBBBBBBBBLBBBBBBBBBBBBBBBBBBBBBBBBBBBBBBBBBBBBBBBBBBBBBBBBBBBBBBBBBBBBBBBBL",
"LBBBBBBBBBBBBBBBBBBBBBBBBBBBBBBBBBBBBBBBBBBBBBBBBBBBBBBBBBBBBBBBBLBBBBBBBBBBBBBBBBBBBBBBBBBBBBBBBBBBBBBBBBBBBBBBBBBBBBBBBBBBBBBBBBLBBBBBBBBBBBBBBBBBBBBBBBBBBBBBBBBBBBBBBBBBBBBBBBBBBBBBBBBBBBBBBBBLBBBBBBBBBBBBBBBBBBBBBBBBBBBBBBBBBBBBBBBBBBBBBBBBBBBBBBBBBBBBBBBBLBBBBBBBBBBBBBBBBBBBBBBBBBBBBBBBBBBBBBBBBBBBBBBBBBBBBBBBBBBBBBBBBLBBBBBBBBBBBBBBBBBBBBBBBBBBBBBBBBBBBBBBBBBBBBBBBBBBBBBBBBBBBBBBBBLBBBBBBBBBBBBBBBBBBBBBBBBBBBBBBBBBBBBBBBBBBBBBBBBBBBBBBBBBBBBBBBBLBBBBBBBBBBBBBBBBBBBBBBBBBBBBBBBBBBBBBBBBBBBBBBBBBBBBBBBBBBBBBBBBL",
"LBBBBBBBBBBBBBBBBBBBBBBBBBBBBBBBBBBBBBBBBBBBBBBBBBBBBBBBBBBBBBBBBLBBBBBBBBBBBBBBBBBBBBBBBBBBBBBBBBBBBBBBBBBBBBBBBBBBBBBBBBBBBBBBBBLBBBBBBBBBBBBBBBBBBBBBBBBBBBBBBBBBBBBBBBBBBBBBBBBBBBBBBBBBBBBBBBBLBBBBBBBBBBBBBBBBBBBBBBBBBBBBBBBBBBBBBBBBBBBBBBBBBBBBBBBBBBBBBBBBLBBBBBBBBBBBBBBBBBBBBBBBBBBBBBBBBBBBBBBBBBBBBBBBBBBBBBBBBBBBBBBBBLBBBBBBBBBBBBBBBBBBBBBBBBBBBBBBBBBBBBBBBBBBBBBBBBBBBBBBBBBBBBBBBBLBBBBBBBBBBBBBBBBBBBBBBBBBBBBBBBBBBBBBBBBBBBBBBBBBBBBBBBBBBBBBBBBLBBBBBBBBBBBBBBBBBBBBBBBBBBBBBBBBBBBBBBBBBBBBBBBBBBBBBBBBBBBBBBBBL",
"LBBBBBBBBBBBBBBBBBBBBBBBBBBBBBBBBBBBBBBBBBBBBBBBBBBBBBBBBBBBBBBBBLBBBBBBBBBBBBBBBBBBBBBBBBBBBBBBBBBBBBBBBBBBBBBBBBBBBBBBBBBBBBBBBBLBBBBBBBBBBBBBBBBBBBBBBBBBBBBBBBBBBBBBBBBBBBBBBBBBBBBBBBBBBBBBBBBLBBBBBBBBBBBBBBBBBBBBBBBBBBBBBBBBBBBBBBBBBBBBBBBBBBBBBBBBBBBBBBBBLBBBBBBBBBBBBBBBBBBBBBBBBBBBBBBBBBBBBBBBBBBBBBBBBBBBBBBBBBBBBBBBBLBBBBBBBBBBBBBBBBBBBBBBBBBBBBBBBBBBBBBBBBBBBBBBBBBBBBBBBBBBBBBBBBLBBBBBBBBBBBBBBBBBBBBBBBBBBBBBBBBBBBBBBBBBBBBBBBBBBBBBBBBBBBBBBBBLBBBBBBBBBBBBBBBBBBBBBBBBBBBBBBBBBBBBBBBBBBBBBBBBBBBBBBBBBBBBBBBBL",
"LBBBBBBBBBBBBBBBBBBBBBBBBBBBBBBBBBBBBBBBBBBBBBBBBBBBBBBBBBBBBBBBBLBBBBBBBBBBBBBBBBBBBBBBBBBBBBBBBBBBBBBBBBBBBBBBBBBBBBBBBBBBBBBBBBLBBBBBBBBBBBBBBBBBBBBBBBBBBBBBBBBBBBBBBBBBBBBBBBBBBBBBBBBBBBBBBBBLBBBBBBBBBBBBBBBBBBBBBBBBBBBBBBBBBBBBBBBBBBBBBBBBBBBBBBBBBBBBBBBBLBBBBBBBBBBBBBBBBBBBBBBBBBBBBBBBBBBBBBBBBBBBBBBBBBBBBBBBBBBBBBBBBLBBBBBBBBBBBBBBBBBBBBBBBBBBBBBBBBBBBBBBBBBBBBBBBBBBBBBBBBBBBBBBBBLBBBBBBBBBBBBBBBBBBBBBBBBBBBBBBBBBBBBBBBBBBBBBBBBBBBBBBBBBBBBBBBBLBBBBBBBBBBBBBBBBBBBBBBBBBBBBBBBBBBBBBBBBBBBBBBBBBBBBBBBBBBBBBBBBL",
"LBBBBBBBBBBBBBBBBBBBBBBBBBBBBBBBBBBBBBBBBBBBBBBBBBBBBBBBBBBBBBBBBLBBBBBBBBBBBBBBBBBBBBBBBBBBBBBBBBBBBBBBBBBBBBBBBBBBBBBBBBBBBBBBBBLBBBBBBBBBBBBBBBBBBBBBBBBBBBBBBBBBBBBBBBBBBBBBBBBBBBBBBBBBBBBBBBBLBBBBBBBBBBBBBBBBBBBBBBBBBBBBBBBBBBBBBBBBBBBBBBBBBBBBBBBBBBBBBBBBLBBBBBBBBBBBBBBBBBBBBBBBBBBBBBBBBBBBBBBBBBBBBBBBBBBBBBBBBBBBBBBBBLBBBBBBBBBBBBBBBBBBBBBBBBBBBBBBBBBBBBBBBBBBBBBBBBBBBBBBBBBBBBBBBBLBBBBBBBBBBBBBBBBBBBBBBBBBBBBBBBBBBBBBBBBBBBBBBBBBBBBBBBBBBBBBBBBLBBBBBBBBBBBBBBBBBBBBBBBBBBBBBBBBBBBBBBBBBBBBBBBBBBBBBBBBBBBBBBBBL",
"LBBBBBBBBBBBBBBBBBBBBBBBBBBBBBBBBBBBBBBBBBBBBBBBBBBBBBBBBBBBBBBBBLBBBBBBBBBBBBBBBBBBBBBBBBBBBBBBBBBBBBBBBBBBBBBBBBBBBBBBBBBBBBBBBBLBBBBBBBBBBBBBBBBBBBBBBBBBBBBBBBBBBBBBBBBBBBBBBBBBBBBBBBBBBBBBBBBLBBBBBBBBBBBBBBBBBBBBBBBBBBBBBBBBBBBBBBBBBBBBBBBBBBBBBBBBBBBBBBBBLBBBBBBBBBBBBBBBBBBBBBBBBBBBBBBBBBBBBBBBBBBBBBBBBBBBBBBBBBBBBBBBBLBBBBBBBBBBBBBBBBBBBBBBBBBBBBBBBBBBBBBBBBBBBBBBBBBBBBBBBBBBBBBBBBLBBBBBBBBBBBBBBBBBBBBBBBBBBBBBBBBBBBBBBBBBBBBBBBBBBBBBBBBBBBBBBBBLBBBBBBBBBBBBBBBBBBBBBBBBBBBBBBBBBBBBBBBBBBBBBBBBBBBBBBBBBBBBBBBBL",
"LBBBBBBBBBBBBBBBBBBBBBBBBBBBBBBBBBBBBBBBBBBBBBBBBBBBBBBBBBBBBBBBBLBBBBBBBBBBBBBBBBBBBBBBBBBBBBBBBBBBBBBBBBBBBBBBBBBBBBBBBBBBBBBBBBLBBBBBBBBBBBBBBBBBBBBBBBBBBBBBBBBBBBBBBBBBBBBBBBBBBBBBBBBBBBBBBBBLBBBBBBBBBBBBBBBBBBBBBBBBBBBBBBBBBBBBBBBBBBBBBBBBBBBBBBBBBBBBBBBBLBBBBBBBBBBBBBBBBBBBBBBBBBBBBBBBBBBBBBBBBBBBBBBBBBBBBBBBBBBBBBBBBLBBBBBBBBBBBBBBBBBBBBBBBBBBBBBBBiiiiiiiiiBBBBBBBBBBBBBBBBBBBBBBBBLBBBBBBBBBBBBBBBBBBBBBBBBBBBBBBBBBBBBBBBBBBBBBBBBBBBBBBBBBBBBBBBBLBBBBBBBBBBBBBBBBBBBBBBBBBBBBBBBBBBBBBBBBBBBBBBBBBBBBBBBBBBBBBBBBL",
"LBBBBBBBBBBBBBBBBBBBBBBBBBBBBBBBBBBBBBBBBBBBBBBBBBBBBBBBBBBBBBBBBLBBBBBBBBBBBBBBBBBBBBBBBBiiiiiiiiiBBBBBBBBBBBBBBBBBBBBBBBBBBBBBBBLBBBBBBBBBBBBBBBBBBBBBBBBBBBBiiiiiiiiiBBBBBBBBBBBBBBBBBBBBBBBBBBBLBBBBBBBBBBBBBBBBBBBBBBBBBBiiiiiiaaaBBBBBBBBBBBBBBBBBBBBBBBBBBBBBLBBBBBBBBBBBBBBBBBBBBBBBBBBBBBllliiaaaBBBBBBBBBBBBBBBBBBBBBBBBBBBLBBBBBBBBBBBBBBBBBBBBBBBBBBBBBBBiiiiiiiotBBBBBBBBBBBBBBBBBBBBBBBBLBBBBBBBBBBBBBBBBBBBBBBBBBiiiiiiiiiBBBBBBBBBBBBBBBBBBBBBBBBBBBBBBLBBBBBBBBBBBBBBBBBBBBBBBBBBBBBBBiiiiiiiiiBBBBBBBBBBBBBBBBBBBBBBBBL",
"LBBBBBBBBBBBBBBBBBBBBBBBBBBBBaaaaaaaaBBBBBBBBBBBBBBBBBBBBBBBBBBBBLBBBBBBBBBBBBBBBBBBBBBBBBwwwwoiiiiBBBBBBBBBBBBBBBBBBBBBBBBBBBBBBBLBBBBBBBBBBBBBBBBBBBBBBBBBBBBwwtoiiiiiBBBBBBBBBBBBBBBBBBBBBBBBBBBLBBBBBBBBBBBBBBBBBBBBBBBBBBtoiiiiaaaBBBBBBBBBBBBBBBBBBBBBBBBBBBBBLBBBBBBBBBBBBBBBBBBBBBBBBBBBBBlliaaaaaBBBBBBBBBBBBBBBBBBBBBBBBBBBLBBBBBBBBBBBBBBBBBBBBBBBBBBBBBBBiiiiiotDDBBBBBBBBBBBBBBBBBBBBBBBBLBBBBBBBBBBBBBBBBBBBBBBBBBiiiiiotwwBBBBBBBBBBBBBBBBBBBBBBBBBBBBBBLBBBBBBBBBBBBBBBBBBBBBBBBBBBBBBBiiiiowwwwBBBBBBBBBBBBBBBBBBBBBBBBL",
"LBBBBBBBBBBBBBBBBBBBBBBBBBBBBlttttttaBBBBBBBBBBBBBBBBBBBBBBBBBBBBLBBBBBBBBBBBBBBBBBBBBBBBBHQQHDoiiiBBBBBBBBBBBBBBBBBBBBBBBBBBBBBBBLBBBBBBBBBBBBBBBBBBBBBBBBBBBBHQQHtoiiiBBBBBBBBBBBBBBBBBBBBBBBBBBBLBBBBBBBBBBBBBBBBBBBBBBBBBBQHtoiiaaaBBBBBBBBBBBBBBBBBBBBBBBBBBBBBLBBBBBBBBBBBBBBBBBBBBBBBBBBBBBiliaaaaiBBBBBBBBBBBBBBBBBBBBBBBBBBBLBBBBBBBBBBBBBBBBBBBBBBBBBBBBBBBiiiioDwDHBBBBBBBBBBBBBBBBBBBBBBBBLBBBBBBBBBBBBBBBBBBBBBBBBBiiiotHHHHBBBBBBBBBBBBBBBBBBBBBBBBBBBBBBLBBBBBBBBBBBBBBBBBBBBBBBBBBBBBBBiiioDHKKHBBBBBBBBBBBBBBBBBBBBBBBBL",
"LBBBBBBBBBBBBBBBBBBBBBBBBBBBBiDZZQQDiBBBBBBBBBBBBBBBBBBBBBBBBBBBBLBBBBBBBBBBBBBBBBBBBBBBBB4Q4QHwHiiBBBBBBBBBBBBBBBBBBBBBBBBBBBBBBBLBBBBBBBBBBBBBBBBBBBBBBBBBBBB44ZQwHHiiBBBBBBBBBBBBBBBBBBBBBBBBBBBLBBBBBBBBBBBBBBBBBBBBBBBBBBZQwHoiaaaBBBBBBBBBBBBBBBBBBBBBBBBBBBBBLBBBBBBBBBBBBBBBBBBBBBBBBBBBBBtliaaaatBBBBBBBBBBBBBBBBBBBBBBBBBBBLBBBBBBBBBBBBBBBBBBBBBBBBBBBBBBBiiiioDDHwBBBBBBBBBBBBBBBBBBBBBBBBLBBBBBBBBBBBBBBBBBBBBBBBBBii1HwQHQQBBBBBBBBBBBBBBBBBBBBBBBBBBBBBBLBBBBBBBBBBBBBBBBBBBBBBBBBBBBBBBiiHwHQVKVBBBBBBBBBBBBBBBBBBBBBBBBL",
"LBBBBBBBBBBBBBBBBBBBBBBBBBBBBt14PZ41tBBBBBBBBBBBBBBBBBBBBBBBBBBBBLBBBBBBBBBBBBBBBBBBBBBBBBGQ0GHHHoiBBBBBBBBBBBBBBBBBBBBBBBBBBBBBBBLBBBBBBBBBBBBBBBBBBBBBBBBBBBBQ0QHHHHiiBBBBBBBBBBBBBBBBBBBBBBBBBBBLBBBBBBBBBBBBBBBBBBBBBBBBBBQHHHoiaaaBBBBBBBBBBBBBBBBBBBBBBBBBBBBBLBBBBBBBBBBBBBBBBBBBBBBBBBBBBBKliaaaaDBBBBBBBBBBBBBBBBBBBBBBBBBBBLBBBBBBBBBBBBBBBBBBBBBBBBBBBBBBBiiitwtDHHBBBBBBBBBBBBBBBBBBBBBBBBLBBBBBBBBBBBBBBBBBBBBBBBBBii1HHHD0DBBBBBBBBBBBBBBBBBBBBBBBBBBBBBBLBBBBBBBBBBBBBBBBBBBBBBBBBBBBBBBioKHHG0KGBBBBBBBBBBBBBBBBBBBBBBBBL",
"LBBBBBBBBBBBBBBBBBBBBBBBBBBBBKV5PDWVKBBBBBBBBBBBBBBBBBBBBBBBBBBBBLBBBBBBBBBBBBBBBBBBBBBBBBP44ZQtwoiBBBBBBBBBBBBBBBBBBBBBBBBBBBBBBBLBBBBBBBBBBBBBBBBBBBBBBBBBBBQ441QQtwoiBBBBBBBBBBBBBBBBBBBBBBBBBBBLBBBBBBBBBBBBBBBBBBBBBBBBBB1QQtwtiaaBBBBBBBBBBBBBBBBBBBBBBBBBBBBBLBBBBBBBBBBBBBBBBBBBBBBBBBBBBBKliaaatDBBBBBBBBBBBBBBBBBBBBBBBBBBBLBBBBBBBBBBBBBBBBBBBBBBBBBBBBBBBBQPKDwKDDBBBBBBBBBBBBBBBBBBBBBBBBLBBBBBBBBBBBBBBBBBBBBBBBBBioPPVQQQHHBBBBBBBBBBBBBBBBBBBBBBBBBBBBBLBBBBBBBBBBBBBBBBBBBBBBBBBBBBBBBiowtQKKZHBBBBBBBBBBBBBBBBBBBBBBBBL",
"LBBBBBBBBBBBBBBBBBBBBBBBBBBBBK14ZP41KBBBBBBBBBBBBBBBBBBBBBBBBBBBBLBBBBBBBBBBBBBBBBBBBBBBBBHZZQQwtoBBBBBBBBBBBBBBBBBBBBBBBBBBBBBBBBLBBBBBBBBBBBBBBBBBBBBBBBBBBBBPVQ1QwtoBBBBBBBBBBBBBBBBBBBBBBBBBBBBLBBBBBBBBBBBBBBBBBBBBBBBBBBQ1QwttooBBBBBBBBBBBBBBBBBBBBBBBBBBBBBBLBBBBBBBBBBBBBBBBBBBBBBBBBBBBBBQtaatDBBBBBBBBBBBBBBBBBBBBBBBBBBBBLBBBBBBBBBBBBBBBBBBBBBBBBBBBBBBBBQPKDDKDtBBBBBBBBBBBBBBBBBBBBBBBBLBBBBBBBBBBBBBBBBBBBBBBBBBB1VPV1QPKBBBBBBBBBBBBBBBBBBBBBBBBBBBBBBLBBBBBBBBBBBBBBBBBBBBBBBBBBBBBBBBZQZQKKKwBBBBBBBBBBBBBBBBBBBBBBBBL",
"LBBBBBBBBBBBBBBBBBBBBBBBBBBBBBQZVVZQBBBBBBBBBBBBBBBBBBBBBBBBBBBBBLBBBBBBBBBBBBBBBBBBBBBBBBt**ZQDwoBBBBBBBBBBBBBBBBBBBBBBBBBBBBBBBBLBBBBBBBBBBBBBBBBBBBBBBBBBBBBwVKZQDwoBBBBBBBBBBBBBBBBBBBBBBBBBBBBLBBBBBBBBBBBBBBBBBBBBBBBBBBKZQDwtooBBBBBBBBBBBBBBBBBBBBBBBBBBBBBBLBBBBBBBBBBBBBBBBBBBBBBBBBBBBBBQVHKHDBBBBBBBBBBBBBBBBBBBBBBBBBBBBLBBBBBBBBBBBBBBBBBBBBBBBBBBBBBBBBQPKDDHHDBBBBBBBBBBBBBBBBBBBBBBBBLBBBBBBBBBBBBBBBBBBBBBBBBBB1VPVZKPwBBBBBBBBBBBBBBBBBBBBBBBBBBBBBBLBBBBBBBBBBBBBBBBBBBBBBBBBBBBBBBBZQZQK11tBBBBBBBBBBBBBBBBBBBBBBBBL",
"LBBBBBBBBBBBBBBBBBBBBBBBBBBBBBQ3*63KBBBBBBBBBBBBBBBBBBBBBBBBBBBBBLBBBBBBBBBBBBBBBBBBBBBBBBHZZQDHtokkkBBBBBBBBBBBBBBBBBBBBBBBBBBBBBLBBBBBBBBBBBBBBBBBBBBBBBBBBBBKPZQDDwoBBBBBBBBBBBBBBBBBBBBBBBBBBBBLBBBBBBBBBBBBBBBBBBBBBBBBBBZQDDwtooBBBBBBBBBBBBBBBBBBBBBBBBBBBBBBLBBBBBBBBBBBBBBBBBBBBBBBBBBBBBdddddddiBBBBBBBBBBBBBBBBBBBBBBBBBBBLBBBBBBBBBBBBBBBBBBBBBBBBBBBBBBcdddddccwBBBBBBBBBBBBBBBBBBBBBBBBBLBBBBBBBBBBBBBBBBBBBBBBBBBB1VPDQZPKBBBBBBBBBBBBBBBBBBBBBBBBBBBBBBLBBBBBBBBBBBBBBBBBBBBBBBBBBBBBBBBZQKZQKDDBBBBBBBBBBBBBBBBBBBBBBBBL",
"LBBBBBBBBBBBBBBBBBBBBBBBBBBBBdQZ11ZwccccBBBBBBBBBBBBBBBBBBBBBBBBBLBBBBBBBBBBBBBBBBBBBBBBBBBBtwHHtokkkklBBBBBBBBBBBBBBBBBBBBBBBBBBBLBBBBBBBBBBBBBBBBBBBBBBBBBBBBBBDHHDtokBBBBBBBBBBBBBBBBBBBBBBBBBBBLBBBBBBBBBBBBBBBBBBBBBBBBBBBBccnnllmBBBBBBBBBBBBBBBBBBBBBBBBBBBBBLBBBBBBBBBBBBBBBBBBBBBBBBBBBBddddccccoiBBBBBBBBBBBBBBBBBBBBBBBBBBLBBBBBBBBBBBBBBBBBBBBBBBBBBBBBcdddccclllBBBBBBBBBBBBBBBBBBBBBBBBBLBBBBBBBBBBBBBBBBBBBBBBBBBcctPHHDBBBBBBBBBBBBBBBBBBBBBBBBBBBBBBBBLBBBBBBBBBBBBBBBBBBBBBBBBBBBBBBBdoQKHwtiBBBBBBBBBBBBBBBBBBBBBBBBBL",
"LBBBBBBBBBBBBBBBBBBBBBBBBBBdddZwHHHwllmccBBBBBBBBBBBBBBBBBBBBBBBBLBBBBBBBBBBBBBBBBBBBBBBBBBdZPHwtokcccnllBBBBBBBBBBBBBBBBBBBBBBBBBLBBBBBBBBBBBBBBBBBBBBBBBBBBBBBdVKddddmBBBBBBBBBBBBBBBBBBBBBBBBBBBLBBBBBBBBBBBBBBBBBBBBBBBBBBddddddclmcBBBBBBBBBBBBBBBBBBBBBBBBBBBBLBBBBBBBBBBBBBBBBBBBBBBBBBBdddddddddddcccBBBBBBBBBBBBBBBBBBBBBBBBLBBBBBBBBBBBBBBBBBBBBBBBBBBBBcdddddddcclBBBBBBBBBBBBBBBBBBBBBBBBBLBBBBBBBBBBBBBBBBBBBBBBBBBcccccwwlBBBBBBBBBBBBBBBBBBBBBBBBBBBBBBBLBBBBBBBBBBBBBBBBBBBBBBBBBBBBddddotKHwwmcBBBBBBBBBBBBBBBBBBBBBBBBL",
"LBBBBBBBBBBBBBBBBBBBBBBBBddddddZPZPomllllccBBBBBBBBBBBBBBBBBBBBBBLBBBBBBBBBBBBBBBBBBBBBBBdddZHDtodcdddcnllBBBBBBBBBBBBBBBBBBBBBBBBLBBBBBBBBBBBBBBBBBBBBBBBBBBBBBlKDdcccmmBBBBBBBBBBBBBBBBBBBBBBBBBBLBBBBBBBBBBBBBBBBBBBBBBBBBddddcccmkknBBBBBBBBBBBBBBBBBBBBBBBBBBBBLBBBBBBBBBBBBBBBBBBBBBBBBBdddddddddddddddcBBBBBBBBBBBBBBBBBBBBBBBLBBBBBBBBBBBBBBBBBBBBBBBBBBBcdddddddddcllBBBBBBBBBBBBBBBBBBBBBBBBLBBBBBBBBBBBBBBBBBBBBBBBBccdddccliiBBBBBBBBBBBBBBBBBBBBBBBBBBBBBBLBBBBBBBBBBBBBBBBBBBBBBBBBBddddddcotDwwikkBBBBBBBBBBBBBBBBBBBBBBBL",
"LBBBBBBBBBBBBBBBBBBBBBBBdddddcdddmccclllllllBBBBBBBBBBBBBBBBBBBBBLBBBBBBBBBBBBBBBBBBBBBBcdddccdddcddddddcnlBBBBBBBBBBBBBBBBBBBBBBBLBBBBBBBBBBBBBBBBBBBBBBBBBBBBldcccddccmmBBBBBBBBBBBBBBBBBBBBBBBBBLBBBBBBBBBBBBBBBBBBBBBBBBBddccccmkiiicBBBBBBBBBBBBBBBBBBBBBBBBBBBLBBBBBBBBBBBBBBBBBBBBBBBBBdcdddcddddddddddcBBBBBBBBBBBBBBBBBBBBBBLBBBBBBBBBBBBBBBBBBBBBBBBBBBcddddddcdddclBBBBBBBBBBBBBBBBBBBBBBBBLBBBBBBBBBBBBBBBBBBBBBBBBddddcclkiiBBBBBBBBBBBBBBBBBBBBBBBBBBBBBBLBBBBBBBBBBBBBBBBBBBBBBBBdddddccclllkiiiikkBBBBBBBBBBBBBBBBBBBBBBL",
"LBBBBBBBBBBBBBBBBBBBBBBdddddcccdtQtcmllkllliBBBBBBBBBBBBBBBBBBBBBLBBBBBBBBBBBBBBBBBBBQBcdcdddcdddddddddddcnlBBBBBBBBBBBBBBBBBBBBBBLBBBBBBBBBBBBBBBBBBBBBBBBBBBBddddddcddcmBBBBBBBBBBBBBBBBBBBBBBBBBLBBBBBBBBBBBBBBBBBBBBBQBBddcmkkmmiiiiiBBBBBBBBBBBBBBBBBBBBBBBBBBBLBBBBBBBBBBBBBBBBBBBBBBBBdccdddcddddddddddcBBBBBBBBBBBBBBBBBBBBBBLBBBBBBBBBBBBBBBBBBBBBBBBBBccdcddcccdddclBBwBBBBBBBBBBBBBBBBBBBBBLBBBBBBBBBBBBBBBBBBBBBBBBdddccclkiiiBBBBBBBBBBBBBBBBBBBBBBBBBBBBBLBBBBBBBBBBBBBBBBBBBBBBBdddddccclllkkiiikklcBBBBBBBBBBBBBBBBBBBBBL",
"LBBBBBBBBBBBBBBBBBBBBBdddddclcccHiHnGmxiiiiiBBBBBBBBBBBBBBBBBBBBBLBBBBBBBBBBBBBBBBBBBlHHHHDtDcdGdGdcoccdcdclkBBBBBBBBBBBBBBBBBBBBBLBBBBBBBBBBBBBBBBBQBBBBBBBBBBddddccdddddmBBBBBBBBBBBBBBBBBBBBBBBBLBBBBBBBBBBBBBBBBBBBBHHHHddckkmlkiiiiiBBBBBBBBBBBBBBBBBBBBBBBBBBBLBBBBBBBBBBBBBBBBBBBBBBBBdccdddcddddddcdddccBBBBBBBBBBBBBBBBBBBBBLBBBBBBBBBBBBBBBBBBBBBBBBBBccdcdddccdddcloottBBBBBBBBBBBBBBBBBBBBLBBBBBBBBBBBBBBBBBBBBBBBdddcccmlkiiiBBBBBBBBBBDBBBBBBBBBBBBBBBBBBLBBBBBBBBBBBBBBBBBBBBBBdcddccclliklkkkkkkkllQBBBBBBBBBBBBBBBBBBBBL",
"LBBBBBBBBBBBBBBBBBBBBddclcclkknctoomlkkikillBBBBBBBBBBBBBBBBBBBBBLBBBBBBBBBBBBBBBBBBBDtooooiicddddccnlkcccnllBBBBBBBBBBBBBBBBBBBBBLBBBBBBBBBBBBBBBBBHHHHDDDDDtDcNNdcddcdddmmBBBBBBBBBBBBBBBBBBBBBBBLBBBBBBBBBBBBBBBBBBBBDtooddckkmlkiiiiiBBBBBBBBBBBBBBBBBBBBBBBBBBBLBBBBBBBBBBBBBBBBBBBBBBBBdccdddccddddcnmdddcBBBBBBBBBBBBBBBBBBBBBLBBBBBBBBBBBBBBBBBBBBBBBBBBccdcddddccdddcloooBBBBBBBBBBBBBBBBBBBBLBBBBBBBBBBBBBBBBBBBBBBBddcccmllkixxtltttttttttBBBBBBBBBBBBBBBBBBLBBBBBBBBBBBBBBBBBBBBBBdcccllliiikkkktltttwDlBBBBBBBBBBBBBBBBBBBBL",
"LBBBBBBBBBBBBBBBBBBBBddddlkklkmtVaHiikiiBlllBBBBBBBBBBBBBBBBBBBBBLBBBBBBBBBBBBBBBBBBBddiHiaHwHwcdddcnlkBllcllBBBBBBBBBBBBBBBBBBBBBLBBBBBBBBBBBBBBBBBDtooooooollmmcccddccdcdmBBBBBBBBBBBBBBBBBBBBBBBLBBBBBBBBBBBBBBBBBBBBBBBBdddckmlkiiiiiBBBBBBBBBBBBBBBBBBBBBBBBBBBLBBBBBBBBBBBBBBBBBBBBBBBBdccdddccddddcnmdddcBBBBBBBBBBBBBBBBBBBBBLBBBBBBBBBBBBBBBBBBBBBBBBBBBcdcdddddcdddclBBBBBBBBBBBBBBBBBBBBBBBLBBBBBBBBBBBBBBBBBBBBBBBddcccmlkiiiilllllllllooBBBBBBBBBBBBBBBBBBLBBBBBBBBBBBBBBBBBBBBBBdddcclckkkkkkkiioooooocBBBBBBBBBBBBBBBBBBBL",
"LBBBBBBBBBBBBBBBBBBBBcdddccc*iitDaliiiiiBlllBBBBBBBBBBBBBBBBBBBBBLBBBBBBBBBBBBBBBBBBBdddiDolttollcccnlkBcccnlBBBBBBBBBBBBBBBBBBBBBLBBBBBBBBBBBBBBBBBBBBBiHiiHwoHlmmccddcccdmiBBBBBBBBBBBBBBBBBBBBBBLBBBBBBBBBBBBBBBBBBBBBBBBdcccmmlkkiiiiBBBBBBBBBBBBBBBBBBBBBBBBBBBLBBBBBBBBBBBBBBBBBBBBBBBBdcncddcccccccnmcccnlBBBBBBBBBBBBBBBBBBBBLBBBBBBBBBBBBBBBBBBBBBBBBBBBcdcdddddccccckBBBBBBBBBBBBBBBBBBBBBBBLBBBBBBBBBBBBBBBBBBBBBBddddcmllkiiiHowHiiHiBBBBBBBBBBBBBBBBBBBBBBLBBBBBBBBBBBBBBBBBBBBBBddcccBcmkkkkotwHaiHiklcBBBBBBBBBBBBBBBBBBBL",
"LBBBBBBBBBBBBBBBBBBBBccddcB*ZiitDwoiiiiiBlllBBBBBBBBBBBBBBBBBBBBBLBBBBBBBBBBBBBBBBBBddddmQHalliikkkkkkkBddcnlBBBBBBBBBBBBBBBBBBBBBLBBBBBBBBBBBBBBBBBBBBBBiHtiatwtlmoccccccdmiBBBBBBBBBBBBBBBBBBBBBBLBBBBBBBBBBBBBBBBBBBBBBBBdccmmlllkiiiBBBBBBBBBBBBBBBBBBBBBBBBBBBBLBBBBBBBBBBBBBBBBBBBBBBBBdcnncddcncccnmmcccnlBBBBBBBBBBBBBBBBBBBBLBBBBBBBBBBBBBBBBBBBBBBBBBBBcddcddddccllkkkBBBBBBBBBBBBBBBBBBBBBBLBBBBBBBBBBBBBBBBBBBBBBddddccmlkiitwtaitHiBBBBBBBBBBBBBBBBBBBBBBBLBBBBBBBBBBBBBBBBBBBBBBdddccBmmmmkkottloDikklcBBBBBBBBBBBBBBBBBBBL",
"LBBBBBBBBBBBBBBBBBBBBBccKw*Z4iitttoikkiiBcllBBBBBBBBBBBBBBBBBBBBBLBBBBBBBBBBBBBBBBBBdddccQHaiiiikkkkkkkBddnnlBBBBBBBBBBBBBBBBBBBBBLBBBBBBBBBBBBBBBBBBBBBBBPtialtolmoocmcdddmiBBBBBBBBBBBBBBBBBBBBBBLBBBBBBBBBBBBBBBBBBBBBBBBddckmllkkiiiiBBBBBBBBBBBBBBBBBBBBBBBBBBBLBBBBBBBBBBBBBBBBBBBBBBBBdcnnccccnccnnmlcccnlBBBBBBBBBBBBBBBBBBBBLBBBBBBBBBBBBBBBBBBBBBBBBBBBBddcddddolllkkkBBBBBBBBBBBBBBBBBBBBBBLBBBBBBBBBBBBBBBBBBBBBBddcccmllkiiotlaitPBBBBBBBBBBBBBBBBBBBBBBBBLBBBBBBBBBBBBBBBBBBBBBBBdddcBmmkkkkillaQDmkklcBBBBBBBBBBBBBBBBBBBL",
"LBBBBBBBBBBBBBBBBBBBBBcKKYZ4dkiiiiiiklkkBKwwBBBBBBBBBBBBBBBBBBBBBLBBBBBBBBBBBBBBBBBBQQccBcaaacclcnlllklBHHwnlBBBBBBBBBBBBBBBBBBBBBLBBBBBBBBBBBBBBBBBBBBBBBDoiailllmoolicddcmiBBBBBBBBBBBBBBBBBBBBBBLBBBBBBBBBBBBBBBBBBBBBBBBddckmllkkiiiiBBBBBBBBBBBBBBBBBBBBBBBBBBBLBBBBBBBBBBBBBBBBBBBBBBBBBcncdddcnnnmmllcccnlBBBBBBBBBBBBBBBBBBBBLBBBBBBBBBBBBBBBBBBBBBBBBBBBBddcddddoollkkkBBBBBBBBBBBBBBBBBBBBBBLBBBBBBBBBBBBBBBBBBBBBBBdccccllkiiiliaioDBBBBBBBBBBBBBBBBBBBBBBBBLBBBBBBBBBBBBBBBBBBBBBBBdHQQBccnmlkiiiaQDBkkkcBBBBBBBBBBBBBBBBBBBL",
"LBBBBBBBBBBBBBBBBBBBBBBKKwwBdkkkkkknnnmmlK1wBBBBBBBBBBBBBBBBBBBBBLBBBBBBBBBBBBBBBBBQ1wwcBBBBdcccdcccl1KKKzwtBBBBBBBBBBBBBBBBBBBBBBLBBBBBBBBBBBBBBBBBBBBBB6DaaaeecmmoolicddcmiBBBBBBBBBBBBBBBBBBBBBBLBBBBBBBBBBBBBBBBBBBBBBBBddmklllkkiiiiBBBBBBBBBBBBBBBBBBBBBBBBBBBLBBBBBBBBBBBBBBBBBBBBBBBBBcncdddcnnmmlkiBccnlBBBBBBBBBBBBBBBBBBBBLBBBBBBBBBBBBBBBBBBBBBBBBBBBBdddddddoollkkkoBBBBBBBBBBBBBBBBBBBBBLBBBBBBBBBBBBBBBBBBBBBBBdccccmlkkkillaaaBBBBBBBBBBBBBBBBBBBBBBBBBLBBBBBBBBBBBBBBBBBBBBBBBBQQ4wccnmlkiiaaacBBkDQQBBBBBBBBBBBBBBBBBBL",
"LBBBBBBBBBBBBBBBBBBBBBBBwwBBdnnnnnccncnmlB1BBBBBBBBBBBBBBBBBBBBBBLBBBBBBBBBBBBBBBBB11wBBBBBBcccddddcl1KKwwttBBBBBBBBBBBBBBBBBBBBBBLBBBBBBBBBBBBBBBBBBBB66DDtttBBdddccliHHwcmBBBBBBBBBBBBBBBBBBBBBBBLBBBBBBBBBBBBBBBBBBBBBBBBdckkllkkkiiiiBBBBBBBBBBBBBBBBBBBBBBBBBBBLBBBBBBBBBBBBBBBBBBBBBBBBBBcddddcnmlllkiBccnlBBBBBBBBBBBBBBBBBBBBLBBBBBBBBBBBBBBBBBBBBBBBBBBBdddcddddolkllkooBBBBBBBBBBBBBBBBBBBBBLBBBBBBBBBBBBBBBBBBBBBBBBccccmlllkkissIHHHHHBBBBBBBBBBBBBBBBBBBBBLBBBBBBBBBBBBBBBBBBBBBBBBQHHZZwmmlkkkiiiBBBBQ3DBBBBBBBBBBBBBBBBBBL",
"LBBBBBBBBBBBBBBBBBBBBBBBBBBddnnnnddddccmlB1BBBBBBBBBBBBBBBBBBBBBBLBBBBBBBBBBBBBBBBB11wBBBBBBccdddddcl1QQtwtBBBBBBBBBBBBBBBBBBBBBBBLBBBBBBBBBBBBBBBBBBB6QDDBttBBddQQQQQQIDwwtBBBBBBBBBBBBBBBBBBBBBBBLBBBBBBBBBBBBBBBBBBBBBBBBPKwwclkkiiiiiBBBBBBBBBBBBBBBBBBBBBBBBBBBLBBBBBBBBBBBBBBBBBBBBBBBBBBcddddcmmllkkiBHHtlBBBBBBBBBBBBBBBBBBBBLBBBBBBBBBBBBBBBBBBBBBBBBBBBddcldddoolkkDtooDBBBBBBBBBBBBBBBBBBBBLBBBBBBBBBBBBBBBBBBBBBBBBdcDHHdlkkkittttHHHHBBBBBBBBBBBBBBBBBBBBBLBBBBBBBBBBBBBBBBBBBBBBBBBBB4ZZDmlkkkiiiBBBBD3DBBBBBBBBBBBBBBBBBBL",
"LBBBBBBBBBBBBBBBBBBBBBBBBBBddnnnnddddccmlBBBBBBBBBBBBBBBBBBBBBBBBLBBBBBBBBBBBBBBBBB1BBBBBBBBcccccccclnlkBBBBBBBBBBBBBBBBBBBBBBBBBBLBBBBBBBBBBBBBBBBBBBQDHHBBBBBddKKKKKlgDwttBBBBBBBBBBBBBBBBBBBBBBBLBBBBBBBBBBBBBBBBBBBBBBQQPKIsckkkiiiiiBBBBBBBBBBBBBBBBBBBBBBBBBBBLBBBBBBBBBBBBBBBBBBBBBBBBBBdddddcmllkkkiQrFtBBBBBBBBBBBBBBBBBBBBBLBBBBBBBBBBBBBBBBBBBBBBBBBBBcccldddollkkktooDDBBBBBBBBBBBBBBBBBBBLBBBBBBBBBBBBBBBBBBBBBBBBdDPHFFlkkkiBttBPPPPBBBBBBBBBBBBBBBBBBBBBLBBBBBBBBBBBBBBBBBBBBBBBBBBB444QllkkiiiiBBBBB33BBBBBBBBBBBBBBBBBBL",
"LBBBBBBBBBBBBBBBBBBBBBBBBBBddnnnndcccccnlBBBBBBBBBBBBBBBBBBBBBBBBLBBBBBBBBBBBBBBBBBBBBBBBBBBccdddddcnllkBBBBBBBBBBBBBBBBBBBBBBBBBBLBBBBBBBBBBBBBBBBBBBBHHBBBBBBccZZZZZlDtttaBBBBBBBBBBBBBBBBBBBBBBBLBBBBBBBBBBBBBBBBBBBBBBQQwwwwliiiiiiiiBBBBBBBBBBBBBBBBBBBBBBBBBBBLBBBBBBBBBBBBBBBBBBBBBBBBBBdccmmmmllkkiiQHHtBBBBBBBBBBBBBBBBBBBBBLBBBBBBBBBBBBBBBBBBBBBBBBBBBddddllliiiiiicBHDDwBBBBBBBBBBBBBBBBBBLBBBBBBBBBBBBBBBBBBBBBBBBdPPHF4HtiiiBBBBBBBBBBBBBBBBBBBBBBBBBBBBBLBBBBBBBBBBBBBBBBBBBBBBBBBBBd44mllkkiiiiBBBBB33BBBBBBBBBBBBBBBBBBL",
"LBBBBBBBBBBBBBBBBBBBBBBBBBBnnlllllcddddclBBBBBBBBBBBBBBBBBBBBBBBBLBBBBBBBBBBBBBBBBBBBBBBBBBBBddddddcnllkBBBBBBBBBBBBBBBBBBBBBBBBBBLBBBBBBBBBBBBBBBBBBBBBBBBBBBBdddddcnmmmhhBBBBBBBBBBBBBBBBBBBBBBBBLBBBBBBBBBBBBBBBBBBBBBB61ddcnlllkiikkkBBBBBBBBBBBBBBBBBBBBBBBBBBBLBBBBBBBBBBBBBBBBBBBBBBBBBBcddddcmiliiiiQttBBBBBBBBBBBBBBBBBBBBBBLBBBBBBBBBBBBBBBBBBBBBBBBBBBddddcclkkiiiilBBHDwBBBBBBBBBBBBBBBBBBLBBBBBBBBBBBBBBBBBBBBBBBBddPPtt1VVtiBBBBBBBBBBBBBBBBBBBBBBBBBBBBBLBBBBBBBBBBBBBBBBBBBBBBBBBBBddcccnmlkiiBBBBBBB3BBBBBBBBBBBBBBBBBBL",
"LBBBBBBBBBBBBBBBBBBBBBBBBBBccllllcdddddcnBBBBBBBBBBBBBBBBBBBBBBBBLBBBBBBBBBBBBBBBBBBBBBBBBBBBdddddccnllBBBBBBBBBBBBBBBBBBBBBBBBBBBLBBBBBBBBBBBBBBBBBBBBBBBBBBBdddddcnnmmkhhBBBBBBBBBBBBBBBBBBBBBBBBLBBBBBBBBBBBBBBBBBBBBBBBBddlllllkkikkkBBBBBBBBBBBBBBBBBBBBBBBBBBBLBBBBBBBBBBBBBBBBBBBBBBBBBBcddddcmimlkiiBBBBBBBBBBBBBBBBBBBBBBBBBLBBBBBBBBBBBBBBBBBBBBBBBBBBBddddcckkkiiiikcBBDBBBBBBBBBBBBBBBBBBBLBBBBBBBBBBBBBBBBBBBBBBBBccddcm41VVHBBBBBBBBBBBBBBBBBBBBBBBBBBBBBLBBBBBBBBBBBBBBBBBBBBBBBBBBBBddccnmlkiiBBBBBBBBBBBBBBBBBBBBBBBBBBL",
"LBBBBBBBBBBBBBBBBBBBBBBBBBBccnnnncdddddcnBBBBBBBBBBBBBBBBBBBBBBBBLBBBBBBBBBBBBBBBBBBBBBBBBBBddddddcnllkBBBBBBBBBBBBBBBBBBBBBBBBBBBLBBBBBBBBBBBBBBBBBBBBBBBBBBBdddddcnmmkkhhBBBBBBBBBBBBBBBBBBBBBBBBLBBBBBBBBBBBBBBBBBBBBBBBdddcnlllkkklkkBBBBBBBBBBBBBBBBBBBBBBBBBBBLBBBBBBBBBBBBBBBBBBBBBBBBBBcddddcmimlkiiBBBBBBBBBBBBBBBBBBBBBBBBBLBBBBBBBBBBBBBBBBBBBBBBBBBBddddddckkkiiiiicBBBBBBBBBBBBBBBBBBBBBBLBBBBBBBBBBBBBBBBBBBBBBBdccddccm44HiBBBBBBBBBBBBBBBBBBBBBBBBBBBBBLBBBBBBBBBBBBBBBBBBBBBBBBBBBBddccnmlkkiBBBBBBBBBBBBBBBBBBBBBBBBBBL",
"LBBBBBBBBBBBBBBBBBBBBBBBBBBccnnnncdddddcnBBBBBBBBBBBBBBBBBBBBBBBBLBBBBBBBBBBBBBBBBBBBBBBBBBBdddddccnlkiBBBBBBBBBBBBBBBBBBBBBBBBBBBLBBBBBBBBBBBBBBBBBBBBBBBBBBdddddccnmkkmhhhBBBBBBBBBBBBBBBBBBBBBBBLBBBBBBBBBBBBBBBBBBBBBBBdddcmllkkkkllkkBBBBBBBBBBBBBBBBBBBBBBBBBBLBBBBBBBBBBBBBBBBBBBBBBBBBBcddddcmimlkiiBBBBBBBBBBBBBBBBBBBBBBBBBLBBBBBBBBBBBBBBBBBBBBBBBBBBdddddcokkkkkiiicBBBBBBBBBBBBBBBBBBBBBBLBBBBBBBBBBBBBBBBBBBBBBBdccdddcmlkiiiBBBBBBBBBBBBBBBBBBBBBBBBBBBBLBBBBBBBBBBBBBBBBBBBBBBBBBBBBddddcnmlkiBBBBBBBBBBBBBBBBBBBBBBBBBBL",
"LBBBBBBBBBBBBBBBBBBBBBBBBBBBcnnnncdddddcBBBBBBBBBBBBBBBBBBBBBBBBBLBBBBBBBBBBBBBBBBBBBBBBBBBBddddcccnlkiBBBBBBBBBBBBBBBBBBBBBBBBBBBLBBBBBBBBBBBBBBBBBBBBBBBBBBdddddcnmmkkkhhhBBBBBBBBBBBBBBBBBBBBBBBLBBBBBBBBBBBBBBBBBBBBBBdddcnmllkkmlllkkBBBBBBBBBBBBBBBBBBBBBBBBBBLBBBBBBBBBBBBBBBBBBBBBBBBBBcddddcmimlkiiBBBBBBBBBBBBBBBBBBBBBBBBBLBBBBBBBBBBBBBBBBBBBBBBBBBBdddddclikkkkiiilBBBBBBBBBBBBBBBBBBBBBBLBBBBBBBBBBBBBBBBBBBBBBdddccddccmkiiiBBBBBBBBBBBBBBBBBBBBBBBBBBBBLBBBBBBBBBBBBBBBBBBBBBBBBBBBBddddcnmlkiBBBBBBBBBBBBBBBBBBBBBBBBBBL",
"LBBBBBBBBBBBBBBBBBBBBBBBBBBccnnnncdddddcBBBBBBBBBBBBBBBBBBBBBBBBBLBBBBBBBBBBBBBBBBBBBBBBBBBBddddccclkiiiBBBBBBBBBBBBBBBBBBBBBBBBBBLBBBBBBBBBBBBBBBBBBBBBBBBBdddddcnmmkkkhhhhBBBBBBBBBBBBBBBBBBBBBBBLBBBBBBBBBBBBBBBBBBBBBBdddcmlllkcmmlllkBBBBBBBBBBBBBBBBBBBBBBBBBBLBBBBBBBBBBBBBBBBBBBBBBBBBBcddddciilkiiiBBBBBBBBBBBBBBBBBBBBBBBBBLBBBBBBBBBBBBBBBBBBBBBBBBBBddddcclickkkiiikBBBBBBBBBBBBBBBBBBBBBBLBBBBBBBBBBBBBBBBBBBBBBdddcmddccmlkiiBBBBBBBBBBBBBBBBBBBBBBBBBBBBLBBBBBBBBBBBBBBBBBBBBBBBBBBBcdcddcnmlkiiBBBBBBBBBBBBBBBBBBBBBBBBBL",
"LBBBBBBBBBBBBBBBBBBBBBBBBBBcnnnnncdddddcBBBBBBBBBBBBBBBBBBBBBBBBBLBBBBBBBBBBBBBBBBBBBBBBBBBddddddnnkkiiiBBBBBBBBBBBBBBBBBBBBBBBBBBLBBBBBBBBBBBBBBBBBBBBBBBBBdddccnmmkkmkihhhhBBBBBBBBBBBBBBBBBBBBBBLBBBBBBBBBBBBBBBBBBBBBBdcdnmllkkcmcmliiBBBBBBBBBBBBBBBBBBBBBBBBBBLBBBBBBBBBBBBBBBBBBBBBBBBBBccccmmiimlkiBBBBBBBBBBBBBBBBBBBBBBBBBBLBBBBBBBBBBBBBBBBBBBBBBBBBcckkcckiBckkkkiiicBBBBBBBBBBBBBBBBBBBBBLBBBBBBBBBBBBBBBBBBBBBmcccmkcdcccmkkiiBBBBBBBBBBBBBBBBBBBBBBBBBBBLBBBBBBBBBBBBBBBBBBBBBBBBBBBdccmddcmlkkiBBBBBBBBBBBBBBBBBBBBBBBBBL",
"LBBBBBBBBBBBBBBBBBBBBBBBBBBnlnnnldcccccdcBBBBBBBBBBBBBBBBBBBBBBBBLBBBBBBBBBBBBBBBBBBBBBBBBBdccccdkkkiiiiaBBBBBBBBBBBBBBBBBBBBBBBBBLBBBBBBBBBBBBBBBBBBBBBBBBBddddnmmkkcmkkikihhBBBBBBBBBBBBBBBBBBBBBLBBBBBBBBBBBBBBBBBBBBBddcckkkkkcccmmilkkBBBBBBBBBBBBBBBBBBBBBBBBBLBBBBBBBBBBBBBBBBBBBBBBBBBBccdddcclllkiBBBBBBBBBBBBBBBBBBBBBBBBBBLBBBBBBBBBBBBBBBBBBBBBBBBBdddckkkiBBcliiiiilBBBBBBBBBBBBBBBBBBBBBLBBBBBBBBBBBBBBBBBBBBdcmccmkkiccmlkkiiBBBBBBBBBBBBBBBBBBBBBBBBBBBLBBBBBBBBBBBBBBBBBBBBBBBBBBBdccmccccmlkiBBBBBBBBBBBBBBBBBBBBBBBBBL",
"LBBBBBBBBBBBBBBBBBBBBBBBBBBBllllllccccnllBBBBBBBBBBBBBBBBBBBBBBBBLBBBBBBBBBBBBBBBBBBBBBBBBBccccnnlkiiiiaaBBBBBBBBBBBBBBBBBBBBBBBBBLBBBBBBBBBBBBBBBBBBBBBBBBdddmmmkkkBccmmmkhhhhBBBBBBBBBBBBBBBBBBBBLBBBBBBBBBBBBBBBBBBBBBdddnmllkBBcccmlllkkBBBBBBBBBBBBBBBBBBBBBBBBLBBBBBBBBBBBBBBBBBBBBBBBBBBcdddddccmliiBBBBBBBBBBBBBBBBBBBBBBBBBBLBBBBBBBBBBBBBBBBBBBBBBBBddddcckkiBBcclkkiikBBBBBBBBBBBBBBBBBBBBBLBBBBBBBBBBBBBBBBBBBdddccmkkiicccmlkiiiBBBBBBBBBBBBBBBBBBBBBBBBBBLBBBBBBBBBBBBBBBBBBBBBBBBBBBccmmdcnnmlkiiBBBBBBBBBBBBBBBBBBBBBBBBL",
"LBBBBBBBBBBBBBBBBBBBBBBBBBBBBiiilncccnnlBBBBBBBBBBBBBBBBBBBBBBBBBLBBBBBBBBBBBBBBBBBBBBBBBBBccccnnllaaaaaaBBBBBBBBBBBBBBBBBBBBBBBBBLBBBBBBBBBBBBBBBBBBBBBBBBdddcnmmkBBBccmkiihhaBBBBBBBBBBBBBBBBBBBBLBBBBBBBBBBBBBBBBBBBBBBicmmlkkBBBcmclliiiBBBBBBBBBBBBBBBBBBBBBBBBLBBBBBBBBBBBBBBBBBBBBBBBBBBcddccccahhhiBBBBBBBBBBBBBBBBBBBBBBBBBBLBBBBBBBBBBBBBBBBBBBBBBBBddddckiiiBBBclkkiiaBBBBBBBBBBBBBBBBBBBBBLBBBBBBBBBBBBBBBBBBBadcmmkkiiBcccmlkkiiBBBBBBBBBBBBBBBBBBBBBBBBBBLBBBBBBBBBBBBBBBBBBBBBBBBBBakkkiddddmlkiiBBBBBBBBBBBBBBBBBBBBBBBBL",
"LBBBBBBBBBBBBBBBBBBBBBBBBBBBBaaailnnmmllBBBBBBBBBBBBBBBBBBBBBBBBBLBBBBBBBBBBBBBBBBBBBBBBBBBccccnnllaaaaaaaBBBBBBBBBBBBBBBBBBBBBBBBLBBBBBBBBBBBBBBBBBBBBBBBBdddcnmmkBBBBccmmkiaaaBBBBBBBBBBBBBBBBBBBLBBBBBBBBBBBBBBBBBBBBBBkaiiiiiBBBccllaaaaaBBBBBBBBBBBBBBBBBBBBBBBLBBBBBBBBBBBBBBBBBBBBBBBBBBBccccccaaaaBBBBBBBBBBBBBBBBBBBBBBBBBBBLBBBBBBBBBBBBBBBBBBBBBBBBllllkiiiBBBBBaaaaaaBBBBBBBBBBBBBBBBBBBBBLBBBBBBBBBBBBBBBBBBllamkkiiiBBBccmlkiiiBBBBBBBBBBBBBBBBBBBBBBBBBBLBBBBBBBBBBBBBBBBBBBBBBBBBBhkaaaaddnmlkiiBBBBBBBBBBBBBBBBBBBBBBBBL",
"LBBBBBBBBBBBBBBBBBBBBBBBBBBBBiaaaaiiiiaBBBBBBBBBBBBBBBBBBBBBBBBBBLBBBBBBBBBBBBBBBBBBBBBBBBBBnnkiaaBBiiaaaaaBBBBBBBBBBBBBBBBBBBBBBBLBBBBBBBBBBBBBBBBBBBBBBBBkkiiikkBBBBBBcmmaaaaaBBBBBBBBBBBBBBBBBBBLBBBBBBBBBBBBBBBBBBBBBBkiaaaaBBBBBccaahhhaBBBBBBBBBBBBBBBBBBBBBBBLBBBBBBBBBBBBBBBBBBBBBBBBBBBclooiiaaaaBBBBBBBBBBBBBBBBBBBBBBBBBBBLBBBBBBBBBBBBBBBBBBBBBBBBooliaiiBBBBBBliaaaaBBBBBBBBBBBBBBBBBBBBBLBBBBBBBBBBBBBBBBBBlkiaaaiiBBBBBhhaaaaBBBBBBBBBBBBBBBBBBBBBBBBBBBLBBBBBBBBBBBBBBBBBBBBBBBBBkaaaaaaBecmlkiiBBBBBBBBBBBBBBBBBBBBBBBBL",
"LBBBBBBBBBBBBBBBBBBBBBBBBBBBBihhhamnliaBBBBBBBBBBBBBBBBBBBBBBBBBBLBBBBBBBBBBBBBBBBBBBBBBBBBBnnkiaaBBBaaaaaaBBBBBBBBBBBBBBBBBBBBBBBLBBBBBBBBBBBBBBBBBBBBBBBBkkihaaaBBBBBBBaaaaaaaaBBBBBBBBBBBBBBBBBBLBBBBBBBBBBBBBBBBBBBBBBkiaaaaBBBBBBaaaaaaaBBBBBBBBBBBBBBBBBBBBBBBLBBBBBBBBBBBBBBBBBBBBBBBBBBBallliiaaaaBBBBBBBBBBBBBBBBBBBBBBBBBBBLBBBBBBBBBBBBBBBBBBBBBBBBooliaaaBBBBBBliaaaaBBBBBBBBBBBBBBBBBBBBBLBBBBBBBBBBBBBBBBBllkhaaaiBBBBBBliiaaaBBBBBBBBBBBBBBBBBBBBBBBBBBBLBBBBBBBBBBBBBBBBBBBBBBBBBkhaaaaBBaaiiiiiBBBBBBBBBBBBBBBBBBBBBBBBL",
"LBBBBBBBBBBBBBBBBBBBBBBBBBBBBiiiiannliaBBBBBBBBBBBBBBBBBBBBBBBBBBLBBBBBBBBBBBBBBBBBBBBBBBBBBnnkiaaBBBBaaaaaBBBBBBBBBBBBBBBBBBBBBBBLBBBBBBBBBBBBBBBBBBBBBBBBkkiaaaBBBBBBBBBaaaaaaaaaBBBBBBBBBBBBBBBBLBBBBBBBBBBBBBBBBBBBBBkaaaaaBBBBBBBBaaaiihaBBBBBBBBBBBBBBBBBBBBBBLBBBBBBBBBBBBBBBBBBBBBBBBBBBaillliaaaBBBBBBBBBBBBBBBBBBBBBBBBBBBBLBBBBBBBBBBBBBBBBBBBBBBBBaaliaaBBBBBBBBaaaaaaBBBBBBBBBBBBBBBBBBBBLBBBBBBBBBBBBBBBllaihhaaaBBBBBBBlliaaaBBBBBBBBBBBBBBBBBBBBBBBBBBBLBBBBBBBBBBBBBBBBBBBBBBBBBhhaaaaBBahkhaaBBBBBBBBBBBBBBBBBBBBBBBBBL",
"LBBBBBBBBBBBBBBBBBBBBBBBBBBBBliiiBllliaBBBBBBBBBBBBBBBBBBBBBBBBBBLBBBBBBBBBBBBBBBBBBBBBBBBBBnkkiaaBBBBiiiaaBBBBBBBBBBBBBBBBBBBBBBBLBBBBBBBBBBBBBBBBBBBBBBBBkiiaaaBBBBBBBBBBaaaaaaaaaBBBBBBBBBBBBBBBLBBBBBBBBBBBBBBBBBBBkkkiaaaaBBBBBBBBBaahaaaaBBBBBBBBBBBBBBBBBBBBBLBBBBBBBBBBBBBBBBBBBBBBBBBBBBaaaaaaaaBBBBBBBBBBBBBBBBBBBBBBBBBBBBLBBBBBBBBBBBBBBBBBBBBBBaoooiaaaBBBBBBBBiiaaaaaaBBBBBBBBBBBBBBBBBBLBBBBBBBBBBBBBBllkiaaaaaBBBBBBBBllihaaaBBBBBBBBBBBBBBBBBBBBBBBBBBLBBBBBBBBBBBBBBBBBBBBBBBBBhhhhaaBBBkmkhaBBBBBBBBBBBBBBBBBBBBBBBBBL",
"LBBBBBBBBBBBBBBBBBBBBBBBBBBBBBBBBBiiiiaBBBBBBBBBBBBBBBBBBBBBBBBBBLBBBBBBBBBBBBBBBBBBBBBBBBBBkaaaaaBBBiiiaaaBBBBBBBBBBBBBBBBBBBBBBBLBBBBBBBBBBBBBBBBBBBBBBBkkihaaBBBBBBBBBBBBBaaaaaaaBBBBBBBBBBBBBBBLBBBBBBBBBBBBBBBBBBBkkkiaaaaBBBBBBBBBBaaahhhBBBBBBBBBBBBBBBBBBBBBLBBBBBBBBBBBBBBBBBBBBBBBBBBBBaooollaaBBBBBBBBBBBBBBBBBBBBBBBBBBBBLBBBBBBBBBBBBBBBBBBBBBBiioliaaBBBBBBBBBiaaaaaaaBBBBBBBBBBBBBBBBBBLBBBBBBBBBBBBBBllkhhaaBBBBBBBBBBBhhhaaaBBBBBBBBBBBBBBBBBBBBBBBBBBLBBBBBBBBBBBBBBBBBBBBBBBBBBiihaaaBBkmkhaaBBBBBBBBBBBBBBBBBBBBBBBBL",
"LBBBBBBBBBBBBBBBBBBBBBBBBBBBBBBBBBllliBBBBBBBBBBBBBBBBBBBBBBBBBBBLBBBBBBBBBBBBBBBBBBBBBBBBBnnnkaaBBBBaaaaaBBBBBBBBBBBBBBBBBBBBBBBBLBBBBBBBBBBBBBBBBBBBBBBBkaaaaaBBBBBBBBBBBBBBaaaaaaBBBBBBBBBBBBBBBLBBBBBBBBBBBBBBBBBBBiiiaaaaaBBBBBBBBBBaaahhhBBBBBBBBBBBBBBBBBBBBBLBBBBBBBBBBBBBBBBBBBBBBBBBBBBaollllaaBBBBBBBBBBBBBBBBBBBBBBBBBBBBLBBBBBBBBBBBBBBBBBBBBBBiiiiiaBBBBBBBBBBiaaaaaaaBBBBBBBBBBBBBBBBBBLBBBBBBBBBBBBBBiihhaaBBBBBBBBBBBBBaaaaaBBBBBBBBBBBBBBBBBBBBBBBBBBLBBBBBBBBBBBBBBBBBBBBBBBBBBiiaaaaBBBhaaaaBBBBBBBBBBBBBBBBBBBBBBBBL",
"LBBBBBBBBBBBBBBBBBBBBBBBBBBBBBBBBlnnniaBBBBBBBBBBBBBBBBBBBBBBBBBBLBBBBBBBBBBBBBBBBBBBBBBBBnnnnkiaaBBBBBBBBBBBBBBBBBBBBBBBBBBBBBBBBLBBBBBBBBBBBBBBBBBBBBBkkkkihaaaBBBBBBBBBBBBiihaaaBBBBBBBBBBBBBBBBLBBBBBBBBBBBBBBBBBBBBBaaaaaaBBBBBBBBBaaaahhhBBBBBBBBBBBBBBBBBBBBBLBBBBBBBBBBBBBBBBBBBBBBBBBBBaoiiiiiBBBBBBBBBBBBBBBBBBBBBBBBBBBBBBLBBBBBBBBBBBBBBBBBBBBBBiiiaaaaBBBBBBBBBaaaaaaBBBBBBBBBBBBBBBBBBBBLBBBBBBBBBBBBBBaaaaaaBBBBBBBBBBBBilhaaaaaBBBBBBBBBBBBBBBBBBBBBBBBLBBBBBBBBBBBBBBBBBBBBBBBBBBBBBBBBBBhkkkhhaBBBBBBBBBBBBBBBBBBBBBBBL",
"LBBBBBBBBBBBBBBBBBBBBBBBBBBBBBBBBnnnnliBBBBBBBBBBBBBBBBBBBBBBBBBBLBBBBBBBBBBBBBBBBBBBBBBBnnnnnkiaiBBBBBBBBBBBBBBBBBBBBBBBBBBBBBBBBLBBBBBBBBBBBBBBBBBBBkkkkiihaaaaBBBBBBBBBBiihhaaaaBBBBBBBBBBBBBBBBLBBBBBBBBBBBBBBBBBBBBBBBBBBBBBBBBBBBaaaahhhBBBBBBBBBBBBBBBBBBBBBBLBBBBBBBBBBBBBBBBBBBBBBBBBBBaiaaaaaBBBBBBBBBBBBBBBBBBBBBBBBBBBBBBLBBBBBBBBBBBBBBBBBBBBBBBiiaaaaBBBBBBBBBBBBBBBBBBBBBBBBBBBBBBBBBBBLBBBBBBBBBBBBBBBaaaaaaaBBBBBBBBBBilhaaaaaaaBBBBBBBBBBBBBBBBBBBBBBLBBBBBBBBBBBBBBBBBBBBBBBBBBBBBBBBBBhkkhhaaaBBBBBBBBBBBBBBBBBBBBBBL",
"LBBBBBBBBBBBBBBBBBBBBBBBBBBBBBBBBllliiiBBBBBBBBBBBBBBBBBBBBBBBBBBLBBBBBBBBBBBBBBBBBBBBBBBkkkkkiiiiBBBBBBBBBBBBBBBBBBBBBBBBBBBBBBBBLBBBBBBBBBBBBBBBBBBBhhhhaaaaaaaBBBBBBBBBBihaaaaaBBBBBBBBBBBBBBBBBLBBBBBBBBBBBBBBBBBBBBBBBBBBBBBBBBBBBBaahhhhBBBBBBBBBBBBBBBBBBBBBBLBBBBBBBBBBBBBBBBBBBBBBBBBBBBaaaaaBBBBBBBBBBBBBBBBBBBBBBBBBBBBBBBLBBBBBBBBBBBBBBBBBBBBBBBiiaaaaBBBBBBBBBBBBBBBBBBBBBBBBBBBBBBBBBBBLBBBBBBBBBBBBBBBaaaaaaaBBBBBBBBBBilhaaaaaaaBBBBBBBBBBBBBBBBBBBBBBLBBBBBBBBBBBBBBBBBBBBBBBBBBBBBBBBBBliihaaaaBBBBBBBBBBBBBBBBBBBBBBL",
"LLLLLLLLLLLLLLLLLLLLLLLLLLLLLLLLLLLLLLLLLLLLLLLLLLLLLLLLLLLLLLLLLLLLLLLLLLLLLLLLLLLLLLLLLLLLLLLLLLLLLLLLLLLLLLLLLLLLLLLLLLLLLLLLLLLLLLLLLLLLLLLLLLLLLLLLLLLLLLLLLLLLLLLLLLLLLLLLLLLLLLLLLLLLLLLLLLLLLLLLLLLLLLLLLLLLLLLLLLLLLLLLLLLLLLLLLLLLLLLLLLLLLLLLLLLLLLLLLLLLLLLLLLLLLLLLLLLLLLLLLLLLLLLLLLLLLLLLLLLLLLLLLLLLLLLLLLLLLLLLLLLLLLLLLLLLLLLLLLLLLLLLLLLLLLLLLLLLLLLLLLLLLLLLLLLLLLLLLLLLLLLLLLLLLLLLLLLLLLLLLLLLLLLLLLLLLLLLLLLLLLLLLLLLLLLLLLLLLLLLLLLLLLLLLLLLLLLLLLLLLLLLLLLLLLLLLLLLLLLLLLLLLLLLLLLLLLLLLLLLLLLLLLLLLLLLLLLLLLLLL",
"LBBBBBBBBBBBBBBBBBBBBBBBBBBBBBBBBBBBBBBBBBBBBBBBBBBBBBBBBBBBBBBBBLBBBBBBBBBBBBBBBBBBBBBBBBBBBBBBBBBBBBBBBBBBBBBBBBBBBBBBBBBBBBBBBBLBBBBBBBBBBBBBBBBBBBBBBBBBBBBBBBBBBBBBBBBBBBBBBBBBBBBBBBBBBBBBBBBLBBBBBBBBBBBBBBBBBBBBBBBBBBBBBBBBBBBBBBBBBBBBBBBBBBBBBBBBBBBBBBBBLBBBBBBBBBBBBBBBBBBBBBBBBBBBBBBBBBBBBBBBBBBBBBBBBBBBBBBBBBBBBBBBBLBBBBBBBBBBBBBBBBBBBBBBBBBBBBBBBBBBBBBBBBBBBBBBBBBBBBBBBBBBBBBBBBLBBBBBBBBBBBBBBBBBBBBBBBBBBBBBBBBBBBBBBBBBBBBBBBBBBBBBBBBBBBBBBBBLBBBBBBBBBBBBBBBBBBBBBBBBBBBBBBBBBBBBBBBBBBBBBBBBBBBBBBBBBBBBBBBBL",
"LBBBBBBBBBBBBBBBBBBBBBBBBBBBBBBBBBBBBBBBBBBBBBBBBBBBBBBBBBBBBBBBBLBBBBBBBBBBBBBBBBBBBBBBBBBBBBBBBBBBBBBBBBBBBBBBBBBBBBBBBBBBBBBBBBLBBBBBBBBBBBBBBBBBBBBBBBBBBBBBBBBBBBBBBBBBBBBBBBBBBBBBBBBBBBBBBBBLBBBBBBBBBBBBBBBBBBBBBBBBBBBBBBBBBBBBBBBBBBBBBBBBBBBBBBBBBBBBBBBBLBBBBBBBBBBBBBBBBBBBBBBBBBBBBBBBBBBBBBBBBBBBBBBBBBBBBBBBBBBBBBBBBLBBBBBBBBBBBBBBBBBBBBBBBBBBBBBBBBBBBBBBBBBBBBBBBBBBBBBBBBBBBBBBBBLBBBBBBBBBBBBBBBBBBBBBBBBBBBBBBBBBBBBBBBBBBBBBBBBBBBBBBBBBBBBBBBBLBBBBBBBBBBBBBBBBBBBBBBBBBBBBBBBBBBBBBBBBBBBBBBBBBBBBBBBBBBBBBBBBL",
"LBBBBBBBBBBBBBBBBBBBBBBBBBBBBBBBBBBBBBBBBBBBBBBBBBBBBBBBBBBBBBBBBLBBBBBBBBBBBBBBBBBBBBBBBBBBBBBBBBBBBBBBBBBBBBBBBBBBBBBBBBBBBBBBBBLBBBBBBBBBBBBBBBBBBBBBBBBBBBBBBBBBBBBBBBBBBBBBBBBBBBBBBBBBBBBBBBBLBBBBBBBBBBBBBBBBBBBBBBBBBBBBBBBBBBBBBBBBBBBBBBBBBBBBBBBBBBBBBBBBLBBBBBBBBBBBBBBBBBBBBBBBBBBBBBBBBBBBBBBBBBBBBBBBBBBBBBBBBBBBBBBBBLBBBBBBBBBBBBBBBBBBBBBBBBBBBBBBBBBBBBBBBBBBBBBBBBBBBBBBBBBBBBBBBBLBBBBBBBBBBBBBBBBBBBBBBBBBBBBBBBBBBBBBBBBBBBBBBBBBBBBBBBBBBBBBBBBLBBBBBBBBBBBBBBBBBBBBBBBBBBBBBBBBBBBBBBBBBBBBBBBBBBBBBBBBBBBBBBBBL",
"LBBBBBBBBBBBBBBBBBBBBBBBBBBBBBBBBBBBBBBBBBBBBBBBBBBBBBBBBBBBBBBBBLBBBBBBBBBBBBBBBBBBBBBBBBBBBBBBBBBBBBBBBBBBBBBBBBBBBBBBBBBBBBBBBBLBBBBBBBBBBBBBBBBBBBBBBBBBBBBBBBBBBBBBBBBBBBBBBBBBBBBBBBBBBBBBBBBLBBBBBBBBBBBBBBBBBBBBBBBBBBBBBBBBBBBBBBBBBBBBBBBBBBBBBBBBBBBBBBBBLBBBBBBBBBBBBBBBBBBBBBBBBBBBBBBBBBBBBBBBBBBBBBBBBBBBBBBBBBBBBBBBBLBBBBBBBBBBBBBBBBBBBBBBBBBBBBBBBBBBBBBBBBBBBBBBBBBBBBBBBBBBBBBBBBLBBBBBBBBBBBBBBBBBBBBBBBBBBBBBBBBBBBBBBBBBBBBBBBBBBBBBBBBBBBBBBBBLBBBBBBBBBBBBBBBBBBBBBBBBBBBBBBBBBBBBBBBBBBBBBBBBBBBBBBBBBBBBBBBBL",
"LBBBBBBBBBBBBBBBBBBBBBBBBBBBBBBBBBBBBBBBBBBBBBBBBBBBBBBBBBBBBBBBBLBBBBBBBBBBBBBBBBBBBBBBBBBBBBBBBBBBBBBBBBBBBBBBBBBBBBBBBBBBBBBBBBLBBBBBBBBBBBBBBBBBBBBBBBBBBBBBBBBBBBBBBBBBBBBBBBBBBBBBBBBBBBBBBBBLBBBBBBBBBBBBBBBBBBBBBBBBBBBBBBBBBBBBBBBBBBBBBBBBBBBBBBBBBBBBBBBBLBBBBBBBBBBBBBBBBBBBBBBBBBBBBBBBBBBBBBBBBBBBBBBBBBBBBBBBBBBBBBBBBLBBBBBBBBBBBBBBBBBBBBBBBBBBBBBBBBBBBBBBBBBBBBBBBBBBBBBBBBBBBBBBBBLBBBBBBBBBBBBBBBBBBBBBBBBBBBBBBBBBBBBBBBBBBBBBBBBBBBBBBBBBBBBBBBBLBBBBBBBBBBBBBBBBBBBBBBBBBBBBBBBBBBBBBBBBBBBBBBBBBBBBBBBBBBBBBBBBL",
"LBBBBBBBBBBBBBBBBBBBBBBBBBBBBBBBBBBBBBBBBBBBBBBBBBBBBBBBBBBBBBBBBLBBBBBBBBBBBBBBBBBBBBBBBBBBBBBBBBBBBBBBBBBBBBBBBBBBBBBBBBBBBBBBBBLBBBBBBBBBBBBBBBBBBBBBBBBBBBBBBBBBBBBBBBBBBBBBBBBBBBBBBBBBBBBBBBBLBBBBBBBBBBBBBBBBBBBBBBBBBBBBBBBBBBBBBBBBBBBBBBBBBBBBBBBBBBBBBBBBLBBBBBBBBBBBBBBBBBBBBBBBBBBBBBBBBBBBBBBBBBBBBBBBBBBBBBBBBBBBBBBBBLBBBBBBBBBBBBBBBBBBBBBBBBBBBBBBBBBBBBBBBBBBBBBBBBBBBBBBBBBBBBBBBBLBBBBBBBBBBBBBBBBBBBBBBBBBBBBBBBBBBBBBBBBBBBBBBBBBBBBBBBBBBBBBBBBLBBBBBBBBBBBBBBBBBBBBBBBBBBBBBBBBBBBBBBBBBBBBBBBBBBBBBBBBBBBBBBBBL",
"LBBBBBBBBBBBBBBBBBBBBBBBBBBBBBBBBBBBBBBBBBBBBBBBBBBBBBBBBBBBBBBBBLBBBBBBBBBBBBBBBBBBBBBBBBBBBBBBBBBBBBBBBBBBBBBBBBBBBBBBBBBBBBBBBBLBBBBBBBBBBBBBBBBBBBBBBBBBBBBBBBBBBBBBBBBBBBBBBBBBBBBBBBBBBBBBBBBLBBBBBBBBBBBBBBBBBBBBBBBBBBBBBBBBBBBBBBBBBBBBBBBBBBBBBBBBBBBBBBBBLBBBBBBBBBBBBBBBBBBBBBBBBBBBBBBBBBBBBBBBBBBBBBBBBBBBBBBBBBBBBBBBBLBBBBBBBBBBBBBBBBBBBBBBBBBBBBBBBBBBBBBBBBBBBBBBBBBBBBBBBBBBBBBBBBLBBBBBBBBBBBBBBBBBBBBBBBBBBBBBBBBBBBBBBBBBBBBBBBBBBBBBBBBBBBBBBBBLBBBBBBBBBBBBBBBBBBBBBBBBBBBBBBBBBBBBBBBBBBBBBBBBBBBBBBBBBBBBBBBBL",
"LBBBBBBBBBBBBBBBBBBBBBBBBBBBBBBBBBBBBBBBBBBBBBBBBBBBBBBBBBBBBBBBBLBBBBBBBBBBBBBBBBBBBBBBBBBBBBBBBBBBBBBBBBBBBBBBBBBBBBBBBBBBBBBBBBLBBBBBBBBBBBBBBBBBBBBBBBBBBBBBBBBBBBBBBBBBBBBBBBBBBBBBBBBBBBBBBBBLBBBBBBBBBBBBBBBBBBBBBBBBBBBBBBBBBBBBBBBBBBBBBBBBBBBBBBBBBBBBBBBBLBBBBBBBBBBBBBBBBBBBBBBBBBBBBBBBBBBBBBBBBBBBBBBBBBBBBBBBBBBBBBBBBLBBBBBBBBBBBBBBBBBBBBBBBBBBBBBBBBBBBBBBBBBBBBBBBBBBBBBBBBBBBBBBBBLBBBBBBBBBBBBBBBBBBBBBBBBBBBBBBBBBBBBBBBBBBBBBBBBBBBBBBBBBBBBBBBBLBBBBBBBBBBBBBBBBBBBBBBBBBBBBBBBBBBBBBBBBBBBBBBBBBBBBBBBBBBBBBBBBL",
"LBBBBBBBBBBBBBBBBBBBBBBBBBBBBBBBBBBBBBBBBBBBBBBBBBBBBBBBBBBBBBBBBLBBBBBBBBBBBBBBBBBBBBBBBBBBBBBBBBBBBBBBBBBBBBBBBBBBBBBBBBBBBBBBBBLBBBBBBBBBBBBBBBBBBBBBBBBBBBBBBBBBBBBBBBBBBBBBBBBBBBBBBBBBBBBBBBBLBBBBBBBBBBBBBBBBBBBBBBBBBBBBBBBBBBBBBBBBBBBBBBBBBBBBBBBBBBBBBBBBLBBBBBBBBBBBBBBBBBBBBBBBBBBBBBBBBBBBBBBBBBBBBBBBBBBBBBBBBBBBBBBBBLBBBBBBBBBBBBBBBBBBBBBBBBBBBBBBBBBBBBBBBBBBBBBBBBBBBBBBBBBBBBBBBBLBBBBBBBBBBBBBBBBBBBBBBBBBBBBBBBBBBBBBBBBBBBBBBBBBBBBBBBBBBBBBBBBLBBBBBBBBBBBBBBBBBBBBBBBBBBBBBBBBBBBBBBBBBBBBBBBBBBBBBBBBBBBBBBBBL",
"LBBBBBBBBBBBBBBBBBBBBBBBBBBBBBBBBBBBBBBBBBBBBBBBBBBBBBBBBBBBBBBBBLBBBBBBBBBBBBBBBBBBBBBBBBBBBBBBBBBBBBBBBBBBBBBBBBBBBBBBBBBBBBBBBBLBBBBBBBBBBBBBBBBBBBBBBBBBBBBBBBBBBBBBBBBBBBBBBBBBBBBBBBBBBBBBBBBLBBBBBBBBBBBBBBBBBBBBBBBBBBBBBBBBBBBBBBBBBBBBBBBBBBBBBBBBBBBBBBBBLBBBBBBBBBBBBBBBBBBBBBBBBBBBBBBBBBBBBBBBBBBBBBBBBBBBBBBBBBBBBBBBBLBBBBBBBBBBBBBBBBBBBBBBBBBBBBBBBBBBBBBBBBBBBBBBBBBBBBBBBBBBBBBBBBLBBBBBBBBBBBBBBBBBBBBBBBBBBBBBBBBBBBBBBBBBBBBBBBBBBBBBBBBBBBBBBBBLBBBBBBBBBBBBBBBBBBBBBBBBBBBBBBBBBBBBBBBBBBBBBBBBBBBBBBBBBBBBBBBBL",
"LBBBBBBBBBBBBBBBBBBBBBBBBBBBBBBBBBBBBBBBBBBBBBBBBBBBBBBBBBBBBBBBBLBBBBBBBBBBBBBBBBBBBBBBBBBBBBBBBBBBBBBBBBBBBBBBBBBBBBBBBBBBBBBBBBLBBBBBBBBBBBBBBBBBBBBBBBBBBBBBBBBBBBBBBBBBBBBBBBBBBBBBBBBBBBBBBBBLBBBBBBBBBBBBBBBBBBBBBBBBBBBBBBBBBBBBBBBBBBBBBBBBBBBBBBBBBBBBBBBBLBBBBBBBBBBBBBBBBBBBBBBBBBBBBBBBBBBBBBBBBBBBBBBBBBBBBBBBBBBBBBBBBLBBBBBBBBBBBBBBBBBBBBBBBBBBBBBBBBBBBBBBBBBBBBBBBBBBBBBBBBBBBBBBBBLBBBBBBBBBBBBBBBBBBBBBBBBBBBBBBBBBBBBBBBBBBBBBBBBBBBBBBBBBBBBBBBBLBBBBBBBBBBBBBBBBBBBBBBBBBBBBBBBBBBBBBBBBBBBBBBBBBBBBBBBBBBBBBBBBL",
"LBBBBBBBBBBBBBBBBBBBBBBBBBBBBBBBBBBBBBBBBBBBBBBBBBBBBBBBBBBBBBBBBLBBBBBBBBBBBBBBBBBBBBBBBBBBBBBBBBBBBBBBBBBBBBBBBBBBBBBBBBBBBBBBBBLBBBBBBBBBBBBBBBBBBBBBBBBBBBBBBBBBBBBBBBBBBBBBBBBBBBBBBBBBBBBBBBBLBBBBBBBBBBBBBBBBBBBBBBBBBBBBBBBBBBBBBBBBBBBBBBBBBBBBBBBBBBBBBBBBLBBBBBBBBBBBBBBBBBBBBBBBBBBBBBBBBBBBBBBBBBBBBBBBBBBBBBBBBBBBBBBBBLBBBBBBBBBBBBBBBBBBBBBBBBBBBBBBBBBBBBBBBBBBBBBBBBBBBBBBBBBBBBBBBBLBBBBBBBBBBBBBBBBBBBBBBBBBBBBBBBBBBBBBBBBBBBBBBBBBBBBBBBBBBBBBBBBLBBBBBBBBBBBBBBBBBBBBBBBBBBBBBBBBBBBBBBBBBBBBBBBBBBBBBBBBBBBBBBBBL",
"LBBBBBBBBBBBBBBBBBBBBBBBBBBBBBBBBBBBBBBBBBBBBBBBBBBBBBBBBBBBBBBBBLBBBBBBBBBBBBBBBBBBBBBBBBBBBBBBBBBBBBBBBBBBBBBBBBBBBBBBBBBBBBBBBBLBBBBBBBBBBBBBBBBBBBBBBBBBBBBBBBBBBBBBBBBBBBBBBBBBBBBBBBBBBBBBBBBLBBBBBBBBBBBBBBBBBBBBBBBBBBBBBBBBBBBBBBBBBBBBBBBBBBBBBBBBBBBBBBBBLBBBBBBBBBBBBBBBBBBBBBBBBBBBBBBBBBBBBBBBBBBBBBBBBBBBBBBBBBBBBBBBBLBBBBBBBBBBBBBBBBBBBBBBBBBBBBBBBBBBBBBBBBBBBBBBBBBBBBBBBBBBBBBBBBLBBBBBBBBBBBBBBBBBBBBBBBBBBBBBBBBBBBBBBBBBBBBBBBBBBBBBBBBBBBBBBBBLBBBBBBBBBBBBBBBBBBBBBBBBBBBBBBBBBBBBBBBBBBBBBBBBBBBBBBBBBBBBBBBBL",
"LBBBBBBBBBBBBBBBBBBBBBBBBBBBBBBBBBBBBBBBBBBBBBBBBBBBBBBBBBBBBBBBBLBBBBBBBBBBBBBBBBBBBBBBBBBBBBBBBBBBBBBBBBBBBBBBBBBBBBBBBBBBBBBBBBLBBBBBBBBBBBBBBBBBBBBBBBBBBBBBBBBBBBBBBBBBBBBBBBBBBBBBBBBBBBBBBBBLBBBBBBBBBBBBBBBBBBBBBBBBBBBBBBBBBBBBBBBBBBBBBBBBBBBBBBBBBBBBBBBBLBBBBBBBBBBBBBBBBBBBBBBBBBBBBBBBBBBBBBBBBBBBBBBBBBBBBBBBBBBBBBBBBLBBBBBBBBBBBBBBBBBBBBBBBBBBBBBBBBBBBBBBBBBBBBBBBBBBBBBBBBBBBBBBBBLBBBBBBBBBBBBBBBBBBBBBBBBBBBBBBBBBBBBBBBBBBBBBBBBBBBBBBBBBBBBBBBBLBBBBBBBBBBBBBBBBBBBBBBBBBBBBBBBBBBBBBBBBBBBBBBBBBBBBBBBBBBBBBBBBL",
"LBBBBBBBBBBBBBBBBBBBBBBBBBBBBBBBBBBBBBBBBBBBBBBBBBBBBBBBBBBBBBBBBLBBBBBBBBBBBBBBBBBBBBBBBBBBBBBBBBBBBBBBBBBBBBBBBBBBBBBBBBBBBBBBBBLBBBBBBBBBBBBBBBBBBBBBBBBBBBBBBBBBBBBBBBBBBBBBBBBBBBBBBBBBBBBBBBBLBBBBBBBBBBBBBBBBBBBBBBBBBBBBBBBBBBBBBBBBBBBBBBBBBBBBBBBBBBBBBBBBLBBBBBBBBBBBBBBBBBBBBBBBBBBBBBBBBBBBBBBBBBBBBBBBBBBBBBBBBBBBBBBBBLBBBBBBBBBBBBBBBBBBBBBBBBBBBBBBBBBBBBBBBBBBBBBBBBBBBBBBBBBBBBBBBBLBBBBBBBBBBBBBBBBBBBBBBBBBBBBBBBBBBBBBBBBBBBBBBBBBBBBBBBBBBBBBBBBLBBBBBBBBBBBBBBBBBBBBBBBBBBBBBBBBBBBBBBBBBBBBBBBBBBBBBBBBBBBBBBBBL",
"LBBBBBBBBBBBBBBBBBBBBBBBBBBBBBBBBBBBBBBBBBBBBBBBBBBBBBBBBBBBBBBBBLBBBBBBBBBBBBBBBBBBBBBBBBBBBBBBBBBBBBBBBBBBBBBBBBBBBBBBBBBBBBBBBBLBBBBBBBBBBBBBBBBBBBBBBBBBBBBBBBBBBBBBBBBBBBBBBBBBBBBBBBBBBBBBBBBLBBBBBBBBBBBBBBBBBBBBBBBBBBBBBBBBBBBBBBBBBBBBBBBBBBBBBBBBBBBBBBBBLBBBBBBBBBBBBBBBBBBBBBBBBBBBBBBBBBBBBBBBBBBBBBBBBBBBBBBBBBBBBBBBBLBBBBBBBBBBBBBBBBBBBBBBBBBBBBBBBBBBBBBBBBBBBBBBBBBBBBBBBBBBBBBBBBLBBBBBBBBBBBBBBBBBBBBBBBBBBBBBBBBBBBBBBBBBBBBBBBBBBBBBBBBBBBBBBBBLBBBBBBBBBBBBBBBBBBBBBBBBBBBBBBBBBBBBBBBBBBBBBBBBBBBBBBBBBBBBBBBBL",
"LBBBBBBBBBBBBBBBBBBBBBBBBBBBBBBBBBBBBBBBBBBBBBBBBBBBBBBBBBBBBBBBBLBBBBBBBBBBBBBBBBBBBBBBBBBBBBBBBBBBBBBBBBBBBBBBBBBBBBBBBBBBBBBBBBLBBBBBBBBBBBBBBBBBBBBBBBBBBBBBBBBBBBBBBBBBBBBBBBBBBBBBBBBBBBBBBBBLBBBBBBBBBBBBBBBBBBBBBBBBBBBBBBBBBBBBBBBBBBBBBBBBBBBBBBBBBBBBBBBBLBBBBBBBBBBBBBBBBBBBBBBBBBBBBBBBBBBBBBBBBBBBBBBBBBBBBBBBBBBBBBBBBLBBBBBBBBBBBBBBBBBBBBBBBBBBBBBBBiiiiiiiiiBBBBBBBBBBBBBBBBBBBBBBBBLBBBBBBBBBBBBBBBBBBBBBBBBBBBBBBBBBBBBBBBBBBBBBBBBBBBBBBBBBBBBBBBBLBBBBBBBBBBBBBBBBBBBBBBBBBBBBBBBBBBBBBBBBBBBBBBBBBBBBBBBBBBBBBBBBL",
"LBBBBBBBBBBBBBBBBBBBBBBBBBBBBBBBBBBBBBBBBBBBBBBBBBBBBBBBBBBBBBBBBLBBBBBBBBBBBBBBBBBBBBBBBBiiiiiiiiiBBBBBBBBBBBBBBBBBBBBBBBBBBBBBBBLBBBBBBBBBBBBBBBBBBBBBBBBBBBBiiiiiiiiiBBBBBBBBBBBBBBBBBBBBBBBBBBBLBBBBBBBBBBBBBBBBBBBBBBBBBBiiiiiiaaaBBBBBBBBBBBBBBBBBBBBBBBBBBBBBLBBBBBBBBBBBBBBBBBBBBBBBBBBBBBllliiaaaBBBBBBBBBBBBBBBBBBBBBBBBBBBLBBBBBBBBBBBBBBBBBBBBBBBBBBBBBBBiiiiiiiotBBBBBBBBBBBBBBBBBBBBBBBBLBBBBBBBBBBBBBBBBBBBBBBBBBBiiiiiiiiiBBBBBBBBBBBBBBBBBBBBBBBBBBBBBLBBBBBBBBBBBBBBBBBBBBBBBBBBBBBBBBiiiiiiiiiBBBBBBBBBBBBBBBBBBBBBBBL",
"LBBBBBBBBBBBBBBBBBBBBBBBBBBBBaaaaaaaaBBBBBBBBBBBBBBBBBBBBBBBBBBBBLBBBBBBBBBBBBBBBBBBBBBBBBwwwwoiiiiBBBBBBBBBBBBBBBBBBBBBBBBBBBBBBBLBBBBBBBBBBBBBBBBBBBBBBBBBBBBwwtoiiiiiBBBBBBBBBBBBBBBBBBBBBBBBBBBLBBBBBBBBBBBBBBBBBBBBBBBBBBtoiiiiaaaBBBBBBBBBBBBBBBBBBBBBBBBBBBBBLBBBBBBBBBBBBBBBBBBBBBBBBBBBBBlliaaaaaBBBBBBBBBBBBBBBBBBBBBBBBBBBLBBBBBBBBBBBBBBBBBBBBBBBBBBBBBBBiiiiiotDDBBBBBBBBBBBBBBBBBBBBBBBBLBBBBBBBBBBBBBBBBBBBBBBBBBBiiiiiotwwBBBBBBBBBBBBBBBBBBBBBBBBBBBBBLBBBBBBBBBBBBBBBBBBBBBBBBBBBBBBBBiiiiowwwwBBBBBBBBBBBBBBBBBBBBBBBL",
"LBBBBBBBBBBBBBBBBBBBBBBBBBBBBlttttttaBBBBBBBBBBBBBBBBBBBBBBBBBBBBLBBBBBBBBBBBBBBBBBBBBBBBBHQQHDoiiiBBBBBBBBBBBBBBBBBBBBBBBBBBBBBBBLBBBBBBBBBBBBBBBBBBBBBBBBBBBBHQQHtoiiiBBBBBBBBBBBBBBBBBBBBBBBBBBBLBBBBBBBBBBBBBBBBBBBBBBBBBBQHtoiiaaaBBBBBBBBBBBBBBBBBBBBBBBBBBBBBLBBBBBBBBBBBBBBBBBBBBBBBBBBBBBiliaaaaiBBBBBBBBBBBBBBBBBBBBBBBBBBBLBBBBBBBBBBBBBBBBBBBBBBBBBBBBBBBiiiioDwDHBBBBBBBBBBBBBBBBBBBBBBBBLBBBBBBBBBBBBBBBBBBBBBBBBBBiiiotHHHHBBBBBBBBBBBBBBBBBBBBBBBBBBBBBLBBBBBBBBBBBBBBBBBBBBBBBBBBBBBBBBiiioDHKKHBBBBBBBBBBBBBBBBBBBBBBBL",
"LBBBBBBBBBBBBBBBBBBBBBBBBBBBBiDZZQQDiBBBBBBBBBBBBBBBBBBBBBBBBBBBBLBBBBBBBBBBBBBBBBBBBBBBBB4Q4QHwHiiBBBBBBBBBBBBBBBBBBBBBBBBBBBBBBBLBBBBBBBBBBBBBBBBBBBBBBBBBBBB44ZQwHHiiBBBBBBBBBBBBBBBBBBBBBBBBBBBLBBBBBBBBBBBBBBBBBBBBBBBBBBZQwHoiaaaBBBBBBBBBBBBBBBBBBBBBBBBBBBBBLBBBBBBBBBBBBBBBBBBBBBBBBBBBBBtliaaaatBBBBBBBBBBBBBBBBBBBBBBBBBBBLBBBBBBBBBBBBBBBBBBBBBBBBBBBBBBBiiiioDDHwBBBBBBBBBBBBBBBBBBBBBBBBLBBBBBBBBBBBBBBBBBBBBBBBBBBii1HwQHQQBBBBBBBBBBBBBBBBBBBBBBBBBBBBBLBBBBBBBBBBBBBBBBBBBBBBBBBBBBBBBBiiHwHQVKVBBBBBBBBBBBBBBBBBBBBBBBL",
"LBBBBBBBBBBBBBBBBBBBBBBBBBBBBt14PZ41tBBBBBBBBBBBBBBBBBBBBBBBBBBBBLBBBBBBBBBBBBBBBBBBBBBBBBGQ0GHHHoiBBBBBBBBBBBBBBBBBBBBBBBBBBBBBBBLBBBBBBBBBBBBBBBBBBBBBBBBBBBBQ0QHHHHiiBBBBBBBBBBBBBBBBBBBBBBBBBBBLBBBBBBBBBBBBBBBBBBBBBBBBBBQHHHoiaaaBBBBBBBBBBBBBBBBBBBBBBBBBBBBBLBBBBBBBBBBBBBBBBBBBBBBBBBBBBBKliaaaaDBBBBBBBBBBBBBBBBBBBBBBBBBBBLBBBBBBBBBBBBBBBBBBBBBBBBBBBBBBBiiitwtDHHBBBBBBBBBBBBBBBBBBBBBBBBLBBBBBBBBBBBBBBBBBBBBBBBBBBii1HHHD0DBBBBBBBBBBBBBBBBBBBBBBBBBBBBBLBBBBBBBBBBBBBBBBBBBBBBBBBBBBBBBBioKHHG0KGBBBBBBBBBBBBBBBBBBBBBBBL",
"LBBBBBBBBBBBBBBBBBBBBBBBBBBBBKV5PDWVKBBBBBBBBBBBBBBBBBBBBBBBBBBBBLBBBBBBBBBBBBBBBBBBBBBBBBP44ZQtwoiBBBBBBBBBBBBBBBBBBBBBBBBBBBBBBBLBBBBBBBBBBBBBBBBBBBBBBBBBBBQ441QQtwoiBBBBBBBBBBBBBBBBBBBBBBBBBBBLBBBBBBBBBBBBBBBBBBBBBBBBBB1QQtwtiaaBBBBBBBBBBBBBBBBBBBBBBBBBBBBBLBBBBBBBBBBBBBBBBBBBBBBBBBBBBBKliaaatDBBBBBBBBBBBBBBBBBBBBBBBBBBBLBBBBBBBBBBBBBBBBBBBBBBBBBBBBBBBBQPKDwKDDBBBBBBBBBBBBBBBBBBBBBBBBLBBBBBBBBBBBBBBBBBBBBBBBBBBioPPVQQQHHBBBBBBBBBBBBBBBBBBBBBBBBBBBBLBBBBBBBBBBBBBBBBBBBBBBBBBBBBBBBBiowtQKKZHBBBBBBBBBBBBBBBBBBBBBBBL",
"LBBBBBBBBBBBBBBBBBBBBBBBBBBBBK14ZP41KBBBBBBBBBBBBBBBBBBBBBBBBBBBBLBBBBBBBBBBBBBBBBBBBBBBBBHZZQQwtoBBBBBBBBBBBBBBBBBBBBBBBBBBBBBBBBLBBBBBBBBBBBBBBBBBBBBBBBBBBBBPVQ1QwtoBBBBBBBBBBBBBBBBBBBBBBBBBBBBLBBBBBBBBBBBBBBBBBBBBBBBBBBQ1QwttooBBBBBBBBBBBBBBBBBBBBBBBBBBBBBBLBBBBBBBBBBBBBBBBBBBBBBBBBBBBBBQtaatDBBBBBBBBBBBBBBBBBBBBBBBBBBBBLBBBBBBBBBBBBBBBBBBBBBBBBBBBBBBBBQPKDDKDtBBBBBBBBBBBBBBBBBBBBBBBBLBBBBBBBBBBBBBBBBBBBBBBBBBBB1VPV1QPKBBBBBBBBBBBBBBBBBBBBBBBBBBBBBLBBBBBBBBBBBBBBBBBBBBBBBBBBBBBBBBBZQZQKKKwBBBBBBBBBBBBBBBBBBBBBBBL",
"LBBBBBBBBBBBBBBBBBBBBBBBBBBBBBQZVVZQBBBBBBBBBBBBBBBBBBBBBBBBBBBBBLBBBBBBBBBBBBBBBBBBBBBBBBt**ZQDwoBBBBBBBBBBBBBBBBBBBBBBBBBBBBBBBBLBBBBBBBBBBBBBBBBBBBBBBBBBBBBwVKZQDwoBBBBBBBBBBBBBBBBBBBBBBBBBBBBLBBBBBBBBBBBBBBBBBBBBBBBBBBKZQDwtooBBBBBBBBBBBBBBBBBBBBBBBBBBBBBBLBBBBBBBBBBBBBBBBBBBBBBBBBBBBBBQVHKHDBBBBBBBBBBBBBBBBBBBBBBBBBBBBLBBBBBBBBBBBBBBBBBBBBBBBBBBBBBBBBQPKDDHHDBBBBBBBBBBBBBBBBBBBBBBBBLBBBBBBBBBBBBBBBBBBBBBBBBBBB1VPVZKPwBBBBBBBBBBBBBBBBBBBBBBBBBBBBBLBBBBBBBBBBBBBBBBBBBBBBBBBBBBBBBBBZQZQK11tBBBBBBBBBBBBBBBBBBBBBBBL",
"LBBBBBBBBBBBBBBBBBBBBBBBBBBBBBQ3*63KBBBBBBBBBBBBBBBBBBBBBBBBBBBBBLBBBBBBBBBBBBBBBBBBBBBBBBHZZQDHtokkBBBBBBBBBBBBBBBBBBBBBBBBBBBBBBLBBBBBBBBBBBBBBBBBBBBBBBBBBBBKPZQDDwoBBBBBBBBBBBBBBBBBBBBBBBBBBBBLBBBBBBBBBBBBBBBBBBBBBBBBBBZQDDwmmmBBBBBBBBBBBBBBBBBBBBBBBBBBBBBBLBBBBBBBBBBBBBBBBBBBBBBBBBBBBBddddddccBBBBBBBBBBBBBBBBBBBBBBBBBBBLBBBBBBBBBBBBBBBBBBBBBBBBBBBBBBcdddddccwBBBBBBBBBBBBBBBBBBBBBBBBBLBBBBBBBBBBBBBBBBBBBBBBBBBBB1VPDQZPKBBBBBBBBBBBBBBBBBBBBBBBBBBBBBLBBBBBBBBBBBBBBBBBBBBBBBBBBBBBBBBBQQKZQKDDBBBBBBBBBBBBBBBBBBBBBBBL",
"LBBBBBBBBBBBBBBBBBBBBBBBBBBBddQZ11ZwclBBBBBBBBBBBBBBBBBBBBBBBBBBBLBBBBBBBBBBBBBBBBBBBBBBBBBBtwHHtokkklBBBBBBBBBBBBBBBBBBBBBBBBBBBBLBBBBBBBBBBBBBBBBBBBBBBBBBBBBBBDHHDtokBBBBBBBBBBBBBBBBBBBBBBBBBBBLBBBBBBBBBBBBBBBBBBBBBBBBBBBBccnnllmBBBBBBBBBBBBBBBBBBBBBBBBBBBBBLBBBBBBBBBBBBBBBBBBBBBBBBBBBBddddccccccBBBBBBBBBBBBBBBBBBBBBBBBBBLBBBBBBBBBBBBBBBBBBBBBBBBBBBBBcdddccclllBBBBBBBBBBBBBBBBBBBBBBBBBLBBBBBBBBBBBBBBBBBBBBBBBBBBcctPHHDaBBBBBBBBBBBBBBBBBBBBBBBBBBBBBBLBBBBBBBBBBBBBBBBBBBBBBBBBBBBBBBBdoQKHwtiBBBBBBBBBBBBBBBBBBBBBBBBL",
"LBBBBBBBBBBBBBBBBBBBBBBBBBddcdZwHHHwllllBBBBBBBBBBBBBBBBBBBBBBBBBLBBBBBBBBBBBBBBBBBBBBBBBBBdZPHwtokakklBBBBBBBBBBBBBBBBBBBBBBBBBBBLBBBBBBBBBBBBBBBBBBBBBBBBBBBBBdVKdddcmBBBBBBBBBBBBBBBBBBBBBBBBBBBLBBBBBBBBBBBBBBBBBBBBBBBBBBBdddccmmmmBBBBBBBBBBBBBBBBBBBBBBBBBBBBLBBBBBBBBBBBBBBBBBBBBBBBBBBBdddddddddddcBBBBBBBBBBBBBBBBBBBBBBBBBLBBBBBBBBBBBBBBBBBBBBBBBBBBBBcdddddddcckkBBBBBBBBBBBBBBBBBBBBBBBBLBBBBBBBBBBBBBBBBBBBBBBBBBBcccccwwlBBBBBBBBBBBBBBBBBBBBBBBBBBBBBBLBBBBBBBBBBBBBBBBBBBBBBBBBBBBBBdddotKHwwmcBBBBBBBBBBBBBBBBBBBBBBBL",
"LBBBBBBBBBBBBBBBBBBBBBBBddddccdZPZPomlllllBBBBBBBBBBBBBBBBBBBBBBBLBBBBBBBBBBBBBBBBBBBBBBBBddZHDtodcccnllBBBBBBBBBBBBBBBBBBBBBBBBBBLBBBBBBBBBBBBBBBBBBBBBBBBBBBBBlKDdcccmmBBBBBBBBBBBBBBBBBBBBBBBBBBLBBBBBBBBBBBBBBBBBBBBBBBBBdddddccnikkmBBBBBBBBBBBBBBBBBBBBBBBBBBBLBBBBBBBBBBBBBBBBBBBBBBBBBdddddddcdddddcclBBBBBBBBBBBBBBBBBBBBBBBLBBBBBBBBBBBBBBBBBBBBBBBBBBBcddddddddddckkBBBBBBBBBBBBBBBBBBBBBBBLBBBBBBBBBBBBBBBBBBBBBBBBBccdddccliiBBBBBBBBBBBBBBBBBBBBBBBBBBBBBLBBBBBBBBBBBBBBBBBBBBBBBBBBBBdddddcotDwoikkBBBBBBBBBBBBBBBBBBBBBBL",
"LBBBBBBBBBBBBBBBBBBBBBdddddcccctfcfllnlllllBBBBBBBBBBBBBBBBBBBBBBLBBBBBBBBBBBBBBBBBBBBBBBBccdcdddddddcnnlBBBBBBBBBBBBBBBBBBBBBBBBBLBBBBBBBBBBBBBBBBBBBBBBBBBBBBBlddcccccmBBBBBBBBBBBBBBBBBBBBBBBBBBLBBBBBBBBBBBBBBBBBBBBBBBBddddccnkkiiikmBBBBBBBBBBBBBBBBBBBBBBBBBBLBBBBBBBBBBBBBBBBBBBBBBBBddddddddcdddddccclBBBBBBBBBBBBBBBBBBBBBBLBBBBBBBBBBBBBBBBBBBBBBBBBBccddcddddddddckkBBBBBBBBBBBBBBBBBBBBBBLBBBBBBBBBBBBBBBBBBBBBBBBBcddccclkiiBBBBBBBBBBBBBBBBBBBBBBBBBBBBBLBBBBBBBBBBBBBBBBBBBBBBBBBBBddddcclllkiiiikBBBBBBBBBBBBBBBBBBBBBBL",
"LBBBBBBBBBBBBBBBBBBBBdddcccccccntQtnnnnklliiBBBBBBBBBBBBBBBBBBBBBLBBBBBBBBBBBBBBBBBBQBBBBBccdcdddddcdddcnlBBBBBBBBBBBBBBBBBBBBBBBBLBBBBBBBBBBBBBBBBBBBBBBBBBBBBdddcdcdddcBBBBBBBBBBBBBBBBBBBBBBBBBBLBBBBBBBBBBBBBBBBBBBBBQBddddccnmkkiiiikBBBBBBBBBBBBBBBBBBBBBBBBBBLBBBBBBBBBBBBBBBBBBBBBBBBddddddddcdddddccclBBBBBBBBBBBBBBBBBBBBBBLBBBBBBBBBBBBBBBBBBBBBBBBBcccdcddddddcdddckBBBBBBBBBBBBBBBBBBBBBBLBBBBBBBBBBBBBBBBBBBBBBBBBcddddclkkiiBBBBBBBBBBBBBBBBBBBBBBBBBBBBLBBBBBBBBBBBBBBBBBBBBBBBBBBddddccllllkiiiikkBBBBBBBBBBBBBBBBBBBBBL",
"LBBBBBBBBBBBBBBBBBBBddckccnnccccHiHnGnGiiiiklBBBBBBBBBBBBBBBBBBBBLBBBBBBBBBBBBBBBBBBlHHHHDttDcdGGcddddddnllBBBBBBBBBBBBBBBBBBBBBBBLBBBBBBBBBBBBBBBBBQBBBBBBBBBBddddddddddcBBBBBBBBBBBBBBBBBBBBBBBBBLBBBBBBBBBBBBBBBBBBBBHHHddccnmkmkiiiiikBBBBBBBBBBBBBBBBBBBBBBBBBBLBBBBBBBBBBBBBBBBBBBBBBBdddddddddcdddddcncllBBBBBBBBBBBBBBBBBBBBBLBBBBBBBBBBBBBBBBBBBBBBBBBccddcddddddcddddltBBBBBBBBBBBBBBBBBBBBBLBBBBBBBBBBBBBBBBBBBBBBBBBcdcddclkkiiBBBBBBBBBBDBBBBBBBBBBBBBBBBBLBBBBBBBBBBBBBBBBBBBBBBBBBBddddcllllkkkkiiklBQBBBBBBBBBBBBBBBBBBBL",
"LBBBBBBBBBBBBBBBBBBBddliiliinccctookknliiiiikBBBBBBBBBBBBBBBBBBBBLBBBBBBBBBBBBBBBBBBDtoooooiicddddddcdddcnlBBBBBBBBBBBBBBBBBBBBBBBLBBBBBBBBBBBBBBBBBHHHHDDDDDtDcNcdcddddcmBBBBBBBBBBBBBBBBBBBBBBBBBLBBBBBBBBBBBBBBBBBBBBDtoddcnkmmlkiiiiikmBBBBBBBBBBBBBBBBBBBBBBBBBLBBBBBBBBBBBBBBBBBBBBBBBdddcdddddcdddddclcllBBBBBBBBBBBBBBBBBBBBBLBBBBBBBBBBBBBBBBBBBBBBBBcccddcddddddccdddcoBBBBBBBBBBBBBBBBBBBBBLBBBBBBBBBBBBBBBBBBBBBBBBBcdcddclkkixtltttttttttBBBBBBBBBBBBBBBBBLBBBBBBBBBBBBBBBBBBBBBBBBBddddccliklkktltttwDlBBBBBBBBBBBBBBBBBBBL",
"LBBBBBBBBBBBBBBBBBBBddcliBBiknnHVaHikkkiiiiiiBBBBBBBBBBBBBBBBBBBBLBBBBBBBBBBBBBBBBBBBBBiHiaHwHwdddddllddccnlBBBBBBBBBBBBBBBBBBBBBBLBBBBBBBBBBBBBBBBBDtooooooollmmcccdcddcmBBBBBBBBBBBBBBBBBBBBBBBBBLBBBBBBBBBBBBBBBBBBBBBBBddcmkmmlkiiiiikmBBBBBBBBBBBBBBBBBBBBBBBBBLBBBBBBBBBBBBBBBBBBBBBBddddcdddddcddddcclnnlBBBBBBBBBBBBBBBBBBBBBLBBBBBBBBBBBBBBBBBBBBBBBBcclddcddddddcldcclkBBBBBBBBBBBBBBBBBBBBBLBBBBBBBBBBBBBBBBBBBBBBBBBcdcddckkkiilllllllllooBBBBBBBBBBBBBBBBBLBBBBBBBBBBBBBBBBBBBBBBBBBddcllciikkkkiiooooooBBBBBBBBBBBBBBBBBBBL",
"LBBBBBBBBBBBBBBBBBBBdccllD*ViknHPaliiiiilc*llBBBBBBBBBBBBBBBBBBBBLBBBBBBBBBBBBBBBBBBBBBBiDolttollncclkkkccnlBBBBBBBBBBBBBBBBBBBBBBLBBBBBBBBBBBBBBBBBBBBBiHiiHwoHlmmcdcddcmBBBBBBBBBBBBBBBBBBBBBBBBBLBBBBBBBBBBBBBBBBBBBBBBBddckkmmlkiiiiikmBBBBBBBBBBBBBBBBBBBBBBBBBLBBBBBBBBBBBBBBBBBBBBBBddddcdddddccddcccllnllBBBBBBBBBBBBBBBBBBBBLBBBBBBBBBBBBBBBBBBBBBBBBcclcddcddddccllllllkBBBBBBBBBBBBBBBBBBBBLBBBBBBBBBBBBBBBBBBBBBBBBBBdddddkkiiHowHiiHiBBBBBBBBBBBBBBBBBBBBBLBBBBBBBBBBBBBBBBBBBBBBBBdddddclkkkkotwHaiHiBBBBBBBBBBBBBBBBBBBBBL",
"LBBBBBBBBBBBBBBBBBBBcHQ1**VVlknDPwiiiiiicd*clBBBBBBBBBBBBBBBBBBBBLBBBBBBBBBBBBBBBBBBBBBdmQHalliikklllkkdddnlBBBBBBBBBBBBBBBBBBBBBBLBBBBBBBBBBBBBBBBBBBBBBiHtiatwtlmmccddcmBBBBBBBBBBBBBBBBBBBBBBBBBLBBBBBBBBBBBBBBBBBBBBBBccdcmmmmlkiiiiikmBBBBBBBBBBBBBBBBBBBBBBBBBLBBBBBBBBBBBBBBBBBBBBBBddddncddddccccccnlknllBBBBBBBBBBBBBBBBBBBBLBBBBBBBBBBBBBBBBBBBBBBBBclllddcdddcdclilllkkBBBBBBBBBBBBBBBBBBBBLBBBBBBBBBBBBBBBBBBBBBBBBBBddcclliitwtaitHiBBBBBBBBBBBBBBBBBBBBBBLBBBBBBBBBBBBBBBBBBBBBBBBdddddclkkkkottloDikBBBBBBBBBBBBBBBBBBBBBL",
"LBBBBBBBBBBBBBBBBBBBcQQ**VVclkntttiiiiiic1*HlBBBBBBBBBBBBBBBBBBBBLBBBBBBBBBBBBBBBBBBBBBQQQHaiiiikklkkkcddnnlBBBBBBBBBBBBBBBBBBBBBBLBBBBBBBBBBBBBBBBBBBBBBBPtialtolmmdccdcmBBBBBBBBBBBBBBBBBBBBBBBBBLBBBBBBBBBBBBBBBBBBBBBBddcnmcmlliiiiikkmBBBBBBBBBBBBBBBBBBBBBBBBBLBBBBBBBBBBBBBBBBBBBBBBcccnlcddddccccccllklkkBBBBBBBBBBBBBBBBBBBBLBBBBBBBBBBBBBBBBBBBBBBBBBllldddcddddclikllkkBBBBBBBBBBBBBBBBBBBBLBBBBBBBBBBBBBBBBBBBBBBBBBBddcccliiotlaitPBBBBBBBBBBBBBBBBBBBBBBBLBBBBBBBBBBBBBBBBBBBBBBBBcdddddcmmkkillaQDmkBBBBBBBBBBBBBBBBBBBBBL",
"LBBBBBBBBBBBBBBBBBBBBQHwwBBllllnllkkkiiic1*wwBBBBBBBBBBBBBBBBBBBBLBBBBBBBBBBBBBBBBBBBB11wcaaacclcnlllkdddnnBBBBBBBBBBBBBBBBBBBBBBBLBBBBBBBBBBBBBBBBBBBBBBBDoiailllmmddddcmBBBBBBBBBBBBBBBBBBBBBBBBBLBBBBBBBBBBBBBBBBBBBBBBddcnmcmllkiiiiimBBBBBBBBBBBBBBBBBBBBBBBBBBLBBBBBBBBBBBBBBBBBBBBBBcccnlcddddcccccnlikkkkBBBBBBBBBBBBBBBBBBBBLBBBBBBBBBBBBBBBBBBBBBBBBBllldddcddddclikkkkkoBBBBBBBBBBBBBBBBBBBLBBBBBBBBBBBBBBBBBBBBBBBBBBddccclliiliaioDBBBBBBBBBBBBBBBBBBBBBBBLBBBBBBBBBBBBBBBBBBBBBBBBBccddcckkkkiiiaQDmkBBBBBBBBBBBBBBBBBBBBBL",
"LBBBBBBBBBBBBBBBBBBBBBHwBBBllnnnnnllkkiicwHwwBBBBBBBBBBBBBBBBBBBBLBBBBBBBBBBBBBBBBBBB111wddcoddcccnnnHHwnncBBBBBBBBBBBBBBBBBBBBBBBLBBBBBBBBBBBBBBBBBBBBBB6DaaaeecmmdddcciBBBBBBBBBBBBBBBBBBBBBBBBBBLBBBBBBBBBBBBBBBBBBBBBddcnmcmmllkiiiiimBBBBBBBBBBBBBBBBBBBBBBBBBBLBBBBBBBBBBBBBBBBBBBBBBcccnlcddddcccnnnnlikkBBBBBBBBBBBBBBBBBBBBBLBBBBBBBBBBBBBBBBBBBBBBBBBBccddcdddddcliikkkooBBBBBBBBBBBBBBBBBBBLBBBBBBBBBBBBBBBBBBBBBBBBBBcccccclkillaaaBBBBBBBBBBBBBBBBBBBBBBBBLBBBBBBBBBBBBBBBBBBBBBBBBBBcccccwmlkiiaaammDPBBBBBBBBBBBBBBBBBBBBL",
"LBBBBBBBBBBBBBBBBBBBBBBBBBBlllcccllnllkiBcHwBBBBBBBBBBBBBBBBBBBBBLBBBBBBBBBBBBBBBBBBB111wdBBcdcdd1KKK1KwtnBBBBBBBBBBBBBBBBBBBBBBBBLBBBBBBBBBBBBBBBBBBBBBBBHHHHBBddcddcciiiBBBBBBBBBBBBBBBBBBBBBBBBBLBBBBBBBBBBBBBBBBBBBBBdccmmcmmllkiiiiiBBBBBBBBBBBBBBBBBBBBBBBBBBBLBBBBBBBBBBBBBBBBBBBBBBBcccncddddcccccnnlikkBBBBBBBBBBBBBBBBBBBBBLBBBBBBBBBBBBBBBBBBBBBBBBBBccddcddddclkiiBBtoowBBBBBBBBBBBBBBBBBBLBBBBBBBBBBBBBBBBBBBBBBBBBdcccccclliBHHHHBQQBBBBBBBBBBBBBBBBBBBBBLBBBBBBBBBBBBBBBBBBBBBBBBBBBcccQQPPPPPHiiBBDPBBBBBBBBBBBBBBBBBBBBL",
"LBBBBBBBBBBBBBBBBBBBBBBBBBBllldddllnnnliBBBBBBBBBBBBBBBBBBBBBBBBBLBBBBBBBBBBBBBBBBBBB11BBBBBdddcd1KKKwwttcBBBBBBBBBBBBBBBBBBBBBBBBLBBBBBBBBBBBBBBBBBBBBBBBHHHHBBddcdcciikiBBBBBBBBBBBBBBBBBBBBBBBBBLBBBBBBBBBBBBBBBBBBBBBPwtBBccmlkkiihiiBBBBBBBBBBBBBBBBBBBBBBBBBBBLBBBBBBBBBBBBBBBBBBBBBBBBccndddddcdddccnlrFtBBBBBBBBBBBBBBBBBBBBBLBBBBBBBBBBBBBBBBBBBBBBBBBBBBddcddddclkkiBBtoowBBBBBBBBBBBBBBBBBBLBBBBBBBBBBBBBBBBBBBBBBBBBdcclclllwwwBBQQQQHBBBBBBBBBBBBBBBBBBBBBLBBBBBBBBBBBBBBBBBBBBBBBBBBBddwQKKlPPPHiiBBDPBBBBBBBBBBBBBBBBBBBBL",
"LBBBBBBBBBBBBBBBBBBBBBBBBBcnndccdllnnnliBBBBBBBBBBBBBBBBBBBBBBBBBLBBBBBBBBBBBBBBBBBBBBBBBBBdddddc1QQQtwtdBBBBBBBBBBBBBBBBBBBBBBBBBLBBBBBBBBBBBBBBBBBBBBBBBHHBBBddKKDciikkiBBBBBBBBBBBBBBBBBBBBBBBBBLBBBBBBBBBBBBBBBBBBBB6PIsBBccmlkiiihiiBBBBBBBBBBBBBBBBBBBBBBBBBBBLBBBBBBBBBBBBBBBBBBBBBBBBHtcdddddcddddcnlHwtBBBBBBBBBBBBBBBBBBBBBLBBBBBBBBBBBBBBBBBBBBBBBBBBBBddcddddclkkiBBBBwwBBBBBBBBBBBBBBBBBBLBBBBBBBBBBBBBBBBBBBBBBBBBddcclklwHDwQQHHHHHBBBBBBBBBBBBBBBBBBBBBLBBBBBBBBBBBBBBBBBBBBBBBBBBdddlKKwlVVVHiiBBBPBBBBBBBBBBBBBBBBBBBBL",
"LBBBBBBBBBBBBBBBBBBBBBBBBBcccccccllnnnliBBBBBBBBBBBBBBBBBBBBBBBBBLBBBBBBBBBBBBBBBBBBBBBBBBBdcccccddddellBBBBBBBBBBBBBBBBBBBBBBBBBBLBBBBBBBBBBBBBBBBBBBBBBBBVVVVVQKDwwtmkkiBBBBBBBBBBBBBBBBBBBBBBBBBLBBBBBBBBBBBBBBBBBBBB6wwtBddcmkiiihhhBBBBBBBBBBBBBBBBBBBBBBBBBBBBLBBBBBBBBBBBBBBBBBBBBBBBBBBcdddddcddddcnlttBBBBBBBBBBBBBBBBBBBBBBLBBBBBBBBBBBBBBBBBBBBBBBBBBBBddldddclkkiiBBBBDwBBBBBBBBBBBBBBBBBBLBBBBBBBBBBBBBBBBBBBBBBBBBddcclkkDHDwwBHHHHBBBBBBBBBBBBBBBBBBBBBBLBBBBBBBBBBBBBBBBBBBBBBBBBBdcckkllliiiiiiBBBBBBBBBBBBBBBBBBBBBBBBL",
"LBBBBBBBBBBBBBBBBBBBBBBBBBccddddcilnnnkiBBBBBBBBBBBBBBBBBBBBBBBBBLBBBBBBBBBBBBBBBBBBBBBBBBBcddddncddlllllBBBBBBBBBBBBBBBBBBBBBBBBBLBBBBBBBBBBBBBBBBBBBBBBBB1111QdHwwttmkkiBBBBBBBBBBBBBBBBBBBBBBBBBLBBBBBBBBBBBBBBBBBBBB6BBBBddcmkkkhhhhBBBBBBBBBBBBBBBBBBBBBBBBBBBBLBBBBBBBBBBBBBBBBBBBBBBBBBccdddddlddddcnlBBBBBBBBBBBBBBBBBBBBBBBBLBBBBBBBBBBBBBBBBBBBBBBBBBBBBBkkkclkiiiiiBBBBBBBBBBBBBBBBBBBBBBBBLBBBBBBBBBBBBBBBBBBBBBBBBBdddclkkkDwttBBBBBBBBBBBBBBBBBBBBBBBBBBBLBBBBBBBBBBBBBBBBBBBBBBBBBBcdckkkiiiillkBBBBBBBBBBBBBBBBBBBBBBBBBL",
"LBBBBBBBBBBBBBBBBBBBBBBBBBBddddddikliiiiBBBBBBBBBBBBBBBBBBBBBBBBBLBBBBBBBBBBBBBBBBBBBBBBBBBdddddnccccnnkkBBBBBBBBBBBBBBBBBBBBBBBBBLBBBBBBBBBBBBBBBBBBBBBBBB****3dDtttiiiiiBBBBBBBBBBBBBBBBBBBBBBBBBLBBBBBBBBBBBBBBBBBBBBBBBBBdccnlkkkiiiBBBBBBBBBBBBBBBBBBBBBBBBBBBBLBBBBBBBBBBBBBBBBBBBBBBBBBccnnllkklllkkkkBBBBBBBBBBBBBBBBBBBBBBBBLBBBBBBBBBBBBBBBBBBBBBBBBBBBBBclkcddcliiiBBBBBBBBBBBBBBBBBBBBBBBBLBBBBBBBBBBBBBBBBBBBBBBBBBccckkkkkkkkBBBBBBBBBBBBBBBBBBBBBBBBBBBBLBBBBBBBBBBBBBBBBBBBBBBBBBBddcnmllkikllkkBBBBBBBBBBBBBBBBBBBBBBBBL",
"LBBBBBBBBBBBBBBBBBBBBBBBBBBddddddiknnnnlBBBBBBBBBBBBBBBBBBBBBBBBBLBBBBBBBBBBBBBBBBBBBBBBBBBdddddnccccnnkkBBBBBBBBBBBBBBBBBBBBBBBBBLBBBBBBBBBBBBBBBBBBBBBBBBBBBdddddddcnmkiBBBBBBBBBBBBBBBBBBBBBBBBBLBBBBBBBBBBBBBBBBBBBBBBBBBdccnmlkiikBBBBBBBBBBBBBBBBBBBBBBBBBBBBBLBBBBBBBBBBBBBBBBBBBBBBBBBdccnllkkcccnnlkBBBBBBBBBBBBBBBBBBBBBBBBLBBBBBBBBBBBBBBBBBBBBBBBBBBBBBBcldddcliiiBBBBBBBBBBBBBBBBBBBBBBBBLBBBBBBBBBBBBBBBBBBBBBBBBBdddcclkkikkBBBBBBBBBBBBBBBBBBBBBBBBBBBBLBBBBBBBBBBBBBBBBBBBBBBBBBBddcnmllkiklllkBBBBBBBBBBBBBBBBBBBBBBBBL",
"LBBBBBBBBBBBBBBBBBBBBBBBBBBddddddlncccnlBBBBBBBBBBBBBBBBBBBBBBBBBLBBBBBBBBBBBBBBBBBBBBBBBBdddddclccccnnkkBBBBBBBBBBBBBBBBBBBBBBBBBLBBBBBBBBBBBBBBBBBBBBBBBBBBBdddcdddcnmkiBBBBBBBBBBBBBBBBBBBBBBBBBLBBBBBBBBBBBBBBBBBBBBBBBBBdccnmlkiikBBBBBBBBBBBBBBBBBBBBBBBBBBBBBLBBBBBBBBBBBBBBBBBBBBBBBBBdccnllkicccnnlkBBBBBBBBBBBBBBBBBBBBBBBBLBBBBBBBBBBBBBBBBBBBBBBBBBBBBBBccdddcliiiBBBBBBBBBBBBBBBBBBBBBBBBLBBBBBBBBBBBBBBBBBBBBBBBBBdddcclkkiikkBBBBBBBBBBBBBBBBBBBBBBBBBBBLBBBBBBBBBBBBBBBBBBBBBBBBBBddcnmllkiikllkkBBBBBBBBBBBBBBBBBBBBBBBL",
"LBBBBBBBBBBBBBBBBBBBBBBBBBdddddddlncccnlBBBBBBBBBBBBBBBBBBBBBBBBBLBBBBBBBBBBBBBBBBBBBBBBBBddddcccccccnnlkBBBBBBBBBBBBBBBBBBBBBBBBBLBBBBBBBBBBBBBBBBBBBBBBBBBBBdddccddcnmkiBBBBBBBBBBBBBBBBBBBBBBBBBLBBBBBBBBBBBBBBBBBBBBBBBBBdccnmlkiiBBBBBBBBBBBBBBBBBBBBBBBBBBBBBBLBBBBBBBBBBBBBBBBBBBBBBBBBdcnllkiicccnnlkBBBBBBBBBBBBBBBBBBBBBBBBLBBBBBBBBBBBBBBBBBBBBBBBBBBBBBBBcdddcliiiBBBBBBBBBBBBBBBBBBBBBBBBLBBBBBBBBBBBBBBBBBBBBBBBBBdddcclkkiikkBBBBBBBBBBBBBBBBBBBBBBBBBBBLBBBBBBBBBBBBBBBBBBBBBBBBBBddcnmllkiiklllkBBBBBBBBBBBBBBBBBBBBBBBL",
"LBBBBBBBBBBBBBBBBBBBBBBBBBdcdddcdlncccnlBBBBBBBBBBBBBBBBBBBBBBBBBLBBBBBBBBBBBBBBBBBBBBBBBdddddciiccccnnlkBBBBBBBBBBBBBBBBBBBBBBBBBLBBBBBBBBBBBBBBBBBBBBBBBBBBBdddccddcnmkiBBBBBBBBBBBBBBBBBBBBBBBBBLBBBBBBBBBBBBBBBBBBBBBBBBBdccnmlkkikBBBBBBBBBBBBBBBBBBBBBBBBBBBBBLBBBBBBBBBBBBBBBBBBBBBBBBBdddlkiiicccnnnkBBBBBBBBBBBBBBBBBBBBBBBBLBBBBBBBBBBBBBBBBBBBBBBBBBBBBBBBBdddcliiiBBBBBBBBBBBBBBBBBBBBBBBBLBBBBBBBBBBBBBBBBBBBBBBBBBdddcclkkiikkBBBBBBBBBBBBBBBBBBBBBBBBBBBLBBBBBBBBBBBBBBBBBBBBBBBBBdddcnmllkiiklllkBBBBBBBBBBBBBBBBBBBBBBBL",
"LBBBBBBBBBBBBBBBBBBBBBBBBBlnccccdlcccccnBBBBBBBBBBBBBBBBBBBBBBBBBLBBBBBBBBBBBBBBBBBBBBBBBddddddnlccccnnlkBBBBBBBBBBBBBBBBBBBBBBBBBLBBBBBBBBBBBBBBBBBBBBBBBBBBdddcchddcnmkiBBBBBBBBBBBBBBBBBBBBBBBBBLBBBBBBBBBBBBBBBBBBBBBBBBBddcnlkkiikBBBBBBBBBBBBBBBBBBBBBBBBBBBBBLBBBBBBBBBBBBBBBBBBBBBBBBBdncdcnnkdddddlkBBBBBBBBBBBBBBBBBBBBBBBBLBBBBBBBBBBBBBBBBBBBBBBBBBBBBBBBcccolkiiiBBBBBBBBBBBBBBBBBBBBBBBBLBBBBBBBBBBBBBBBBBBBBBBBBBBddcclkkkiikBBBBBBBBBBBBBBBBBBBBBBBBBBBLBBBBBBBBBBBBBBBBBBBBBBBBBBccnmlllkikklllkBBBBBBBBBBBBBBBBBBBBBBBL",
"LBBBBBBBBBBBBBBBBBBBBBBBBBlnnnnnllcnnncnlBBBBBBBBBBBBBBBBBBBBBBBBLBBBBBBBBBBBBBBBBBBBBBBBdcccccdclccccnllBBBBBBBBBBBBBBBBBBBBBBBBBLBBBBBBBBBBBBBBBBBBBBBBBBBBdddddcddcnmkiBBBBBBBBBBBBBBBBBBBBBBBBBLBBBBBBBBBBBBBBBBBBBBBBBBBdnlkkkiiiiBBBBBBBBBBBBBBBBBBBBBBBBBBBBBLBBBBBBBBBBBBBBBBBBBBBBBBBcdddddcnncclliiBBBBBBBBBBBBBBBBBBBBBBBBLBBBBBBBBBBBBBBBBBBBBBBBBBBBBBBBcolkkiiikBBBBBBBBBBBBBBBBBBBBBBBBLBBBBBBBBBBBBBBBBBBBBBBBBBBlldclkkiiiiBBBBBBBBBBBBBBBBBBBBBBBBBBBLBBBBBBBBBBBBBBBBBBBBBBBBBdccnmllkiiiikkkiBBBBBBBBBBBBBBBBBBBBBBBL",
"LBBBBBBBBBBBBBBBBBBBBBBBBBBlnnnlllnnnnnllBBBBBBBBBBBBBBBBBBBBBBBBLBBBBBBBBBBBBBBBBBBBBBBBBcccccclllccccnlkBBBBBBBBBBBBBBBBBBBBBBBBLBBBBBBBBBBBBBBBBBBBBBBBBBBccmmmmdccmkkkBBBBBBBBBBBBBBBBBBBBBBBBBLBBBBBBBBBBBBBBBBBBBBBBBBBBdcnmlkiiaBBBBBBBBBBBBBBBBBBBBBBBBBBBBBLBBBBBBBBBBBBBBBBBBBBBBBBBBdddddcnddddclkBBBBBBBBBBBBBBBBBBBBBBBBLBBBBBBBBBBBBBBBBBBBBBBBBBBBBBBlddcckiiiBBBBBBBBBBBBBBBBBBBBBBBBBLBBBBBBBBBBBBBBBBBBBBBBBBBBdddclkkiiiBBBBBBBBBBBBBBBBBBBBBBBBBBBBLBBBBBBBBBBBBBBBBBBBBBBBBBddcnmllkiiiiiiiiBBBBBBBBBBBBBBBBBBBBBBBL",
"LBBBBBBBBBBBBBBBBBBBBBBBBBBillllillnnnnlBBBBBBBBBBBBBBBBBBBBBBBBBLBBBBBBBBBBBBBBBBBBBBBBBBBcccllllcccnnnlkBBBBBBBBBBBBBBBBBBBBBBBBLBBBBBBBBBBBBBBBBBBBBBBBBBBBcmmmmdddccmkkBBBBBBBBBBBBBBBBBBBBBBBBLBBBBBBBBBBBBBBBBBBBBBBBBBBdcnmlkkaaBBBBBBBBBBBBBBBBBBBBBBBBBBBBBLBBBBBBBBBBBBBBBBBBBBBBBBBddoooicnddddclkBBBBBBBBBBBBBBBBBBBBBBBBLBBBBBBBBBBBBBBBBBBBBBBBBBBBBBloddcckiiiBBBBBBBBBBBBBBBBBBBBBBBBBLBBBBBBBBBBBBBBBBBBBBBBBBBdddcclkkiiBBBBBBBBBBBBBBBBBBBBBBBBBBBBBLBBBBBBBBBBBBBBBBBBBBBBBBBddnmlllkiiiiiiiBBBBBBBBBBBBBBBBBBBBBBBBL",
"LBBBBBBBBBBBBBBBBBBBBBBBBBBiaaaaalllllllBBBBBBBBBBBBBBBBBBBBBBBBBLBBBBBBBBBBBBBBBBBBBBBBBBBBBlllliaccnnllkBBBBBBBBBBBBBBBBBBBBBBBBLBBBBBBBBBBBBBBBBBBBBBBBBBBBBBmmmmdddcmkkaaBBBBBBBBBBBBBBBBBBBBBBLBBBBBBBBBBBBBBBBBBBBBBBBBBccnmllkaaaBBBBBBBBBBBBBBBBBBBBBBBBBBBBLBBBBBBBBBBBBBBBBBBBBBBBBBBaolliancddcclBBBBBBBBBBBBBBBBBBBBBBBBBLBBBBBBBBBBBBBBBBBBBBBBBBBBBoolldcckiikiBBBBBBBBBBBBBBBBBBBBBBBBBLBBBBBBBBBBBBBBBBBBBBBBBBBddccllkkBBBBBBBBBBBBBBBBBBBBBBBBBBBBBBBLBBBBBBBBBBBBBBBBBBBBBBBBBcnmmlliiaaaaaBBBBBBBBBBBBBBBBBBBBBBBBBBL",
"LBBBBBBBBBBBBBBBBBBBBBBBBBBBiiaaaaaaaaaBBBBBBBBBBBBBBBBBBBBBBBBBBLBBBBBBBBBBBBBBBBBBBBBBBBBBBBBaaaaiiiikaaBBBBBBBBBBBBBBBBBBBBBBBBLBBBBBBBBBBBBBBBBBBBBBBBBBBBBBBBaacddcmkkaaaBBBBBBBBBBBBBBBBBBBBBLBBBBBBBBBBBBBBBBBBBBBBBBBBBaaaaaaaaiiBBBBBBBBBBBBBBBBBBBBBBBBBBBLBBBBBBBBBBBBBBBBBBBBBBBBBBaliiiacaaaaaaBBBBBBBBBBBBBBBBBBBBBBBBBLBBBBBBBBBBBBBBBBBBBBBBBBBBalllioliaaakBBBBBBBBBBBBBBBBBBBBBBBBBBLBBBBBBBBBBBBBBBBBBBBBBBBlddccllkBBBBBBBBBBBBBBBBBBBBBBBBBBBBBBBBLBBBBBBBBBBBBBBBBBBBBBBBBBaaaiiiiaaaaBBBBBBBBBBBBBBBBBBBBBBBBBBBBL",
"LBBBBBBBBBBBBBBBBBBBBBBBBBBBaaaaaaiiiiaBBBBBBBBBBBBBBBBBBBBBBBBBBLBBBBBBBBBBBBBBBBBBBBBBBBBBBBBBBBBBaaaaaaBBBBBBBBBBBBBBBBBBBBBBBBLBBBBBBBBBBBBBBBBBBBBBBBBBBBBBBBBBmmmkiiaaaiBBBBBBBBBBBBBBBBBBBBBLBBBBBBBBBBBBBBBBBBBBBBBBBBBkaaaaaaiiiBBBBBBBBBBBBBBBBBBBBBBBBBBBLBBBBBBBBBBBBBBBBBBBBBBBBBBaaaaaaBiiiaaaBBBBBBBBBBBBBBBBBBBBBBBBBLBBBBBBBBBBBBBBBBBBBBBBBBBBiiiiioliaaaBBBBBBBBBBBBBBBBBBBBBBBBBBBLBBBBBBBBBBBBBBBBBBBBBBilliiihaaaBBBBBBBBBBBBBBBBBBBBBBBBBBBBBBBBLBBBBBBBBBBBBBBBBBBBBBBBBBkkhaaaaaaaBBBBBBBBBBBBBBBBBBBBBBBBBBBBBL",
"LBBBBBBBBBBBBBBBBBBBBBBBBBBBiaiaaallliaBBBBBBBBBBBBBBBBBBBBBBBBBBLBBBBBBBBBBBBBBBBBBBBBBBBBBBBBBBBBBiiiaaaBBBBBBBBBBBBBBBBBBBBBBBBLBBBBBBBBBBBBBBBBBBBBBBBBBBBBBBBBBaaaaaaaaiBBBBBBBBBBBBBBBBBBBBBBLBBBBBBBBBBBBBBBBBBBBBBBBBBBkiaaaaaiiiBBBBBBBBBBBBBBBBBBBBBBBBBBBLBBBBBBBBBBBBBBBBBBBBBBBBBBBooiiaBiiiaaaBBBBBBBBBBBBBBBBBBBBBBBBBLBBBBBBBBBBBBBBBBBBBBBBBBBBBiiailliaaaBBBBBBBBBBBBBBBBBBBBBBBBBBBLBBBBBBBBBBBBBBBBBBBBBBilillihaaaBBBBBBBBBBBBBBBBBBBBBBBBBBBBBBBBLBBBBBBBBBBBBBBBBBBBBBBBBBkkhhaaaaBBBBBBBBBBBBBBBBBBBBBBBBBBBBBBBL",
"LBBBBBBBBBBBBBBBBBBBBBBBBBBiliaaaBiiiiaBBBBBBBBBBBBBBBBBBBBBBBBBBLBBBBBBBBBBBBBBBBBBBBBBBBBBBBBBBBBBiiiaaaBBBBBBBBBBBBBBBBBBBBBBBBLBBBBBBBBBBBBBBBBBBBBBBBBBBBBBBBBBBkkihaaaBBBBBBBBBBBBBBBBBBBBBBBLBBBBBBBBBBBBBBBBBBBBBBBBBBBkkiaaaiiiBBBBBBBBBBBBBBBBBBBBBBBBBBBBLBBBBBBBBBBBBBBBBBBBBBBBBBBBolliBBiiiaaaBBBBBBBBBBBBBBBBBBBBBBBBBLBBBBBBBBBBBBBBBBBBBBBBBBBBBiiiiiiaaaaBBBBBBBBBBBBBBBBBBBBBBBBBBBLBBBBBBBBBBBBBBBBBBBBBBBiallihaaBBBBBBBBBBBBBBBBBBBBBBBBBBBBBBBBBLBBBBBBBBBBBBBBBBBBBBBBBBBhhhhaaaBBBBBBBBBBBBBBBBBBBBBBBBBBBBBBBBL",
"LBBBBBBBBBBBBBBBBBBBBBBBBBBiiiaaaBaaaaaBBBBBBBBBBBBBBBBBBBBBBBBBBLBBBBBBBBBBBBBBBBBBBBBBBBBBBBBBBBBBBaaaaaBBBBBBBBBBBBBBBBBBBBBBBBLBBBBBBBBBBBBBBBBBBBBBBBBBBBBBBBBBBkkihaaiBBBBBBBBBBBBBBBBBBBBBBBLBBBBBBBBBBBBBBBBBBBBBBBBBBBBaaaaaiiBBBBBBBBBBBBBBBBBBBBBBBBBBBBBLBBBBBBBBBBBBBBBBBBBBBBBBBBaiiaaaBaaaaaBBBBBBBBBBBBBBBBBBBBBBBBBBLBBBBBBBBBBBBBBBBBBBBBBBBBBBBiiaaaaaaBBBBBBBBBBBBBBBBBBBBBBBBBBBBLBBBBBBBBBBBBBBBBBBBBBBBaalihhaaBBBBBBBBBBBBBBBBBBBBBBBBBBBBBBBBBLBBBBBBBBBBBBBBBBBBBBBBBBBaaaaaaaaBBBBBBBBBBBBBBBBBBBBBBBBBBBBBBBL",
"LBBBBBBBBBBBBBBBBBBBBBBBBBBBaaaaBBaaaaBBBBBBBBBBBBBBBBBBBBBBBBBBBLBBBBBBBBBBBBBBBBBBBBBBBBBBBBBBBBBBBaaaaaaBBBBBBBBBBBBBBBBBBBBBBBLBBBBBBBBBBBBBBBBBBBBBBBBBBBBBBBBBBBaaaaiBBBBBBBBBBBBBBBBBBBBBBBBLBBBBBBBBBBBBBBBBBBBBBBBBBBkkkaaaaaBBBBBBBBBBBBBBBBBBBBBBBBBBBBBBLBBBBBBBBBBBBBBBBBBBBBBBBBBaiiiiaBBiaaaBBBBBBBBBBBBBBBBBBBBBBBBBBLBBBBBBBBBBBBBBBBBBBBBBBBBBBBBiloiaaaaaBBBBBBBBBBBBBBBBBBBBBBBBBBLBBBBBBBBBBBBBBBBBBBBBBBBaaaaaaBBBBBBBBBBBBBBBBBBBBBBBBBBBBBBBBBBLBBBBBBBBBBBBBBBBBBBBBBBBBhkkkhaaaBBBBBBBBBBBBBBBBBBBBBBBBBBBBBBBL",
"LBBBBBBBBBBBBBBBBBBBBBBBBBBBBBBBBanlliaBBBBBBBBBBBBBBBBBBBBBBBBBBLBBBBBBBBBBBBBBBBBBBBBBBBBBBBBBBBBBkkiiaaaBBBBBBBBBBBBBBBBBBBBBBBLBBBBBBBBBBBBBBBBBBBBBBBBBBBBBBBBBBkkiaaBBBBBBBBBBBBBBBBBBBBBBBBBLBBBBBBBBBBBBBBBBBBBBBBBBBBkkiaaaaaBBBBBBBBBBBBBBBBBBBBBBBBBBBBBBLBBBBBBBBBBBBBBBBBBBBBBBBBBaiiiiiBiiaaaaBBBBBBBBBBBBBBBBBBBBBBBBBLBBBBBBBBBBBBBBBBBBBBBBBBBBBBBBloiaaaaaBBBBBBBBBBBBBBBBBBBBBBBBBBLBBBBBBBBBBBBBBBBBBBBBBBBBBaaaaaBBBBBBBBBBBBBBBBBBBBBBBBBBBBBBBBBLBBBBBBBBBBBBBBBBBBBBBBBBakkhhaaaaaBBBBBBBBBBBBBBBBBBBBBBBBBBBBBBL",
"LBBBBBBBBBBBBBBBBBBBBBBBBBBBBBBBBinlliaBBBBBBBBBBBBBBBBBBBBBBBBBBLBBBBBBBBBBBBBBBBBBBBBBBBBBBBBBBBBannkiaaaBBBBBBBBBBBBBBBBBBBBBBBLBBBBBBBBBBBBBBBBBBBBBBBBBBBBBBBBkkkkihaaBBBBBBBBBBBBBBBBBBBBBBBBLBBBBBBBBBBBBBBBBBBBBBBBBBBiiaaaaaaBBBBBBBBBBBBBBBBBBBBBBBBBBBBBBLBBBBBBBBBBBBBBBBBBBBBBBBBBBiiiiBBiiaaaaBBBBBBBBBBBBBBBBBBBBBBBBBLBBBBBBBBBBBBBBBBBBBBBBBBBBBBBBlliaaaaaBBBBBBBBBBBBBBBBBBBBBBBBBBLBBBBBBBBBBBBBBBBBBBBBBBBBllliaaaaBBBBBBBBBBBBBBBBBBBBBBBBBBBBBBBLBBBBBBBBBBBBBBBBBBBBBBBBahhaaaaaaBBBBBBBBBBBBBBBBBBBBBBBBBBBBBBBL",
"LBBBBBBBBBBBBBBBBBBBBBBBBBBBBBBBBaiiiiaBBBBBBBBBBBBBBBBBBBBBBBBBBLBBBBBBBBBBBBBBBBBBBBBBBBBBBBBBBBBaaaaakooBBBBBBBBBBBBBBBBBBBBBBBLBBBBBBBBBBBBBBBBBBBBBBBBBBBBBBkkkkiihaaaBBBBBBBBBBBBBBBBBBBBBBBBLBBBBBBBBBBBBBBBBBBBBBBBBBBBaaaaaaaBBBBBBBBBBBBBBBBBBBBBBBBBBBBBBLBBBBBBBBBBBBBBBBBBBBBBBBBBBBBBBBBaaaaaaBBBBBBBBBBBBBBBBBBBBBBBBBLBBBBBBBBBBBBBBBBBBBBBBBBBBBBBBBiaaaaaBBBBBBBBBBBBBBBBBBBBBBBBBBBLBBBBBBBBBBBBBBBBBBBBBBBBBllihaaaaaaBBBBBBBBBBBBBBBBBBBBBBBBBBBBBLBBBBBBBBBBBBBBBBBBBBBBBBoliaaaaaaBBBBBBBBBBBBBBBBBBBBBBBBBBBBBBBL",
"LBBBBBBBBBBBBBBBBBBBBBBBBBBBBBBBBBBBBBBBBBBBBBBBBBBBBBBBBBBBBBBBBLBBBBBBBBBBBBBBBBBBBBBBBBBBBBBBBBBBBBBBBBBBBBBBBBBBBBBBBBBBBBBBBBLBBBBBBBBBBBBBBBBBBBBBBBBBBBBBBiiihaaaaaaBBBBBBBBBBBBBBBBBBBBBBBBLBBBBBBBBBBBBBBBBBBBBBBBBBBBBBBBBBBBBBBBBBBBBBBBBBBBBBBBBBBBBBBBBLBBBBBBBBBBBBBBBBBBBBBBBBBBBBBBBBBBBBBBBBBBBBBBBBBBBBBBBBBBBBBBBBLBBBBBBBBBBBBBBBBBBBBBBBBBBBBBBBBBBBBBBBBBBBBBBBBBBBBBBBBBBBBBBBBLBBBBBBBBBBBBBBBBBBBBBBBBBiiihaaaaaaBBBBBBBBBBBBBBBBBBBBBBBBBBBBBLBBBBBBBBBBBBBBBBBBBBBBBBBBBBBBBBBBBBBBBBBBBBBBBBBBBBBBBBBBBBBBBBL",
"LLLLLLLLLLLLLLLLLLLLLLLLLLLLLLLLLLLLLLLLLLLLLLLLLLLLLLLLLLLLLLLLLLLLLLLLLLLLLLLLLLLLLLLLLLLLLLLLLLLLLLLLLLLLLLLLLLLLLLLLLLLLLLLLLLLLLLLLLLLLLLLLLLLLLLLLLLLLLLLLLLLLLLLLLLLLLLLLLLLLLLLLLLLLLLLLLLLLLLLLLLLLLLLLLLLLLLLLLLLLLLLLLLLLLLLLLLLLLLLLLLLLLLLLLLLLLLLLLLLLLLLLLLLLLLLLLLLLLLLLLLLLLLLLLLLLLLLLLLLLLLLLLLLLLLLLLLLLLLLLLLLLLLLLLLLLLLLLLLLLLLLLLLLLLLLLLLLLLLLLLLLLLLLLLLLLLLLLLLLLLLLLLLLLLLLLLLLLLLLLLLLLLLLLLLLLLLLLLLLLLLLLLLLLLLLLLLLLLLLLLLLLLLLLLLLLLLLLLLLLLLLLLLLLLLLLLLLLLLLLLLLLLLLLLLLLLLLLLLLLLLLLLLLLLLLLLLLLLLLLL",
"LBBBBBBBBBBBBBBBBBBBBBBBBBBBBBBBBBBBBBBBBBBBBBBBBBBBBBBBBBBBBBBBBLBBBBBBBBBBBBBBBBBBBBBBBBBBBBBBBBBBBBBBBBBBBBBBBBBBBBBBBBBBBBBBBBLBBBBBBBBBBBBBBBBBBBBBBBBBBBBBBBBBBBBBBBBBBBBBBBBBBBBBBBBBBBBBBBBLBBBBBBBBBBBBBBBBBBBBBBBBBBBBBBBBBBBBBBBBBBBBBBBBBBBBBBBBBBBBBBBBLBBBBBBBBBBBBBBBBBBBBBBBBBBBBBBBBBBBBBBBBBBBBBBBBBBBBBBBBBBBBBBBBLBBBBBBBBBBBBBBBBBBBBBBBBBBBBBBBBBBBBBBBBBBBBBBBBBBBBBBBBBBBBBBBBLBBBBBBBBBBBBBBBBBBBBBBBBBBBBBBBBBBBBBBBBBBBBBBBBBBBBBBBBBBBBBBBBLBBBBBBBBBBBBBBBBBBBBBBBBBBBBBBBBBBBBBBBBBBBBBBBBBBBBBBBBBBBBBBBBL",
"LBBBBBBBBBBBBBBBBBBBBBBBBBBBBBBBBBBBBBBBBBBBBBBBBBBBBBBBBBBBBBBBBLBBBBBBBBBBBBBBBBBBBBBBBBBBBBBBBBBBBBBBBBBBBBBBBBBBBBBBBBBBBBBBBBLBBBBBBBBBBBBBBBBBBBBBBBBBBBBBBBBBBBBBBBBBBBBBBBBBBBBBBBBBBBBBBBBLBBBBBBBBBBBBBBBBBBBBBBBBBBBBBBBBBBBBBBBBBBBBBBBBBBBBBBBBBBBBBBBBLBBBBBBBBBBBBBBBBBBBBBBBBBBBBBBBBBBBBBBBBBBBBBBBBBBBBBBBBBBBBBBBBLBBBBBBBBBBBBBBBBBBBBBBBBBBBBBBBBBBBBBBBBBBBBBBBBBBBBBBBBBBBBBBBBLBBBBBBBBBBBBBBBBBBBBBBBBBBBBBBBBBBBBBBBBBBBBBBBBBBBBBBBBBBBBBBBBLBBBBBBBBBBBBBBBBBBBBBBBBBBBBBBBBBBBBBBBBBBBBBBBBBBBBBBBBBBBBBBBBL",
"LBBBBBBBBBBBBBBBBBBBBBBBBBBBBBBBBBBBBBBBBBBBBBBBBBBBBBBBBBBBBBBBBLBBBBBBBBBBBBBBBBBBBBBBBBBBBBBBBBBBBBBBBBBBBBBBBBBBBBBBBBBBBBBBBBLBBBBBBBBBBBBBBBBBBBBBBBBBBBBBBBBBBBBBBBBBBBBBBBBBBBBBBBBBBBBBBBBLBBBBBBBBBBBBBBBBBBBBBBBBBBBBBBBBBBBBBBBBBBBBBBBBBBBBBBBBBBBBBBBBLBBBBBBBBBBBBBBBBBBBBBBBBBBBBBBBBBBBBBBBBBBBBBBBBBBBBBBBBBBBBBBBBLBBBBBBBBBBBBBBBBBBBBBBBBBBBBBBBBBBBBBBBBBBBBBBBBBBBBBBBBBBBBBBBBLBBBBBBBBBBBBBBBBBBBBBBBBBBBBBBBBBBBBBBBBBBBBBBBBBBBBBBBBBBBBBBBBLBBBBBBBBBBBBBBBBBBBBBBBBBBBBBBBBBBBBBBBBBBBBBBBBBBBBBBBBBBBBBBBBL",
"LBBBBBBBBBBBBBBBBBBBBBBBBBBBBBBBBBBBBBBBBBBBBBBBBBBBBBBBBBBBBBBBBLBBBBBBBBBBBBBBBBBBBBBBBBBBBBBBBBBBBBBBBBBBBBBBBBBBBBBBBBBBBBBBBBLBBBBBBBBBBBBBBBBBBBBBBBBBBBBBBBBBBBBBBBBBBBBBBBBBBBBBBBBBBBBBBBBLBBBBBBBBBBBBBBBBBBBBBBBBBBBBBBBBBBBBBBBBBBBBBBBBBBBBBBBBBBBBBBBBLBBBBBBBBBBBBBBBBBBBBBBBBBBBBBBBBBBBBBBBBBBBBBBBBBBBBBBBBBBBBBBBBLBBBBBBBBBBBBBBBBBBBBBBBBBBBBBBBBBBBBBBBBBBBBBBBBBBBBBBBBBBBBBBBBLBBBBBBBBBBBBBBBBBBBBBBBBBBBBBBBBBBBBBBBBBBBBBBBBBBBBBBBBBBBBBBBBLBBBBBBBBBBBBBBBBBBBBBBBBBBBBBBBBBBBBBBBBBBBBBBBBBBBBBBBBBBBBBBBBL",
"LBBBBBBBBBBBBBBBBBBBBBBBBBBBBBBBBBBBBBBBBBBBBBBBBBBBBBBBBBBBBBBBBLBBBBBBBBBBBBBBBBBBBBBBBBBBBBBBBBBBBBBBBBBBBBBBBBBBBBBBBBBBBBBBBBLBBBBBBBBBBBBBBBBBBBBBBBBBBBBBBBBBBBBBBBBBBBBBBBBBBBBBBBBBBBBBBBBLBBBBBBBBBBBBBBBBBBBBBBBBBBBBBBBBBBBBBBBBBBBBBBBBBBBBBBBBBBBBBBBBLBBBBBBBBBBBBBBBBBBBBBBBBBBBBBBBBBBBBBBBBBBBBBBBBBBBBBBBBBBBBBBBBLBBBBBBBBBBBBBBBBBBBBBBBBBBBBBBBBBBBBBBBBBBBBBBBBBBBBBBBBBBBBBBBBLBBBBBBBBBBBBBBBBBBBBBBBBBBBBBBBBBBBBBBBBBBBBBBBBBBBBBBBBBBBBBBBBLBBBBBBBBBBBBBBBBBBBBBBBBBBBBBBBBBBBBBBBBBBBBBBBBBBBBBBBBBBBBBBBBL",
"LBBBBBBBBBBBBBBBBBBBBBBBBBBBBBBBBBBBBBBBBBBBBBBBBBBBBBBBBBBBBBBBBLBBBBBBBBBBBBBBBBBBBBBBBBBBBBBBBBBBBBBBBBBBBBBBBBBBBBBBBBBBBBBBBBLBBBBBBBBBBBBBBBBBBBBBBBBBBBBBBBBBBBBBBBBBBBBBBBBBBBBBBBBBBBBBBBBLBBBBBBBBBBBBBBBBBBBBBBBBBBBBBBBBBBBBBBBBBBBBBBBBBBBBBBBBBBBBBBBBLBBBBBBBBBBBBBBBBBBBBBBBBBBBBBBBBBBBBBBBBBBBBBBBBBBBBBBBBBBBBBBBBLBBBBBBBBBBBBBBBBBBBBBBBBBBBBBBBBBBBBBBBBBBBBBBBBBBBBBBBBBBBBBBBBLBBBBBBBBBBBBBBBBBBBBBBBBBBBBBBBBBBBBBBBBBBBBBBBBBBBBBBBBBBBBBBBBLBBBBBBBBBBBBBBBBBBBBBBBBBBBBBBBBBBBBBBBBBBBBBBBBBBBBBBBBBBBBBBBBL",
"LBBBBBBBBBBBBBBBBBBBBBBBBBBBBBBBBBBBBBBBBBBBBBBBBBBBBBBBBBBBBBBBBLBBBBBBBBBBBBBBBBBBBBBBBBBBBBBBBBBBBBBBBBBBBBBBBBBBBBBBBBBBBBBBBBLBBBBBBBBBBBBBBBBBBBBBBBBBBBBBBBBBBBBBBBBBBBBBBBBBBBBBBBBBBBBBBBBLBBBBBBBBBBBBBBBBBBBBBBBBBBBBBBBBBBBBBBBBBBBBBBBBBBBBBBBBBBBBBBBBLBBBBBBBBBBBBBBBBBBBBBBBBBBBBBBBBBBBBBBBBBBBBBBBBBBBBBBBBBBBBBBBBLBBBBBBBBBBBBBBBBBBBBBBBBBBBBBBBBBBBBBBBBBBBBBBBBBBBBBBBBBBBBBBBBLBBBBBBBBBBBBBBBBBBBBBBBBBBBBBBBBBBBBBBBBBBBBBBBBBBBBBBBBBBBBBBBBLBBBBBBBBBBBBBBBBBBBBBBBBBBBBBBBBBBBBBBBBBBBBBBBBBBBBBBBBBBBBBBBBL",
"LBBBBBBBBBBBBBBBBBBBBBBBBBBBBBBBBBBBBBBBBBBBBBBBBBBBBBBBBBBBBBBBBLBBBBBBBBBBBBBBBBBBBBBBBBBBBBBBBBBBBBBBBBBBBBBBBBBBBBBBBBBBBBBBBBLBBBBBBBBBBBBBBBBBBBBBBBBBBBBBBBBBBBBBBBBBBBBBBBBBBBBBBBBBBBBBBBBLBBBBBBBBBBBBBBBBBBBBBBBBBBBBBBBBBBBBBBBBBBBBBBBBBBBBBBBBBBBBBBBBLBBBBBBBBBBBBBBBBBBBBBBBBBBBBBBBBBBBBBBBBBBBBBBBBBBBBBBBBBBBBBBBBLBBBBBBBBBBBBBBBBBBBBBBBBBBBBBBBBBBBBBBBBBBBBBBBBBBBBBBBBBBBBBBBBLBBBBBBBBBBBBBBBBBBBBBBBBBBBBBBBBBBBBBBBBBBBBBBBBBBBBBBBBBBBBBBBBLBBBBBBBBBBBBBBBBBBBBBBBBBBBBBBBBBBBBBBBBBBBBBBBBBBBBBBBBBBBBBBBBL",
"LBBBBBBBBBBBBBBBBBBBBBBBBBBBBBBBBBBBBBBBBBBBBBBBBBBBBBBBBBBBBBBBBLBBBBBBBBBBBBBBBBBBBBBBBBBBBBBBBBBBBBBBBBBBBBBBBBBBBBBBBBBBBBBBBBLBBBBBBBBBBBBBBBBBBBBBBBBBBBBBBBBBBBBBBBBBBBBBBBBBBBBBBBBBBBBBBBBLBBBBBBBBBBBBBBBBBBBBBBBBBBBBBBBBBBBBBBBBBBBBBBBBBBBBBBBBBBBBBBBBLBBBBBBBBBBBBBBBBBBBBBBBBBBBBBBBBBBBBBBBBBBBBBBBBBBBBBBBBBBBBBBBBLBBBBBBBBBBBBBBBBBBBBBBBBBBBBBBBBBBBBBBBBBBBBBBBBBBBBBBBBBBBBBBBBLBBBBBBBBBBBBBBBBBBBBBBBBBBBBBBBBBBBBBBBBBBBBBBBBBBBBBBBBBBBBBBBBLBBBBBBBBBBBBBBBBBBBBBBBBBBBBBBBBBBBBBBBBBBBBBBBBBBBBBBBBBBBBBBBBL",
"LBBBBBBBBBBBBBBBBBBBBBBBBBBBBBBBBBBBBBBBBBBBBBBBBBBBBBBBBBBBBBBBBLBBBBBBBBBBBBBBBBBBBBBBBBBBBBBBBBBBBBBBBBBBBBBBBBBBBBBBBBBBBBBBBBLBBBBBBBBBBBBBBBBBBBBBBBBBBBBBBBBBBBBBBBBBBBBBBBBBBBBBBBBBBBBBBBBLBBBBBBBBBBBBBBBBBBBBBBBBBBBBBBBBBBBBBBBBBBBBBBBBBBBBBBBBBBBBBBBBLBBBBBBBBBBBBBBBBBBBBBBBBBBBBBBBBBBBBBBBBBBBBBBBBBBBBBBBBBBBBBBBBLBBBBBBBBBBBBBBBBBBBBBBBBBBBBBBBBBBBBBBBBBBBBBBBBBBBBBBBBBBBBBBBBLBBBBBBBBBBBBBBBBBBBBBBBBBBBBBBBBBBBBBBBBBBBBBBBBBBBBBBBBBBBBBBBBLBBBBBBBBBBBBBBBBBBBBBBBBBBBBBBBBBBBBBBBBBBBBBBBBBBBBBBBBBBBBBBBBL",
"LBBBBBBBBBBBBBBBBBBBBBBBBBBBBBBBBBBBBBBBBBBBBBBBBBBBBBBBBBBBBBBBBLBBBBBBBBBBBBBBBBBBBBBBBBBBBBBBBBBBBBBBBBBBBBBBBBBBBBBBBBBBBBBBBBLBBBBBBBBBBBBBBBBBBBBBBBBBBBBBBBBBBBBBBBBBBBBBBBBBBBBBBBBBBBBBBBBLBBBBBBBBBBBBBBBBBBBBBBBBBBBBBBBBBBBBBBBBBBBBBBBBBBBBBBBBBBBBBBBBLBBBBBBBBBBBBBBBBBBBBBBBBBBBBBBBBBBBBBBBBBBBBBBBBBBBBBBBBBBBBBBBBLBBBBBBBBBBBBBBBBBBBBBBBBBBBBBBBBBBBBBBBBBBBBBBBBBBBBBBBBBBBBBBBBLBBBBBBBBBBBBBBBBBBBBBBBBBBBBBBBBBBBBBBBBBBBBBBBBBBBBBBBBBBBBBBBBLBBBBBBBBBBBBBBBBBBBBBBBBBBBBBBBBBBBBBBBBBBBBBBBBBBBBBBBBBBBBBBBBL",
"LBBBBBBBBBBBBBBBBBBBBBBBBBBBBBBBBBBBBBBBBBBBBBBBBBBBBBBBBBBBBBBBBLBBBBBBBBBBBBBBBBBBBBBBBBBBBBBBBBBBBBBBBBBBBBBBBBBBBBBBBBBBBBBBBBLBBBBBBBBBBBBBBBBBBBBBBBBBBBBBBBBBBBBBBBBBBBBBBBBBBBBBBBBBBBBBBBBLBBBBBBBBBBBBBBBBBBBBBBBBBBBBBBBBBBBBBBBBBBBBBBBBBBBBBBBBBBBBBBBBLBBBBBBBBBBBBBBBBBBBBBBBBBBBBBBBBBBBBBBBBBBBBBBBBBBBBBBBBBBBBBBBBLBBBBBBBBBBBBBBBBBBBBBBBBBBBBBBBBBBBBBBBBBBBBBBBBBBBBBBBBBBBBBBBBLBBBBBBBBBBBBBBBBBBBBBBBBBBBBBBBBBBBBBBBBBBBBBBBBBBBBBBBBBBBBBBBBLBBBBBBBBBBBBBBBBBBBBBBBBBBBBBBBBBBBBBBBBBBBBBBBBBBBBBBBBBBBBBBBBL",
"LBBBBBBBBBBBBBBBBBBBBBBBBBBBBBBBBBBBBBBBBBBBBBBBBBBBBBBBBBBBBBBBBLBBBBBBBBBBBBBBBBBBBBBBBBBBBBBBBBBBBBBBBBBBBBBBBBBBBBBBBBBBBBBBBBLBBBBBBBBBBBBBBBBBBBBBBBBBBBBBBBBBBBBBBBBBBBBBBBBBBBBBBBBBBBBBBBBLBBBBBBBBBBBBBBBBBBBBBBBBBBBBBBBBBBBBBBBBBBBBBBBBBBBBBBBBBBBBBBBBLBBBBBBBBBBBBBBBBBBBBBBBBBBBBBBBBBBBBBBBBBBBBBBBBBBBBBBBBBBBBBBBBLBBBBBBBBBBBBBBBBBBBBBBBBBBBBBBBBBBBBBBBBBBBBBBBBBBBBBBBBBBBBBBBBLBBBBBBBBBBBBBBBBBBBBBBBBBBBBBBBBBBBBBBBBBBBBBBBBBBBBBBBBBBBBBBBBLBBBBBBBBBBBBBBBBBBBBBBBBBBBBBBBBBBBBBBBBBBBBBBBBBBBBBBBBBBBBBBBBL",
"LBBBBBBBBBBBBBBBBBBBBBBBBBBBBBBBBBBBBBBBBBBBBBBBBBBBBBBBBBBBBBBBBLBBBBBBBBBBBBBBBBBBBBBBBBBBBBBBBBBBBBBBBBBBBBBBBBBBBBBBBBBBBBBBBBLBBBBBBBBBBBBBBBBBBBBBBBBBBBBBBBBBBBBBBBBBBBBBBBBBBBBBBBBBBBBBBBBLBBBBBBBBBBBBBBBBBBBBBBBBBBBBBBBBBBBBBBBBBBBBBBBBBBBBBBBBBBBBBBBBLBBBBBBBBBBBBBBBBBBBBBBBBBBBBBBBBBBBBBBBBBBBBBBBBBBBBBBBBBBBBBBBBLBBBBBBBBBBBBBBBBBBBBBBBBBBBBBBBBBBBBBBBBBBBBBBBBBBBBBBBBBBBBBBBBLBBBBBBBBBBBBBBBBBBBBBBBBBBBBBBBBBBBBBBBBBBBBBBBBBBBBBBBBBBBBBBBBLBBBBBBBBBBBBBBBBBBBBBBBBBBBBBBBBBBBBBBBBBBBBBBBBBBBBBBBBBBBBBBBBL",
"LBBBBBBBBBBBBBBBBBBBBBBBBBBBBBBBBBBBBBBBBBBBBBBBBBBBBBBBBBBBBBBBBLBBBBBBBBBBBBBBBBBBBBBBBBBBBBBBBBBBBBBBBBBBBBBBBBBBBBBBBBBBBBBBBBLBBBBBBBBBBBBBBBBBBBBBBBBBBBBBBBBBBBBBBBBBBBBBBBBBBBBBBBBBBBBBBBBLBBBBBBBBBBBBBBBBBBBBBBBBBBBBBBBBBBBBBBBBBBBBBBBBBBBBBBBBBBBBBBBBLBBBBBBBBBBBBBBBBBBBBBBBBBBBBBBBBBBBBBBBBBBBBBBBBBBBBBBBBBBBBBBBBLBBBBBBBBBBBBBBBBBBBBBBBBBBBBBBBBBBBBBBBBBBBBBBBBBBBBBBBBBBBBBBBBLBBBBBBBBBBBBBBBBBBBBBBBBBBBBBBBBBBBBBBBBBBBBBBBBBBBBBBBBBBBBBBBBLBBBBBBBBBBBBBBBBBBBBBBBBBBBBBBBBBBBBBBBBBBBBBBBBBBBBBBBBBBBBBBBBL",
"LBBBBBBBBBBBBBBBBBBBBBBBBBBBBBBBBBBBBBBBBBBBBBBBBBBBBBBBBBBBBBBBBLBBBBBBBBBBBBBBBBBBBBBBBBBBBBBBBBBBBBBBBBBBBBBBBBBBBBBBBBBBBBBBBBLBBBBBBBBBBBBBBBBBBBBBBBBBBBBBBBBBBBBBBBBBBBBBBBBBBBBBBBBBBBBBBBBLBBBBBBBBBBBBBBBBBBBBBBBBBBBBBBBBBBBBBBBBBBBBBBBBBBBBBBBBBBBBBBBBLBBBBBBBBBBBBBBBBBBBBBBBBBBBBBBBBBBBBBBBBBBBBBBBBBBBBBBBBBBBBBBBBLBBBBBBBBBBBBBBBBBBBBBBBBBBBBBBBBBBBBBBBBBBBBBBBBBBBBBBBBBBBBBBBBLBBBBBBBBBBBBBBBBBBBBBBBBBBBBBBBBBBBBBBBBBBBBBBBBBBBBBBBBBBBBBBBBLBBBBBBBBBBBBBBBBBBBBBBBBBBBBBBBBBBBBBBBBBBBBBBBBBBBBBBBBBBBBBBBBL",
"LBBBBBBBBBBBBBBBBBBBBBBBBBBBBBBBBBBBBBBBBBBBBBBBBBBBBBBBBBBBBBBBBLBBBBBBBBBBBBBBBBBBBBBBBBBBBBBBBBBBBBBBBBBBBBBBBBBBBBBBBBBBBBBBBBLBBBBBBBBBBBBBBBBBBBBBBBBBBBBBBBBBBBBBBBBBBBBBBBBBBBBBBBBBBBBBBBBLBBBBBBBBBBBBBBBBBBBBBBBBBBBBBBBBBBBBBBBBBBBBBBBBBBBBBBBBBBBBBBBBLBBBBBBBBBBBBBBBBBBBBBBBBBBBBBBBBBBBBBBBBBBBBBBBBBBBBBBBBBBBBBBBBLBBBBBBBBBBBBBBBBBBBBBBBBBBBBBBBBBBBBBBBBBBBBBBBBBBBBBBBBBBBBBBBBLBBBBBBBBBBBBBBBBBBBBBBBBBBBBBBBBBBBBBBBBBBBBBBBBBBBBBBBBBBBBBBBBLBBBBBBBBBBBBBBBBBBBBBBBBBBBBBBBBBBBBBBBBBBBBBBBBBBBBBBBBBBBBBBBBL",
"LBBBBBBBBBBBBBBBBBBBBBBBBBBBBBBBBBBBBBBBBBBBBBBBBBBBBBBBBBBBBBBBBLBBBBBBBBBBBBBBBBBBBBBBBBBBBBBBBBBBBBBBBBBBBBBBBBBBBBBBBBBBBBBBBBLBBBBBBBBBBBBBBBBBBBBBBBBBBBBBBBBBBBBBBBBBBBBBBBBBBBBBBBBBBBBBBBBLBBBBBBBBBBBBBBBBBBBBBBBBBBBBBBBBBBBBBBBBBBBBBBBBBBBBBBBBBBBBBBBBLBBBBBBBBBBBBBBBBBBBBBBBBBBBBBBBBBBBBBBBBBBBBBBBBBBBBBBBBBBBBBBBBLBBBBBBBBBBBBBBBBBBBBBBBBBBBBBBBiiiiiiiiiBBBBBBBBBBBBBBBBBBBBBBBBLBBBBBBBBBBBBBBBBBBBBBBBBBBBBBBBBBBBBBBBBBBBBBBBBBBBBBBBBBBBBBBBBLBBBBBBBBBBBBBBBBBBBBBBBBBBBBBBBBBBBBBBBBBBBBBBBBBBBBBBBBBBBBBBBBL",
"LBBBBBBBBBBBBBBBBBBBBBBBBBBBBBBBBBBBBBBBBBBBBBBBBBBBBBBBBBBBBBBBBLBBBBBBBBBBBBBBBBBBBBBBBBBBBBBBBBBBBBBBBBBBBBBBBBBBBBBBBBBBBBBBBBLBBBBBBBBBBBBBBBBBBBBBBBBBBBBiiiiiiiiiBBBBBBBBBBBBBBBBBBBBBBBBBBBLBBBBBBBBBBBBBBBBBBBBBBBBBBiiiiiiaaaBBBBBBBBBBBBBBBBBBBBBBBBBBBBBLBBBBBBBBBBBBBBBBBBBBBBBBBBBBBllliiaaaBBBBBBBBBBBBBBBBBBBBBBBBBBBLBBBBBBBBBBBBBBBBBBBBBBBBBBBBBBBiiiiiiiotBBBBBBBBBBBBBBBBBBBBBBBBLBBBBBBBBBBBBBBBBBBBBBBBBBBiiiiiiiiiBBBBBBBBBBBBBBBBBBBBBBBBBBBBBLBBBBBBBBBBBBBBBBBBBBBBBBBBBBBBBBiiiiiiiiiBBBBBBBBBBBBBBBBBBBBBBBL",
"LBBBBBBBBBBBBBBBBBBBBBBBBBBBBaaaaaaaaBBBBBBBBBBBBBBBBBBBBBBBBBBBBLBBBBBBBBBBBBBBBBBBBBBBBBBiiiiiiiiiBBBBBBBBBBBBBBBBBBBBBBBBBBBBBBLBBBBBBBBBBBBBBBBBBBBBBBBBBBBwwtoiiiiiBBBBBBBBBBBBBBBBBBBBBBBBBBBLBBBBBBBBBBBBBBBBBBBBBBBBBBtoiiiiaaaBBBBBBBBBBBBBBBBBBBBBBBBBBBBBLBBBBBBBBBBBBBBBBBBBBBBBBBBBBBlliaaaaaBBBBBBBBBBBBBBBBBBBBBBBBBBBLBBBBBBBBBBBBBBBBBBBBBBBBBBBBBBBiiiiiotDDBBBBBBBBBBBBBBBBBBBBBBBBLBBBBBBBBBBBBBBBBBBBBBBBBBBiiiiiotwwBBBBBBBBBBBBBBBBBBBBBBBBBBBBBLBBBBBBBBBBBBBBBBBBBBBBBBBBBBBBBBiiiiowwwwBBBBBBBBBBBBBBBBBBBBBBBL",
"LBBBBBBBBBBBBBBBBBBBBBBBBBBBBlttttttaBBBBBBBBBBBBBBBBBBBBBBBBBBBBLBBBBBBBBBBBBBBBBBBBBBBBBBwwwwoiiiiBBBBBBBBBBBBBBBBBBBBBBBBBBBBBBLBBBBBBBBBBBBBBBBBBBBBBBBBBBBHQQHtoiiiBBBBBBBBBBBBBBBBBBBBBBBBBBBLBBBBBBBBBBBBBBBBBBBBBBBBBBQHtoiiaaaBBBBBBBBBBBBBBBBBBBBBBBBBBBBBLBBBBBBBBBBBBBBBBBBBBBBBBBBBBBiliaaaaiBBBBBBBBBBBBBBBBBBBBBBBBBBBLBBBBBBBBBBBBBBBBBBBBBBBBBBBBBBBiiiioDwDHBBBBBBBBBBBBBBBBBBBBBBBBLBBBBBBBBBBBBBBBBBBBBBBBBBBiiiotHHHHBBBBBBBBBBBBBBBBBBBBBBBBBBBBBLBBBBBBBBBBBBBBBBBBBBBBBBBBBBBBBBiiioDHKKHBBBBBBBBBBBBBBBBBBBBBBBL",
"LBBBBBBBBBBBBBBBBBBBBBBBBBBBBiDZZQQDiBBBBBBBBBBBBBBBBBBBBBBBBBBBBLBBBBBBBBBBBBBBBBBBBBBBBBBHQQHDoiiiBBBBBBBBBBBBBBBBBBBBBBBBBBBBBBLBBBBBBBBBBBBBBBBBBBBBBBBBBBB44ZQwHHiiBBBBBBBBBBBBBBBBBBBBBBBBBBBLBBBBBBBBBBBBBBBBBBBBBBBBBBZQwHoiaaaBBBBBBBBBBBBBBBBBBBBBBBBBBBBBLBBBBBBBBBBBBBBBBBBBBBBBBBBBBBtliaaaatBBBBBBBBBBBBBBBBBBBBBBBBBBBLBBBBBBBBBBBBBBBBBBBBBBBBBBBBBBBiiiioDDHwBBBBBBBBBBBBBBBBBBBBBBBBLBBBBBBBBBBBBBBBBBBBBBBBBBBii1HwQHQQBBBBBBBBBBBBBBBBBBBBBBBBBBBBBLBBBBBBBBBBBBBBBBBBBBBBBBBBBBBBBBiiHwHQVKVBBBBBBBBBBBBBBBBBBBBBBBL",
"LBBBBBBBBBBBBBBBBBBBBBBBBBBBBt14PZ41tBBBBBBBBBBBBBBBBBBBBBBBBBBBBLBBBBBBBBBBBBBBBBBBBBBBBBB4Q4QHwHiiBBBBBBBBBBBBBBBBBBBBBBBBBBBBBBLBBBBBBBBBBBBBBBBBBBBBBBBBBBBQ0QHHHHiiBBBBBBBBBBBBBBBBBBBBBBBBBBBLBBBBBBBBBBBBBBBBBBBBBBBBBBQHHHoiaaaBBBBBBBBBBBBBBBBBBBBBBBBBBBBBLBBBBBBBBBBBBBBBBBBBBBBBBBBBBBKliaaaaDBBBBBBBBBBBBBBBBBBBBBBBBBBBLBBBBBBBBBBBBBBBBBBBBBBBBBBBBBBBiiitwtDHHBBBBBBBBBBBBBBBBBBBBBBBBLBBBBBBBBBBBBBBBBBBBBBBBBBBii1HHHD0DBBBBBBBBBBBBBBBBBBBBBBBBBBBBBLBBBBBBBBBBBBBBBBBBBBBBBBBBBBBBBBioKHHG0KGBBBBBBBBBBBBBBBBBBBBBBBL",
"LBBBBBBBBBBBBBBBBBBBBBBBBBBBBKV5PDWVKBBBBBBBBBBBBBBBBBBBBBBBBBBBBLBBBBBBBBBBBBBBBBBBBBBBBBBGQ0GHHHoiBBBBBBBBBBBBBBBBBBBBBBBBBBBBBBLBBBBBBBBBBBBBBBBBBBBBBBBBBBQ441QQtwoiBBBBBBBBBBBBBBBBBBBBBBBBBBBLBBBBBBBBBBBBBBBBBBBBBBBBBB1QQtwtiaaBBBBBBBBBBBBBBBBBBBBBBBBBBBBBLBBBBBBBBBBBBBBBBBBBBBBBBBBBBBKliaaatDBBBBBBBBBBBBBBBBBBBBBBBBBBBLBBBBBBBBBBBBBBBBBBBBBBBBBBBBBBBBQPKDwKDDBBBBBBBBBBBBBBBBBBBBBBBBLBBBBBBBBBBBBBBBBBBBBBBBBBBioPPVQQQHHBBBBBBBBBBBBBBBBBBBBBBBBBBBBLBBBBBBBBBBBBBBBBBBBBBBBBBBBBBBBBiowtQKKZHBBBBBBBBBBBBBBBBBBBBBBBL",
"LBBBBBBBBBBBBBBBBBBBBBBBBBBBBK14ZP41KBBBBBBBBBBBBBBBBBBBBBBBBBBBBLBBBBBBBBBBBBBBBBBBBBBBBBBP44ZQtwoiBBBBBBBBBBBBBBBBBBBBBBBBBBBBBBLBBBBBBBBBBBBBBBBBBBBBBBBBBBBPVQ1QwtoBBBBBBBBBBBBBBBBBBBBBBBBBBBBLBBBBBBBBBBBBBBBBBBBBBBBBBBQ1QwttooBBBBBBBBBBBBBBBBBBBBBBBBBBBBBBLBBBBBBBBBBBBBBBBBBBBBBBBBBBBBBQtaatDBBBBBBBBBBBBBBBBBBBBBBBBBBBBLBBBBBBBBBBBBBBBBBBBBBBBBBBBBBBBBQPKDDKDtBBBBBBBBBBBBBBBBBBBBBBBBLBBBBBBBBBBBBBBBBBBBBBBBBBBB1VPV1QPKBBBBBBBBBBBBBBBBBBBBBBBBBBBBBLBBBBBBBBBBBBBBBBBBBBBBBBBBBBBBBBBZQZQKKKwBBBBBBBBBBBBBBBBBBBBBBBL",
"LBBBBBBBBBBBBBBBBBBBBBBBBBBBBBQZVVZQBBBBBBBBBBBBBBBBBBBBBBBBBBBBBLBBBBBBBBBBBBBBBBBBBBBBBBBHZZQQwtoBBBBBBBBBBBBBBBBBBBBBBBBBBBBBBBLBBBBBBBBBBBBBBBBBBBBBBBBBBBBwVKZQDwoBBBBBBBBBBBBBBBBBBBBBBBBBBBBLBBBBBBBBBBBBBBBBBBBBBBBBBBKZQDwtooBBBBBBBBBBBBBBBBBBBBBBBBBBBBBBLBBBBBBBBBBBBBBBBBBBBBBBBBBBBBBQVHKHDBBBBBBBBBBBBBBBBBBBBBBBBBBBBLBBBBBBBBBBBBBBBBBBBBBBBBBBBBBBBBQPKDDHHDBBBBBBBBBBBBBBBBBBBBBBBBLBBBBBBBBBBBBBBBBBBBBBBBBBBB1VPVZKPwBBBBBBBBBBBBBBBBBBBBBBBBBBBBBLBBBBBBBBBBBBBBBBBBBBBBBBBBBBBBBBBZQZQK11tBBBBBBBBBBBBBBBBBBBBBBBL",
"LBBBBBBBBBBBBBBBBBBBBBBBBBBBBBQ3*63KBBBBBBBBBBBBBBBBBBBBBBBBBBBBBLBBBBBBBBBBBBBBBBBBBBBBBBBt**ZQDwoBBBBBBBBBBBBBBBBBBBBBBBBBBBBBBBLBBBBBBBBBBBBBBBBBBBBBBBBBBBBKPZQDDwoBBBBBBBBBBBBBBBBBBBBBBBBBBBBLBBBBBBBBBBBBBBBBBBBBBBBBBBZQDDwmmmBBBBBBBBBBBBBBBBBBBBBBBBBBBBBBLBBBBBBBBBBBBBBBBBBBBBBBBBBBBBdddccccccBBBBBBBBBBBBBBBBBBBBBBBBBBLBBBBBBBBBBBBBBBBBBBBBBBBBBBBBBcdddddccwBBBBBBBBBBBBBBBBBBBBBBBBBLBBBBBBBBBBBBBBBBBBBBBBBBBBB1VPDQZPKBBBBBBBBBBBBBBBBBBBBBBBBBBBBBLBBBBBBBBBBBBBBBBBBBBBBBBBBBBBBBBBQQKZQKDDBBBBBBBBBBBBBBBBBBBBBBBL",
"LBBBBBBBBBBBBBBBBBBBBBBBBBBBddQZ11ZwBBBBBBBBBBBBBBBBBBBBBBBBBBBBBLBBBBBBBBBBBBBBBBBBBBBBBBBHZZQDHtokkBBBBBBBBBBBBBBBBBBBBBBBBBBBBBLBBBBBBBBBBBBBBBBBBBBBBBBBBBBBBDHHDtokBBBBBBBBBBBBBBBBBBBBBBBBBBBLBBBBBBBBBBBBBBBBBBBBBBBBBBBBddccmmmBBBBBBBBBBBBBBBBBBBBBBBBBBBBBLBBBBBBBBBBBBBBBBBBBBBBBBBBBdddddddddcnnBBBBBBBBBBBBBBBBBBBBBBBBBLBBBBBBBBBBBBBBBBBBBBBBBBBBBBBcdddccccclBBBBBBBBBBBBBBBBBBBBBBBBBLBBBBBBBBBBBBBBBBBBBBBBBBBBccltHHDaBBBBBBBBBBBBBBBBBBBBBBBBBBBBBBLBBBBBBBBBBBBBBBBBBBBBBBBBBBBBBBBdoQKHwtdBBBBBBBBBBBBBBBBBBBBBBBBL",
"LBBBBBBBBBBBBBBBBBBBBBBBBBddcdZwHHHwllBBBBBBBBBBBBBBBBBBBBBBBBBBBLBBBBBBBBBBBBBBBBBBBBBBBBBBatwHHtokkBBBBBBBBBBBBBBBBBBBBBBBBBBBBBLBBBBBBBBBBBBBBBBBBBBBBBBBBBBBBVKdddcmaBBBBBBBBBBBBBBBBBBBBBBBBBBLBBBBBBBBBBBBBBBBBBBBBBBBBBdddmmkkiimBBBBBBBBBBBBBBBBBBBBBBBBBBBBLBBBBBBBBBBBBBBBBBBBBBBBBBdddddddcddddcnnBBBBBBBBBBBBBBBBBBBBBBBBLBBBBBBBBBBBBBBBBBBBBBBBBBBBddddddddddddllBBBBBBBBBBBBBBBBBBBBBBBLBBBBBBBBBBBBBBBBBBBBBBBBBBccccclwlBBBBBBBBBBBBBBBBBBBBBBBBBBBBBBLBBBBBBBBBBBBBBBBBBBBBBBBBBBBBBBddotKHwwmcBBBBBBBBBBBBBBBBBBBBBBBL",
"LBBBBBBBBBBBBBBBBBBBBBBBdddddcdZPZPomlnBBBBBBBBBBBBBBBBBBBBBBBBBBLBBBBBBBBBBBBBBBBBBBBBBBBBBdZPHwtokllBBBBBBBBBBBBBBBBBBBBBBBBBBBBLBBBBBBBBBBBBBBBBBBBBBBBBBBBBBBKDdcckiiiBBBBBBBBBBBBBBBBBBBBBBBBBLBBBBBBBBBBBBBBBBBBBBBBBBddddccnnkikkkBBBBBBBBBBBBBBBBBBBBBBBBBBBLBBBBBBBBBBBBBBBBBBBBBBBBdddddddddddddcnldBBBBBBBBBBBBBBBBBBBBBBBLBBBBBBBBBBBBBBBBBBBBBBBBBBdddddcddddddccllBBBBBBBBBBBBBBBBBBBBBBLBBBBBBBBBBBBBBBBBBBBBBBBBccdddcclilBBBBBBBBBBBBBBBBBBBBBBBBBBBBBLBBBBBBBBBBBBBBBBBBBBBBBBBBBBBBdddcotDwoikBBBBBBBBBBBBBBBBBBBBBBBL",
"LBBBBBBBBBBBBBBBBBBBBBBdddddddctfcfllncnBBBBBBBBBBBBBBBBBBBBBBBBBLBBBBBBBBBBBBBBBBBBBBBBBBBddZHDtodccnlBBBBBBBBBBBBBBBBBBBBBBBBBBBLBBBBBBBBBBBBBBBBBBBBBBBBBBBBBBdddddckiiiBBBBBBBBBBBBBBBBBBBBBBBBLBBBBBBBBBBBBBBBBBBBBBBBddcccnnnkkiikkcBBBBBBBBBBBBBBBBBBBBBBBBBBLBBBBBBBBBBBBBBBBBBBBBBBddddddddddcdddcnllBBBBBBBBBBBBBBBBBBBBBBBLBBBBBBBBBBBBBBBBBBBBBBBBBdddddcddddddcddcllBBBBBBBBBBBBBBBBBBBBBLBBBBBBBBBBBBBBBBBBBBBBBBcdddccclkkiBBBBBBBBBBBBBBBBBBBBBBBBBBBBBLBBBBBBBBBBBBBBBBBBBBBBBBBBBBBdddcckkkkkkkkBBBBBBBBBBBBBBBBBBBBBBL",
"LBBBBBBBBBBBBBBBBBBBBBdddcccddcntQtnccccnBBBBBBBBBBBBBBBBBBBBBBBBLBBBBBBBBBBBBBBBBBBQBBBBBccdcdddddddnlBBBBBBBBBBBBBBBBBBBBBBBBBBBLBBBBBBBBBBBBBBBBBBBBBBBBBBBBBddddddckkiiBBBBBBBBBBBBBBBBBBBBBBBBLBBBBBBBBBBBBBBBBBBBBBBdddcnnnnmkiiiiiccBBBBBBBBBBBBBBBBBBBBBBBBBLBBBBBBBBBBBBBBBBBBBBBBddddcddddddcdddcnlldBBBBBBBBBBBBBBBBBBBBBBLBBBBBBBBBBBBBBBBBBBBBBBBddcdddcddddddcdddccBBBBBBBBBBBBBBBBBBBBBLBBBBBBBBBBBBBBBBBBBBBBBccddddddcckiiBBBBBBBBBBBBBBBBBBBBBBBBBBBBLBBBBBBBBBBBBBBBBBBBBBBBBBBBBBddcdcciiiiiiiBBBBBBBBBBBBBBBBBBBBBBL",
"LBBBBBBBBBBBBBBBBBBBBBccccnddddnHiHnGGcdcnBBBBBBBBBBBBBBBBBBBBBBBLBBBBBBBBBBBBBBBBBBlHHHHDttDcdddddddcnlBBBBBBBBBBBBBBBBBBBBBBBBBBLBBBBBBBBBBBBBBBBBQBBBBBBBBBBBddcddccmkkiiBBBBBBBBBBBBBBBBBBBBBBBLBBBBBBBBBBBBBBBBBBBBBHddcnmmlkiiiiiiikcBBBBBBBBBBBBBBBBBBBBBBBBBLBBBBBBBBBBBBBBBBBBBBBBddddcddddddcddccnildBBBBBBBBBBBBBBBBBBBBBBLBBBBBBBBBBBBBBBBBBBBBBBdddcdddcddddccccdcdclBBBBBBBBBBBBBBBBBBBBLBBBBBBBBBBBBBBBBBBBBBBBccddcddddckiiBBBBBBBBBBDBBBBBBBBBBBBBBBBBLBBBBBBBBBBBBBBBBBBBBBBBBBBBBBddcddckkkkiiklBQBBBBBBBBBBBBBBBBBBBL",
"LBBBBBBBBBBBBBBBBBBBBBcckkkddddntookkclddnBBBBBBBBBBBBBBBBBBBBBBBLBBBBBBBBBBBBBBBBBBDtoooooiiccGGcddddnlBBBBBBBBBBBBBBBBBBBBBBBBBBLBBBBBBBBBBBBBBBBBHHHHDDDDDtDcddcddcckkkiiBBBBBBBBBBBBBBBBBBBBBBBLBBBBBBBBBBBBBBBBBBBBBddccnmlkkiiiiiiikccBBBBBBBBBBBBBBBBBBBBBBBBLBBBBBBBBBBBBBBBBBBBBBddddcccdddddccccnnillBBBBBBBBBBBBBBBBBBBBBBLBBBBBBBBBBBBBBBBBBBBBBBdccldddcdddddccccccclcBBBBBBBBBBBBBBBBBBBLBBBBBBBBBBBBBBBBBBBBBBccddcccdddckiitltttttttttBBBBBBBBBBBBBBBBBLBBBBBBBBBBBBBBBBBBBBBBBBBBBBBddcddckktltttwDlBBBBBBBBBBBBBBBBBBBL",
"LBBBBBBBBBBBBBBBBBBBBBdcnnccddcP3aHikkkddcnBBBBBBBBBBBBBBBBBBBBBBLBBBBBBBBBBBBBBBBBBBBBiHiaHwHwccccdddcnlBBBBBBBBBBBBBBBBBBBBBBBBBLBBBBBBBBBBBBBBBBBDtooooooollmdcddccmkkkiicBBBBBBBBBBBBBBBBBBBBBBLBBBBBBBBBBBBBBBBBBBBBdccmmlkkkiiiiiiikccBBBBBBBBBBBBBBBBBBBBBBBBLBBBBBBBBBBBBBBBBBBBBBddddclddddddcccnnnillBBBBBBBBBBBBBBBBBBBBBBLBBBBBBBBBBBBBBBBBBBBBBBdcllddddcddddclcccllllBBBBBBBBBBBBBBBBBBBLBBBBBBBBBBBBBBBBBBBBBBckddcddcdddciilllllllllooBBBBBBBBBBBBBBBBBLBBBBBBBBBBBBBBBBBBBBBBBBBBBBBddcddckkiiooooooBBBBBBBBBBBBBBBBBBBL",
"LBBBBBBBBBBBBBBBBBBBBBdcnncccccPHaliiicnnnnBBBBBBBBBBBBBBBBBBBBBBLBBBBBBBBBBBBBBBBBBBBBBiDolttollncndddnnBBBBBBBBBBBBBBBBBBBBBBBBBLBBBBBBBBBBBBBBBBBBBBBiHiiHwodddddcmkkkiiicBBBBBBBBBBBBBBBBBBBBBBLBBBBBBBBBBBBBBBBBBBBdcmmmlkkkkkiiiiiikkkBBBBBBBBBBBBBBBBBBBBBBBBLBBBBBBBBBBBBBBBBBBBBBdddcllddddddcccnnlillBBBBBBBBBBBBBBBBBBBBBBLBBBBBBBBBBBBBBBBBBBBBBBdcllcdddcdddccliccllliBBBBBBBBBBBBBBBBBBBLBBBBBBBBBBBBBBBBBBBBBcckddcddddddciHowHiiHiBBBBBBBBBBBBBBBBBBBBBLBBBBBBBBBBBBBBBBBBBBBBBBBBBBBddcddcotwHaiHiBBBBBBBBBBBBBBBBBBBBBL",
"LBBBBBBBBBBBBBBBBBBBBBdccnBccccPPwiiiiddcnnBBBBBBBBBBBBBBBBBBBBBBLBBBBBBBBBBBBBBBBBBBBBB1QHalliikkdddccnnBBBBBBBBBBBBBBBBBBBBBBBBBLBBBBBBBBBBBBBBBBBBBBBBiHtiadddddcmkkikiiicBBBBBBBBBBBBBBBBBBBBBBLBBBBBBBBBBBBBBBBBBBHdcmmlmmllkkiiiiiikkkBBBBBBBBBBBBBBBBBBBBBBBBLBBBBBBBBBBBBBBBBBBBBBccclllcdcdddccnnllillBBBBBBBBBBBBBBBBBBBBBBLBBBBBBBBBBBBBBBBBBBBBBBBdlllcddcddcdcliBllliiBBBBBBBBBBBBBBBBBBBLBBBBBBBBBBBBBBBBBBBBBckkkddcccddddcwtaitHiBBBBBBBBBBBBBBBBBBBBBBLBBBBBBBBBBBBBBBBBBBBBBBBBBBBBddddccottloDikBBBBBBBBBBBBBBBBBBBBBL",
"LBBBBBBBBBBBBBBBBBBBBBdccnBcccctt*tiicddcnnBBBBBBBBBBBBBBBBBBBBBBLBBBBBBBBBBBBBBBBBBBBB11QHaiiiidddcdccnnBBBBBBBBBBBBBBBBBBBBBBBBBLBBBBBBBBBBBBBBBBBBBB33VVtiddccccckkiiiiiicBBBBBBBBBBBBBBBBBBBBBBLBBBBBBBBBBBBBBBBBBHHddmmBdmllkiiiiiikkkBBBBBBBBBBBBBBBBBBBBBBBBBLBBBBBBBBBBBBBBBBBBBBBBcllllccddddccnnliilBBBBBBBBBBBBBBBBBBBBBBBLBBBBBBBBBBBBBBBBBBBBBBBBclllcdddddddcliBBliiiotBBBBBBBBBBBBBBBBBLBBBBBBBBBBBBBBBBBBBBBBckkdddcddccllclaitPBHBBBBBBBBBBBBBBBBBBBBBLBBBBBBBBBBBBBBBBBBBBBBBBBBBBBdcdddccllaQDmkBDDBBBBBBBBBBBBBBBBBBL",
"LBBBBBBBBBBBBBBBBBBBBBH*PBBccccn*11tQQdccnnBBBBBBBBBBBBBBBBBBBBBBLBBBBBBBBBBBBBBBBBBBBB1BBaaaccKKDcccnnlBBBBBBBBBBBBBBBBBBBBBBBBBBLBBBBBBBBBBBBBBBBBBBBB33VKKddcccmmkkiiiiiiBBBBBBBBBBBBBBBBBBBBBBBLBBBBBBBBBBBBBBBBBBBBdmmmBBcmmlkiiiiiikBBBBBBBBBBBBBBBBBBBBBBBBBBLBBBBBBBBBBBBBBBBBBBBBBcllllcddddcccnnnlldBBBBBBBBBBBBBBBBBBBBBBBLBBBBBBBBBBBBBBBBBBBBBBBBBttBcddcddddcliiBBtoootBBBBBBBBBBBBBBBBBLBBBBBBBBBBBBBBBBBBBBBBcckcddccdcllllkaioDHKQBBBBBBBBBBBBBBBBBBBBLBBBBBBBBBBBBBBBBBBBBBBBBBBBBBdccccccccaQDmDDDDPBBBBBBBBBBBBBBBBBL",
"LBBBBBBBBBBBBBBBBBBBBBH**BBddddc*111QHHnnnBBBBBBBBBBBBBBBBBBBBBBBLBBBBBBBBBBBBBBBBBBBBBBBBP1111KKKcnnllkBBBBBBBBBBBBBBBBBBBBBBBBBBLBBBBBBBBBBBBBBBBBBBBBBBKKwccccmkkkkiiiiiBBBBBBBBBBBBBBBBBBBBBBBBLBBBBBBBBBBBBBBBBBBBBBdBBBBcmmlkiiiiiiBBBBBBBBBBBBBBBBBBBBBBBBBBBLBBBBBBBBBBBBBBBBBBBBBBBllBnccdddddcccnllBBBBBBBBBBBBBBBBBBBBBBBBLBBBBBBBBBBBBBBBBBBBBBBBBBBBBdddddddcckiiBBBttotBBBBBBBBBBBBBBBBBLBBBBBBBBBBBBBBBBBBBBBBBccddcclccllkkkwwaHKQQBBBBBBBBBBBBBBBBBBBBLBBBBBBBBBBBBBBBBBBBBBBBBBBBBBddcmmmmcccwwDDDPPBBBBBBBBBBBBBBBBBBL",
"LBBBBBBBBBBBBBBBBBBBBBH**Bdcccccc*PHHHHnnBBBBBBBBBBBBBBBBBBBBBBBBLBBBBBBBBBBBBBBBBBBBBBBBP111PdDDDclllkkkBBBBBBBBBBBBBBBBBBBBBBBBBLBBBBBBBBBBBBBBBBBBBBBBBKwwccmkkmmkkkkiiiBBBBBBBBBBBBBBBBBBBBBBBBLBBBBBBBBBBBBBBBBBBBBBBBBBdcmmlkiiiiiiBBBBBBBBBBBBBBBBBBBBBBBBBBBLBBBBBBBBBBBBBBBBBBBBBBBBBBncdddcddddccnlBBBBBBBBBBBBBBBBBBBBBBBBLBBBBBBBBBBBBBBBBBBBBBBBBBBBBddccccdclkiiBBBBBDtBBBBBBBBBBBBBBBBBLBBBBBBBBBBBBBBBBBBBBBBBccddcclkkikkkkwwHKQQBBBBBBBBBBBBBBBBBBBBBLBBBBBBBBBBBBBBBBBBBBBBBBBBBBdddccmmmmmmwwwBPBBBBBBBBBBBBBBBBBBBBL",
"LBBBBBBBBBBBBBBBBBBBBBBB*BcddddddclnHHwcBBBBBBBBBBBBBBBBBBBBBBBBBLBBBBBBBBBBBBBBBBBBBBBBBBBBdddddccnnlkkkBBBBBBBBBBBBBBBBBBBBBBBBBLBBBBBBBBBBBBBBBBBBBBBBBBoocckmkmmkkkkkiiBBBBBBBBBBBBBBBBBBBBBBBBLBBBBBBBBBBBBBBBBBBBBBBBBBdcmmlkiiiiiiBBBBBBBBBBBBBBBBBBBBBBBBBBBLBBBBBBBBBBBBBBBBBBBBBBBBBBccdddcdddddcnlBBBBBBBBBBBBBBBBBBBBBBBBLBBBBBBBBBBBBBBBBBBBBBBBBBBBBddcddddclkiiBBBBBBBBBBBBBBBBBBBBBBBBLBBBBBBBBBBBBBBBBBBBBBBBBcddcclkkiiiktttBBQBBBBBBBBBBBBBBBBBBBBBBLBBBBBBBBBBBBBBBBBBBBBBBBBBBdcddccmmmmmottoBBBBBBBBBBBBBBBBBBBBBBL",
"LBBBBBBBBBBBBBBBBBBBBBBBBBddcclllllnnnliBBBBBBBBBBBBBBBBBBBBBBBBBLBBBBBBBBBBBBBBBBBBBBBBBBBBdcckcicnnlkkkBBBBBBBBBBBBBBBBBBBBBBBBBLBBBBBBBBBBBBBBBBBBBBBBBBBBBBcmkmmmkkkkiiBBBBBBBBBBBBBBBBBBBBBBBBLBBBBBBBBBBBBBBBBBBBBBBBBBdcmmlkiiiiiiBBBBBBBBBBBBBBBBBBBBBBBBBBBLBBBBBBBBBBBBBBBBBBBBBBBBBBcdddccdddddcnlBBBBBBBBBBBBBBBBBBBBBBBBLBBBBBBBBBBBBBBBBBBBBBBBBBBBBddcccccllkiiBBBBBBBBBBBBBBBBBBBBBBBBLBBBBBBBBBBBBBBBBBBBBBBBBdddcclkkiiiBoooBBBBBBBBBBBBBBBBBBBBBBBBBLBBBBBBBBBBBBBBBBBBBBBBBBBBBddccccliiiiotooBBBBBBBBBBBBBBBBBBBBBBL",
"LBBBBBBBBBBBBBBBBBBBBBBBBBccdddccliiiiliBBBBBBBBBBBBBBBBBBBBBBBBBLBBBBBBBBBBBBBBBBBBBBBBBBBBcddckickklliiBBBBBBBBBBBBBBBBBBBBBBBBBLBBBBBBBBBBBBBBBBBBBBBBBBBBBBddkmmmkkkkiiBBBBBBBBBBBBBBBBBBBBBBBBLBBBBBBBBBBBBBBBBBBBBBBBBBdcmkkkkkkiiBBBBBBBBBBBBBBBBBBBBBBBBBBBBLBBBBBBBBBBBBBBBBBBBBBBBBBBcccclcccclllnlBBBBBBBBBBBBBBBBBBBBBBBBLBBBBBBBBBBBBBBBBBBBBBBBBBBBBBlcdddliiiiiBBBBBBBBBBBBBBBBBBBBBBBBLBBBBBBBBBBBBBBBBBBBBBBBBdcccccckiiiBBBBBBBBBBBBBBBBBBBBBBBBBBBBBLBBBBBBBBBBBBBBBBBBBBBBBBBBBddlcclkiiiiiikBBBBBBBBBBBBBBBBBBBBBBBL",
"LBBBBBBBBBBBBBBBBBBBBBBBBBccdddddcllllliBBBBBBBBBBBBBBBBBBBBBBBBBLBBBBBBBBBBBBBBBBBBBBBBBBBBddddciikkiiikBBBBBBBBBBBBBBBBBBBBBBBBBLBBBBBBBBBBBBBBBBBBBBBBBBBBBBdckmmmkkiihhBBBBBBBBBBBBBBBBBBBBBBBBLBBBBBBBBBBBBBBBBBBBBBBBBBBckkmkkkkiBBBBBBBBBBBBBBBBBBBBBBBBBBBBBLBBBBBBBBBBBBBBBBBBBBBBBBBBnllllccddccllBBBBBBBBBBBBBBBBBBBBBBBBBLBBBBBBBBBBBBBBBBBBBBBBBBBBBBBddddddclkiBBBBBBBBBBBBBBBBBBBBBBBBBLBBBBBBBBBBBBBBBBBBBBBBBBBdddckkiiiiiBBBBBBBBBBBBBBBBBBBBBBBBBBBBLBBBBBBBBBBBBBBBBBBBBBBBBBBBddclkiiiiikkkkBBBBBBBBBBBBBBBBBBBBBBBL",
"LBBBBBBBBBBBBBBBBBBBBBBBBBccdddddcllllkiBBBBBBBBBBBBBBBBBBBBBBBBBLBBBBBBBBBBBBBBBBBBBBBBBBBBddddccllllllkkBBBBBBBBBBBBBBBBBBBBBBBBLBBBBBBBBBBBBBBBBBBBBBBBBBBBddckkkkkmkkihBBBBBBBBBBBBBBBBBBBBBBBBLBBBBBBBBBBBBBBBBBBBBBBBBBccdccmmmkiBBBBBBBBBBBBBBBBBBBBBBBBBBBBBLBBBBBBBBBBBBBBBBBBBBBBBBBBcllllcddddcllBBBBBBBBBBBBBBBBBBBBBBBBBLBBBBBBBBBBBBBBBBBBBBBBBBBBBBBBddddclkiiBBBBBBBBBBBBBBBBBBBBBBBBBLBBBBBBBBBBBBBBBBBBBBBBBBBdddcclkkkiiBBBBBBBBBBBBBBBBBBBBBBBBBBBBLBBBBBBBBBBBBBBBBBBBBBBBBBBddccmlkkiikkklkBBBBBBBBBBBBBBBBBBBBBBBL",
"LBBBBBBBBBBBBBBBBBBBBBBBBBcddddddcklllkiBBBBBBBBBBBBBBBBBBBBBBBBBLBBBBBBBBBBBBBBBBBBBBBBBBBdddddccnnnnnlkiBBBBBBBBBBBBBBBBBBBBBBBBLBBBBBBBBBBBBBBBBBBBBBBBBBBBdccncccmmkkihBBBBBBBBBBBBBBBBBBBBBBBBLBBBBBBBBBBBBBBBBBBBBBBBBBccddcmmmkiBBBBBBBBBBBBBBBBBBBBBBBBBBBBBLBBBBBBBBBBBBBBBBBBBBBBBBBBcllllcddddcllBBBBBBBBBBBBBBBBBBBBBBBBBLBBBBBBBBBBBBBBBBBBBBBBBBBBBBBBddddclkiiBBBBBBBBBBBBBBBBBBBBBBBBBLBBBBBBBBBBBBBBBBBBBBBBBBddddcclkkkiiiBBBBBBBBBBBBBBBBBBBBBBBBBBBLBBBBBBBBBBBBBBBBBBBBBBBBBBddcnlkkkiiklllkBBBBBBBBBBBBBBBBBBBBBBBL",
"LBBBBBBBBBBBBBBBBBBBBBBBBBcddddddckllkkBBBBBBBBBBBBBBBBBBBBBBBBBBLBBBBBBBBBBBBBBBBBBBBBBBBBdddddclnnnnnllkBBBBBBBBBBBBBBBBBBBBBBBBLBBBBBBBBBBBBBBBBBBBBBBBBBBddccnddccnmkihhBBBBBBBBBBBBBBBBBBBBBBBLBBBBBBBBBBBBBBBBBBBBBBBBBccddccmkkkiBBBBBBBBBBBBBBBBBBBBBBBBBBBBLBBBBBBBBBBBBBBBBBBBBBBBBBBcnllldddddcllBBBBBBBBBBBBBBBBBBBBBBBBBLBBBBBBBBBBBBBBBBBBBBBBBBBBBBBdddddclkiiBBBBBBBBBBBBBBBBBBBBBBBBBLBBBBBBBBBBBBBBBBBBBBBBBBddddcllkkiiiiBBBBBBBBBBBBBBBBBBBBBBBBBBBLBBBBBBBBBBBBBBBBBBBBBBBBBBddcmlkkiiikcllkkBBBBBBBBBBBBBBBBBBBBBBL",
"LBBBBBBBBBBBBBBBBBBBBBBBBBcddddddckkkkiBBBBBBBBBBBBBBBBBBBBBBBBBBLBBBBBBBBBBBBBBBBBBBBBBBBBdddddclnnnnnnlkBBBBBBBBBBBBBBBBBBBBBBBBLBBBBBBBBBBBBBBBBBBBBBBBBBBddcccndcccmkkihBBBBBBBBBBBBBBBBBBBBBBBLBBBBBBBBBBBBBBBBBBBBBBBBccccdccmmkkiBBBBBBBBBBBBBBBBBBBBBBBBBBBBLBBBBBBBBBBBBBBBBBBBBBBBBBBBcnlldddddclBBBBBBBBBBBBBBBBBBBBBBBBBBLBBBBBBBBBBBBBBBBBBBBBBBBBBBBBddddccliiiiBBBBBBBBBBBBBBBBBBBBBBBBLBBBBBBBBBBBBBBBBBBBBBBBddddccllkkiiiiiBBBBBBBBBBBBBBBBBBBBBBBBBBLBBBBBBBBBBBBBBBBBBBBBBBBBBdcmlkkkikiiklllkBBBBBBBBBBBBBBBBBBBBBBL",
"LBBBBBBBBBBBBBBBBBBBBBBBBBcdddddcnkkkkkBBBBBBBBBBBBBBBBBBBBBBBBBBLBBBBBBBBBBBBBBBBBBBBBBBBBddddccllnnnnnllkBBBBBBBBBBBBBBBBBBBBBBBLBBBBBBBBBBBBBBBBBBBBBBBBBddccccnddccmkkihBBBBBBBBBBBBBBBBBBBBBBBLBBBBBBBBBBBBBBBBBBBBBBBBcmmcddcmmkkiiBBBBBBBBBBBBBBBBBBBBBBBBBBBLBBBBBBBBBBBBBBBBBBBBBBBBBBBcnllcdddcclBBBBBBBBBBBBBBBBBBBBBBBBBBLBBBBBBBBBBBBBBBBBBBBBBBBBBBBBcccdccliiiiBBBBBBBBBBBBBBBBBBBBBBBBLBBBBBBBBBBBBBBBBBBBBBBBddddccllkikiiiiBBBBBBBBBBBBBBBBBBBBBBBBBBLBBBBBBBBBBBBBBBBBBBBBBBBBddcllkkkBkiikcllkBBBBBBBBBBBBBBBBBBBBBBL",
"LBBBBBBBBBBBBBBBBBBBBBBBBBcddddddikkkkkiBBBBBBBBBBBBBBBBBBBBBBBBBLBBBBBBBBBBBBBBBBBBBBBBBBBddddccllnnnnnllkiBBBBBBBBBBBBBBBBBBBBBBLBBBBBBBBBBBBBBBBBBBBBBBBBddcccnmmddcmkihhhBBBBBBBBBBBBBBBBBBBBBBLBBBBBBBBBBBBBBBBBBBBBBBBccmmcdcckkiiiBBBBBBBBBBBBBBBBBBBBBBBBBBBLBBBBBBBBBBBBBBBBBBBBBBBBBBBccllcccccllBBBBBBBBBBBBBBBBBBBBBBBBBBLBBBBBBBBBBBBBBBBBBBBBBBBBBBBddddcccliaiiBBBBBBBBBBBBBBBBBBBBBBBBLBBBBBBBBBBBBBBBBBBBBBBlcddccllkklkiiiiiBBBBBBBBBBBBBBBBBBBBBBBBBLBBBBBBBBBBBBBBBBBBBBBBBBddcdckkkkBkiiicclkBBBBBBBBBBBBBBBBBBBBBBL",
"LBBBBBBBBBBBBBBBBBBBBBBBBBddccccdnkkkkkiBBBBBBBBBBBBBBBBBBBBBBBBBLBBBBBBBBBBBBBBBBBBBBBBBBdddddcliiBnnnnnnkiBBBBBBBBBBBBBBBBBBBBBBLBBBBBBBBBBBBBBBBBBBBBBBBBdddcnmmkcccmcckihhBBBBBBBBBBBBBBBBBBBBBLBBBBBBBBBBBBBBBBBBBBBBBBccmmcdddmmmmiBBBBBBBBBBBBBBBBBBBBBBBBBBBLBBBBBBBBBBBBBBBBBBBBBBBBBBBnnllcdddcclBBBBBBBBBBBBBBBBBBBBBBBBBBLBBBBBBBBBBBBBBBBBBBBBBBBBBBBdddddclkiaiiBBBBBBBBBBBBBBBBBBBBBBBBLBBBBBBBBBBBBBBBBBBBBBdclcccllkkclkkiiiiBBBBBBBBBBBBBBBBBBBBBBBBBLBBBBBBBBBBBBBBBBBBBBBBBBdcclkkkkBBBkikccckkBBBBBBBBBBBBBBBBBBBBBL",
"LBBBBBBBBBBBBBBBBBBBBBBBBBdccccccnkkkkiBBBBBBBBBBBBBBBBBBBBBBBBBBLBBBBBBBBBBBBBBBBBBBBBBBBdcccddclBBnnnnllikaBBBBBBBBBBBBBBBBBBBBBLBBBBBBBBBBBBBBBBBBBBBBBBdccmmmkkkBccccmkhhhhBBBBBBBBBBBBBBBBBBBBLBBBBBBBBBBBBBBBBBBBBBBBBccmmmdcmcccmkiBBBBBBBBBBBBBBBBBBBBBBBBBBLBBBBBBBBBBBBBBBBBBBBBBBBBBBBnlldddddclBBBBBBBBBBBBBBBBBBBBBBBBBBLBBBBBBBBBBBBBBBBBBBBBBBBBBBcdddcclkiiaiaBBBBBBBBBBBBBBBBBBBBBBBBLBBBBBBBBBBBBBBBBBBBBdddcccllkkBcllkiiiiBBBBBBBBBBBBBBBBBBBBBBBBBLBBBBBBBBBBBBBBBBBBBBBBBBacmlkkkkBBBBicciiikBBBBBBBBBBBBBBBBBBBBBL",
"LBBBBBBBBBBBBBBBBBBBBBBBBBBdccccnliiiiaBBBBBBBBBBBBBBBBBBBBBBBBBBLBBBBBBBBBBBBBBBBBBBBBBBBccccccllBBBllkkiiaaBBBBBBBBBBBBBBBBBBBBBLBBBBBBBBBBBBBBBBBBBBBBBBdcccnmmkBBBccmkiihhaBBBBBBBBBBBBBBBBBBBBLBBBBBBBBBBBBBBBBBBBBBBBBkiaaaammcccmiiBBBBBBBBBBBBBBBBBBBBBBBBBBLBBBBBBBBBBBBBBBBBBBBBBBBBBBBiiaddddcclBBBBBBBBBBBBBBBBBBBBBBBBBBLBBBBBBBBBBBBBBBBBBBBBBBBBBBccccclkkiaaaaBBBBBBBBBBBBBBBBBBBBBBBBLBBBBBBBBBBBBBBBBBBBBcccccllkkkBcllkkiiiiBBBBBBBBBBBBBBBBBBBBBBBBLBBBBBBBBBBBBBBBBBBBBBBBaaallkkkBBBBlkiiiiiiBBBBBBBBBBBBBBBBBBBBBL",
"LBBBBBBBBBBBBBBBBBBBBBBBBBBdlllllaaaaaaBBBBBBBBBBBBBBBBBBBBBBBBBBLBBBBBBBBBBBBBBBBBBBBBBBBBcccclllBBBBkkiiiaaBBBBBBBBBBBBBBBBBBBBBLBBBBBBBBBBBBBBBBBBBBBBBBdcccnmmkBBBBmmmmkiaaaBBBBBBBBBBBBBBBBBBBLBBBBBBBBBBBBBBBBBBBBBBBkiihaaaBkmmaiiaBBBBBBBBBBBBBBBBBBBBBBBBBBLBBBBBBBBBBBBBBBBBBBBBBBBBBBBiiaccccclBBBBBBBBBBBBBBBBBBBBBBBBBBBLBBBBBBBBBBBBBBBBBBBBBBBBBBBoolakkiiaaaaaBBBBBBBBBBBBBBBBBBBBBBBBLBBBBBBBBBBBBBBBBBBBBaallllkkkBBBcllkkiiiBBBBBBBBBBBBBBBBBBBBBBBBLBBBBBBBBBBBBBBBBBBBBBBBaaaaaaaBBBBBkkiiiiiiBBBBBBBBBBBBBBBBBBBBBL",
"LBBBBBBBBBBBBBBBBBBBBBBBBBBaaaaaaaaaaaBBBBBBBBBBBBBBBBBBBBBBBBBBBLBBBBBBBBBBBBBBBBBBBBBBBBaaaaaaaBBBBBBaaaaaaiiBBBBBBBBBBBBBBBBBBBLBBBBBBBBBBBBBBBBBBBBBBBBhhhhhkkBBBBBBmmmaaaaaBBBBBBBBBBBBBBBBBBBLBBBBBBBBBBBBBBBBBBBBBBBkihhaaaBkkaikkiiBBBBBBBBBBBBBBBBBBBBBBBBBLBBBBBBBBBBBBBBBBBBBBBBBBBBBBiialoiaalBBBBBBBBBBBBBBBBBBBBBBBBBBBLBBBBBBBBBBBBBBBBBBBBBBBBBBoooliaiiaaaaaaBBBBBBBBBBBBBBBBBBBBBBBBLBBBBBBBBBBBBBBBBBBBllhalkkkkBBBBBclihaaaBBBBBBBBBBBBBBBBBBBBBBBBLBBBBBBBBBBBBBBBBBBBBBaaaaaaaaBBBBBBBliiiiiaBBBBBBBBBBBBBBBBBBBBBL",
"LBBBBBBBBBBBBBBBBBBBBBBBBBBilliaaaiaaaBBBBBBBBBBBBBBBBBBBBBBBBBBBLBBBBBBBBBBBBBBBBBBBBBBBBnnkiaaaBBBBBBBaaaaaaaBBBBBBBBBBBBBBBBBBBLBBBBBBBBBBBBBBBBBBBBBBBBiihhaaaBBBBBBBaaaaaaaaBBBBBBBBBBBBBBBBBBLBBBBBBBBBBBBBBBBBBBBBBBkkhaaaBBBaaiaaaaBBBBBBBBBBBBBBBBBBBBBBBBBLBBBBBBBBBBBBBBBBBBBBBBBBBBBBaaalliaaaBBBBBBBBBBBBBBBBBBBBBBBBBBBLBBBBBBBBBBBBBBBBBBBBBBBBBBaalliaaiaiaaaaBBBBBBBBBBBBBBBBBBBBBBBBLBBBBBBBBBBBBBBBBBBllliaaaaBBBBBBBiaaaaaaBBBBBBBBBBBBBBBBBBBBBBBBLBBBBBBBBBBBBBBBBBBBBBaaaaaaBBBBBBBBBaaaaaaaBBBBBBBBBBBBBBBBBBBBBL",
"LBBBBBBBBBBBBBBBBBBBBBBBBBBilliaaaiaaaBBBBBBBBBBBBBBBBBBBBBBBBBBBLBBBBBBBBBBBBBBBBBBBBBBBBnnkiaaBBBBBBBBBaaaaaaBBBBBBBBBBBBBBBBBBBLBBBBBBBBBBBBBBBBBBBBBBBBiihaaaBBBBBBBBBaaaaaaaaaBBBBBBBBBBBBBBBBLBBBBBBBBBBBBBBBBBBBBBBBaaaaaaBBBBaaaikkBBBBBBBBBBBBBBBBBBBBBBBBBLBBBBBBBBBBBBBBBBBBBBBBBBBBBBBaaaaaaaaBBBBBBBBBBBBBBBBBBBBBBBBBBBLBBBBBBBBBBBBBBBBBBBBBBBBBoolaiaaaBBiiiaaBBBBBBBBBBBBBBBBBBBBBBBBLBBBBBBBBBBBBBBBBBBhiiiaaaBBBBBBBBiiiiaaaBBBBBBBBBBBBBBBBBBBBBBBBLBBBBBBBBBBBBBBBBBBBBBaaaaaaBBBBBBBBBaaaaaaaBBBBBBBBBBBBBBBBBBBBBL",
"LBBBBBBBBBBBBBBBBBBBBBBBBBBBlliaaaaaaaBBBBBBBBBBBBBBBBBBBBBBBBBBBLBBBBBBBBBBBBBBBBBBBBBBBBkkkiaaBBBBBBBBBBaaaaaBBBBBBBBBBBBBBBBBBBLBBBBBBBBBBBBBBBBBBBBBBBBiihaaaBBBBBBBBBBaaaaaaaaaBBBBBBBBBBBBBBBLBBBBBBBBBBBBBBBBBBBBBkkihaaaBBBBBaaahkiiaBBBBBBBBBBBBBBBBBBBBBBBLBBBBBBBBBBBBBBBBBBBBBBBBBBBBBialoiaaBBBBBBBBBBBBBBBBBBBBBBBBBBBBLBBBBBBBBBBBBBBBBBBBBBBBBooolaaaaBBBaaaaaiiaBBBBBBBBBBBBBBBBBBBBBLBBBBBBBBBBBBBBBBllhaaaaaBBBBBBBBBBiiiaaaBBBBBBBBBBBBBBBBBBBBBBBBLBBBBBBBBBBBBBBBBBBBBBaaaaaaBBBBBBBBBaaaaaaaBBBBBBBBBBBBBBBBBBBBBL",
"LBBBBBBBBBBBBBBBBBBBBBBBBBBBaaaaaBaaaaBBBBBBBBBBBBBBBBBBBBBBBBBBBLBBBBBBBBBBBBBBBBBBBBBBBBaaaaaBBBBBBBBBBBniaaaBBBBBBBBBBBBBBBBBBBLBBBBBBBBBBBBBBBBBBBBBBBiihhaaBBBBBBBBBBBBBaaaaaaaBBBBBBBBBBBBBBBLBBBBBBBBBBBBBBBBBBBBBkiihaaaBBBBBBaaaaaiiBBBBBBBBBBBBBBBBBBBBBBBLBBBBBBBBBBBBBBBBBBBBBBBBBBBBBiilliiaBBBBBBBBBBBBBBBBBBBBBBBBBBBBLBBBBBBBBBBBBBBBBBBBBBBBBialiaaaBBBBBiaaaaaaBBBBBBBBBBBBBBBBBBBBBLBBBBBBBBBBBBBBBllliaaaBBBBBBBBBBBBBiaaaaBBBBBBBBBBBBBBBBBBBBBBBBLBBBBBBBBBBBBBBBBBBBBBaaaaaaaBBBBBBBBBaaaaaBBBBBBBBBBBBBBBBBBBBBBL",
"LBBBBBBBBBBBBBBBBBBBBBBBBBBBBaaaaBBBBBBBBBBBBBBBBBBBBBBBBBBBBBBBBLBBBBBBBBBBBBBBBBBBBBBBBBaaaaaBBBBBBBBBBaaaaaaBBBBBBBBBBBBBBBBBBBLBBBBBBBBBBBBBBBBBBBBBBBiaaaaaBBBBBBBBBBBBBBaaaaaaBBBBBBBBBBBBBBBLBBBBBBBBBBBBBBBBBBBBBaahhaaaBBBBBBBaaaaiiBBBBBBBBBBBBBBBBBBBBBBBLBBBBBBBBBBBBBBBBBBBBBBBBBBBBBaiiiiiaBBBBBBBBBBBBBBBBBBBBBBBBBBBBLBBBBBBBBBBBBBBBBBBBBBBBBiiaaaBBBBBBBiaaaaaaBBBBBBBBBBBBBBBBBBBBBLBBBBBBBBBBBBBBBiiiiaaBBBBBBBBBBBBBBaaaaaBBBBBBBBBBBBBBBBBBBBBBBBLBBBBBBBBBBBBBBBBBBBBBBaaaaaaBBBBBBBBBaaaaaaBBBBBBBBBBBBBBBBBBBBBL",
"LBBBBBBBBBBBBBBBBBBBBBBBBBBBalliaaBBBBBBBBBBBBBBBBBBBBBBBBBBBBBBBLBBBBBBBBBBBBBBBBBBBBBBBnnnkiaaBBBBBBBBBaaaaaBBBBBBBBBBBBBBBBBBBBLBBBBBBBBBBBBBBBBBBBBBiiiihhaaaBBBBBBBBBBBBiihaaaBBBBBBBBBBBBBBBBLBBBBBBBBBBBBBBBBBBBBBBaaaaaaBBBBBBhhaaiiiBBBBBBBBBBBBBBBBBBBBBBBLBBBBBBBBBBBBBBBBBBBBBBBBBBBBBBaaaaiaaBBBBBBBBBBBBBBBBBBBBBBBBBBBLBBBBBBBBBBBBBBBBBBBBBBBBiiiaaaaBBBBBaaaaaBBBBBBBBBBBBBBBBBBBBBBBLBBBBBBBBBBBBBBBhhhaaaBBBBBBBBBBBBBiiiaaaaaBBBBBBBBBBBBBBBBBBBBBBLBBBBBBBBBBBBBBBBBBBBBBBaaaaaBBBBBBBBBaaaaaaaBBBBBBBBBBBBBBBBBBBBL",
"LBBBBBBBBBBBBBBBBBBBBBBBBBBolliiaaoBBBBBBBBBBBBBBBBBBBBBBBBBBBBBBLBBBBBBBBBBBBBBBBBBBBBBnnnkiaaaBBBBBBBBBBBBBBBBBBBBBBBBBBBBBBBBBBLBBBBBBBBBBBBBBBBBBBiihhhhhaaaaBBBBBBBBBBiihhaaaaBBBBBBBBBBBBBBBBLBBBBBBBBBBBBBBBBBBBBBBBBBBBBBBBBBBhhaaiiBBBBBBBBBBBBBBBBBBBBBBBBLBBBBBBBBBBBBBBBBBBBBBBBBBBBBBBlllaaaaBBBBBBBBBBBBBBBBBBBBBBBBBBBLBBBBBBBBBBBBBBBBBBBBBBBBiiiaaaaBBBBBBBBBBBBBBBBBBBBBBBBBBBBBBBBBLBBBBBBBBBBBBBBBBaaaaaaaBBBBBBBBBBBiiiaaaaaaaBBBBBBBBBBBBBBBBBBBBLBBBBBBBBBBBBBBBBBBBBBBBBBBBBBBBBBBBBBbaaaaaaaBBBBBBBBBBBBBBBBBBBL",
"LBBBBBBBBBBBBBBBBBBBBBBBBBBoaiiaaaoBBBBBBBBBBBBBBBBBBBBBBBBBBBBBBLBBBBBBBBBBBBBBBBBBBBBaiiiailooBBBBBBBBBBBBBBBBBBBBBBBBBBBBBBBBBBLBBBBBBBBBBBBBBBBBBBhhhhaaaaaaaBBBBBBBBBBihaaaaaBBBBBBBBBBBBBBBBBLBBBBBBBBBBBBBBBBBBBBBBBBBBBBBBBBBBaaaiiiBBBBBBBBBBBBBBBBBBBBBBBBLBBBBBBBBBBBBBBBBBBBBBBBBBBBBBBBiiiiaBBBBBBBBBBBBBBBBBBBBBBBBBBBBLBBBBBBBBBBBBBBBBBBBBBBBBBiiiaaaBBBBBBBBBBBBBBBBBBBBBBBBBBBBBBBBBLBBBBBBBBBBBBBBBBBaaaaaaaBBBBBBBBBBaaaaaaaaaaBBBBBBBBBBBBBBBBBBBBLBBBBBBBBBBBBBBBBBBBBBBBBBBBBBBBBBBBBBBBbaaaaaBBBBBBBBBBBBBBBBBBBL",
"LLLLLLLLLLLLLLLLLLLLLLLLLLLLLLLLLLLLLLLLLLLLLLLLLLLLLLLLLLLLLLLLLLLLLLLLLLLLLLLLLLLLLLLLLLLLLLLLLLLLLLLLLLLLLLLLLLLLLLLLLLLLLLLLLLLLLLLLLLLLLLLLLLLLLLLLLLLLLLLLLLLLLLLLLLLLLLLLLLLLLLLLLLLLLLLLLLLLLLLLLLLLLLLLLLLLLLLLLLLLLLLLLLLLLLLLLLLLLLLLLLLLLLLLLLLLLLLLLLLLLLLLLLLLLLLLLLLLLLLLLLLLLLLLLLLLLLLLLLLLLLLLLLLLLLLLLLLLLLLLLLLLLLLLLLLLLLLLLLLLLLLLLLLLLLLLLLLLLLLLLLLLLLLLLLLLLLLLLLLLLLLLLLLLLLLLLLLLLLLLLLLLLLLLLLLLLLLLLLLLLLLLLLLLLLLLLLLLLLLLLLLLLLLLLLLLLLLLLLLLLLLLLLLLLLLLLLLLLLLLLLLLLLLLLLLLLLLLLLLLLLLLLLLLLLLLLLLLLLLLL",
"LBBBBBBBBBBBBBBBBBBBBBBBBBBBBBBBBBBBBBBBBBBBBBBBBBBBBBBBBBBBBBBBBLBBBBBBBBBBBBBBBBBBBBBBBBBBBBBBBBBBBBBBBBBBBBBBBBBBBBBBBBBBBBBBBBLBBBBBBBBBBBBBBBBBBBBBBBBBBBBBBBBBBBBBBBBBBBBBBBBBBBBBBBBBBBBBBBBLBBBBBBBBBBBBBBBBBBBBBBBBBBBBBBBBBBBBBBBBBBBBBBBBBBBBBBBBBBBBBBBBLBBBBBBBBBBBBBBBBBBBBBBBBBBBBBBBBBBBBBBBBBBBBBBBBBBBBBBBBBBBBBBBBLBBBBBBBBBBBBBBBBBBBBBBBBBBBBBBBBBBBBBBBBBBBBBBBBBBBBBBBBBBBBBBBBLBBBBBBBBBBBBBBBBBBBBBBBBBBBBBBBBBBBBBBBBBBBBBBBBBBBBBBBBBBBBBBBBLBBBBBBBBBBBBBBBBBBBBBBBBBBBBBBBBBBBBBBBBBBBBBBBBBBBBBBBBBBBBBBBBL",
"LBBBBBBBBBBBBBBBBBBBBBBBBBBBBBBBBBBBBBBBBBBBBBBBBBBBBBBBBBBBBBBBBLBBBBBBBBBBBBBBBBBBBBBBBBBBBBBBBBBBBBBBBBBBBBBBBBBBBBBBBBBBBBBBBBLBBBBBBBBBBBBBBBBBBBBBBBBBBBBBBBBBBBBBBBBBBBBBBBBBBBBBBBBBBBBBBBBLBBBBBBBBBBBBBBBBBBBBBBBBBBBBBBBBBBBBBBBBBBBBBBBBBBBBBBBBBBBBBBBBLBBBBBBBBBBBBBBBBBBBBBBBBBBBBBBBBBBBBBBBBBBBBBBBBBBBBBBBBBBBBBBBBLBBBBBBBBBBBBBBBBBBBBBBBBBBBBBBBBBBBBBBBBBBBBBBBBBBBBBBBBBBBBBBBBLBBBBBBBBBBBBBBBBBBBBBBBBBBBBBBBBBBBBBBBBBBBBBBBBBBBBBBBBBBBBBBBBLBBBBBBBBBBBBBBBBBBBBBBBBBBBBBBBBBBBBBBBBBBBBBBBBBBBBBBBBBBBBBBBBL",
"LBBBBBBBBBBBBBBBBBBBBBBBBBBBBBBBBBBBBBBBBBBBBBBBBBBBBBBBBBBBBBBBBLBBBBBBBBBBBBBBBBBBBBBBBBBBBBBBBBBBBBBBBBBBBBBBBBBBBBBBBBBBBBBBBBLBBBBBBBBBBBBBBBBBBBBBBBBBBBBBBBBBBBBBBBBBBBBBBBBBBBBBBBBBBBBBBBBLBBBBBBBBBBBBBBBBBBBBBBBBBBBBBBBBBBBBBBBBBBBBBBBBBBBBBBBBBBBBBBBBLBBBBBBBBBBBBBBBBBBBBBBBBBBBBBBBBBBBBBBBBBBBBBBBBBBBBBBBBBBBBBBBBLBBBBBBBBBBBBBBBBBBBBBBBBBBBBBBBBBBBBBBBBBBBBBBBBBBBBBBBBBBBBBBBBLBBBBBBBBBBBBBBBBBBBBBBBBBBBBBBBBBBBBBBBBBBBBBBBBBBBBBBBBBBBBBBBBLBBBBBBBBBBBBBBBBBBBBBBBBBBBBBBBBBBBBBBBBBBBBBBBBBBBBBBBBBBBBBBBBL",
"LBBBBBBBBBBBBBBBBBBBBBBBBBBBBBBBBBBBBBBBBBBBBBBBBBBBBBBBBBBBBBBBBLBBBBBBBBBBBBBBBBBBBBBBBBBBBBBBBBBBBBBBBBBBBBBBBBBBBBBBBBBBBBBBBBLBBBBBBBBBBBBBBBBBBBBBBBBBBBBBBBBBBBBBBBBBBBBBBBBBBBBBBBBBBBBBBBBLBBBBBBBBBBBBBBBBBBBBBBBBBBBBBBBBBBBBBBBBBBBBBBBBBBBBBBBBBBBBBBBBLBBBBBBBBBBBBBBBBBBBBBBBBBBBBBBBBBBBBBBBBBBBBBBBBBBBBBBBBBBBBBBBBLBBBBBBBBBBBBBBBBBBBBBBBBBBBBBBBBBBBBBBBBBBBBBBBBBBBBBBBBBBBBBBBBLBBBBBBBBBBBBBBBBBBBBBBBBBBBBBBBBBBBBBBBBBBBBBBBBBBBBBBBBBBBBBBBBLBBBBBBBBBBBBBBBBBBBBBBBBBBBBBBBBBBBBBBBBBBBBBBBBBBBBBBBBBBBBBBBBL",
"LBBBBBBBBBBBBBBBBBBBBBBBBBBBBBBBBBBBBBBBBBBBBBBBBBBBBBBBBBBBBBBBBLBBBBBBBBBBBBBBBBBBBBBBBBBBBBBBBBBBBBBBBBBBBBBBBBBBBBBBBBBBBBBBBBLBBBBBBBBBBBBBBBBBBBBBBBBBBBBBBBBBBBBBBBBBBBBBBBBBBBBBBBBBBBBBBBBLBBBBBBBBBBBBBBBBBBBBBBBBBBBBBBBBBBBBBBBBBBBBBBBBBBBBBBBBBBBBBBBBLBBBBBBBBBBBBBBBBBBBBBBBBBBBBBBBBBBBBBBBBBBBBBBBBBBBBBBBBBBBBBBBBLBBBBBBBBBBBBBBBBBBBBBBBBBBBBBBBBBBBBBBBBBBBBBBBBBBBBBBBBBBBBBBBBLBBBBBBBBBBBBBBBBBBBBBBBBBBBBBBBBBBBBBBBBBBBBBBBBBBBBBBBBBBBBBBBBLBBBBBBBBBBBBBBBBBBBBBBBBBBBBBBBBBBBBBBBBBBBBBBBBBBBBBBBBBBBBBBBBL",
"LBBBBBBBBBBBBBBBBBBBBBBBBBBBBBBBBBBBBBBBBBBBBBBBBBBBBBBBBBBBBBBBBLBBBBBBBBBBBBBBBBBBBBBBBBBBBBBBBBBBBBBBBBBBBBBBBBBBBBBBBBBBBBBBBBLBBBBBBBBBBBBBBBBBBBBBBBBBBBBBBBBBBBBBBBBBBBBBBBBBBBBBBBBBBBBBBBBLBBBBBBBBBBBBBBBBBBBBBBBBBBBBBBBBBBBBBBBBBBBBBBBBBBBBBBBBBBBBBBBBLBBBBBBBBBBBBBBBBBBBBBBBBBBBBBBBBBBBBBBBBBBBBBBBBBBBBBBBBBBBBBBBBLBBBBBBBBBBBBBBBBBBBBBBBBBBBBBBBBBBBBBBBBBBBBBBBBBBBBBBBBBBBBBBBBLBBBBBBBBBBBBBBBBBBBBBBBBBBBBBBBBBBBBBBBBBBBBBBBBBBBBBBBBBBBBBBBBLBBBBBBBBBBBBBBBBBBBBBBBBBBBBBBBBBBBBBBBBBBBBBBBBBBBBBBBBBBBBBBBBL",
"LBBBBBBBBBBBBBBBBBBBBBBBBBBBBBBBBBBBBBBBBBBBBBBBBBBBBBBBBBBBBBBBBLBBBBBBBBBBBBBBBBBBBBBBBBBBBBBBBBBBBBBBBBBBBBBBBBBBBBBBBBBBBBBBBBLBBBBBBBBBBBBBBBBBBBBBBBBBBBBBBBBBBBBBBBBBBBBBBBBBBBBBBBBBBBBBBBBLBBBBBBBBBBBBBBBBBBBBBBBBBBBBBBBBBBBBBBBBBBBBBBBBBBBBBBBBBBBBBBBBLBBBBBBBBBBBBBBBBBBBBBBBBBBBBBBBBBBBBBBBBBBBBBBBBBBBBBBBBBBBBBBBBLBBBBBBBBBBBBBBBBBBBBBBBBBBBBBBBBBBBBBBBBBBBBBBBBBBBBBBBBBBBBBBBBLBBBBBBBBBBBBBBBBBBBBBBBBBBBBBBBBBBBBBBBBBBBBBBBBBBBBBBBBBBBBBBBBLBBBBBBBBBBBBBBBBBBBBBBBBBBBBBBBBBBBBBBBBBBBBBBBBBBBBBBBBBBBBBBBBL",
"LBBBBBBBBBBBBBBBBBBBBBBBBBBBBBBBBBBBBBBBBBBBBBBBBBBBBBBBBBBBBBBBBLBBBBBBBBBBBBBBBBBBBBBBBBBBBBBBBBBBBBBBBBBBBBBBBBBBBBBBBBBBBBBBBBLBBBBBBBBBBBBBBBBBBBBBBBBBBBBBBBBBBBBBBBBBBBBBBBBBBBBBBBBBBBBBBBBLBBBBBBBBBBBBBBBBBBBBBBBBBBBBBBBBBBBBBBBBBBBBBBBBBBBBBBBBBBBBBBBBLBBBBBBBBBBBBBBBBBBBBBBBBBBBBBBBBBBBBBBBBBBBBBBBBBBBBBBBBBBBBBBBBLBBBBBBBBBBBBBBBBBBBBBBBBBBBBBBBBBBBBBBBBBBBBBBBBBBBBBBBBBBBBBBBBLBBBBBBBBBBBBBBBBBBBBBBBBBBBBBBBBBBBBBBBBBBBBBBBBBBBBBBBBBBBBBBBBLBBBBBBBBBBBBBBBBBBBBBBBBBBBBBBBBBBBBBBBBBBBBBBBBBBBBBBBBBBBBBBBBL",
"LBBBBBBBBBBBBBBBBBBBBBBBBBBBBBBBBBBBBBBBBBBBBBBBBBBBBBBBBBBBBBBBBLBBBBBBBBBBBBBBBBBBBBBBBBBBBBBBBBBBBBBBBBBBBBBBBBBBBBBBBBBBBBBBBBLBBBBBBBBBBBBBBBBBBBBBBBBBBBBBBBBBBBBBBBBBBBBBBBBBBBBBBBBBBBBBBBBLBBBBBBBBBBBBBBBBBBBBBBBBBBBBBBBBBBBBBBBBBBBBBBBBBBBBBBBBBBBBBBBBLBBBBBBBBBBBBBBBBBBBBBBBBBBBBBBBBBBBBBBBBBBBBBBBBBBBBBBBBBBBBBBBBLBBBBBBBBBBBBBBBBBBBBBBBBBBBBBBBBBBBBBBBBBBBBBBBBBBBBBBBBBBBBBBBBLBBBBBBBBBBBBBBBBBBBBBBBBBBBBBBBBBBBBBBBBBBBBBBBBBBBBBBBBBBBBBBBBLBBBBBBBBBBBBBBBBBBBBBBBBBBBBBBBBBBBBBBBBBBBBBBBBBBBBBBBBBBBBBBBBL",
"LBBBBBBBBBBBBBBBBBBBBBBBBBBBBBBBBBBBBBBBBBBBBBBBBBBBBBBBBBBBBBBBBLBBBBBBBBBBBBBBBBBBBBBBBBBBBBBBBBBBBBBBBBBBBBBBBBBBBBBBBBBBBBBBBBLBBBBBBBBBBBBBBBBBBBBBBBBBBBBBBBBBBBBBBBBBBBBBBBBBBBBBBBBBBBBBBBBLBBBBBBBBBBBBBBBBBBBBBBBBBBBBBBBBBBBBBBBBBBBBBBBBBBBBBBBBBBBBBBBBLBBBBBBBBBBBBBBBBBBBBBBBBBBBBBBBBBBBBBBBBBBBBBBBBBBBBBBBBBBBBBBBBLBBBBBBBBBBBBBBBBBBBBBBBBBBBBBBBBBBBBBBBBBBBBBBBBBBBBBBBBBBBBBBBBLBBBBBBBBBBBBBBBBBBBBBBBBBBBBBBBBBBBBBBBBBBBBBBBBBBBBBBBBBBBBBBBBLBBBBBBBBBBBBBBBBBBBBBBBBBBBBBBBBBBBBBBBBBBBBBBBBBBBBBBBBBBBBBBBBL",
"LBBBBBBBBBBBBBBBBBBBBBBBBBBBBBBBBBBBBBBBBBBBBBBBBBBBBBBBBBBBBBBBBLBBBBBBBBBBBBBBBBBBBBBBBBBBBBBBBBBBBBBBBBBBBBBBBBBBBBBBBBBBBBBBBBLBBBBBBBBBBBBBBBBBBBBBBBBBBBBBBBBBBBBBBBBBBBBBBBBBBBBBBBBBBBBBBBBLBBBBBBBBBBBBBBBBBBBBBBBBBBBBBBBBBBBBBBBBBBBBBBBBBBBBBBBBBBBBBBBBLBBBBBBBBBBBBBBBBBBBBBBBBBBBBBBBBBBBBBBBBBBBBBBBBBBBBBBBBBBBBBBBBLBBBBBBBBBBBBBBBBBBBBBBBBBBBBBBBBBBBBBBBBBBBBBBBBBBBBBBBBBBBBBBBBLBBBBBBBBBBBBBBBBBBBBBBBBBBBBBBBBBBBBBBBBBBBBBBBBBBBBBBBBBBBBBBBBLBBBBBBBBBBBBBBBBBBBBBBBBBBBBBBBBBBBBBBBBBBBBBBBBBBBBBBBBBBBBBBBBL",
"LBBBBBBBBBBBBBBBBBBBBBBBBBBBBBBBBBBBBBBBBBBBBBBBBBBBBBBBBBBBBBBBBLBBBBBBBBBBBBBBBBBBBBBBBBBBBBBBBBBBBBBBBBBBBBBBBBBBBBBBBBBBBBBBBBLBBBBBBBBBBBBBBBBBBBBBBBBBBBBBBBBBBBBBBBBBBBBBBBBBBBBBBBBBBBBBBBBLBBBBBBBBBBBBBBBBBBBBBBBBBBBBBBBBBBBBBBBBBBBBBBBBBBBBBBBBBBBBBBBBLBBBBBBBBBBBBBBBBBBBBBBBBBBBBBBBBBBBBBBBBBBBBBBBBBBBBBBBBBBBBBBBBLBBBBBBBBBBBBBBBBBBBBBBBBBBBBBBBBBBBBBBBBBBBBBBBBBBBBBBBBBBBBBBBBLBBBBBBBBBBBBBBBBBBBBBBBBBBBBBBBBBBBBBBBBBBBBBBBBBBBBBBBBBBBBBBBBLBBBBBBBBBBBBBBBBBBBBBBBBBBBBBBBBBBBBBBBBBBBBBBBBBBBBBBBBBBBBBBBBL",
"LBBBBBBBBBBBBBBBBBBBBBBBBBBBBBBBBBBBBBBBBBBBBBBBBBBBBBBBBBBBBBBBBLBBBBBBBBBBBBBBBBBBBBBBBBBBBBBBBBBBBBBBBBBBBBBBBBBBBBBBBBBBBBBBBBLBBBBBBBBBBBBBBBBBBBBBBBBBBBBBBBBBBBBBBBBBBBBBBBBBBBBBBBBBBBBBBBBLBBBBBBBBBBBBBBBBBBBBBBBBBBBBBBBBBBBBBBBBBBBBBBBBBBBBBBBBBBBBBBBBLBBBBBBBBBBBBBBBBBBBBBBBBBBBBBBBBBBBBBBBBBBBBBBBBBBBBBBBBBBBBBBBBLBBBBBBBBBBBBBBBBBBBBBBBBBBBBBBBBBBBBBBBBBBBBBBBBBBBBBBBBBBBBBBBBLBBBBBBBBBBBBBBBBBBBBBBBBBBBBBBBBBBBBBBBBBBBBBBBBBBBBBBBBBBBBBBBBLBBBBBBBBBBBBBBBBBBBBBBBBBBBBBBBBBBBBBBBBBBBBBBBBBBBBBBBBBBBBBBBBL",
"LBBBBBBBBBBBBBBBBBBBBBBBBBBBBBBBBBBBBBBBBBBBBBBBBBBBBBBBBBBBBBBBBLBBBBBBBBBBBBBBBBBBBBBBBBBBBBBBBBBBBBBBBBBBBBBBBBBBBBBBBBBBBBBBBBLBBBBBBBBBBBBBBBBBBBBBBBBBBBBBBBBBBBBBBBBBBBBBBBBBBBBBBBBBBBBBBBBLBBBBBBBBBBBBBBBBBBBBBBBBBBBBBBBBBBBBBBBBBBBBBBBBBBBBBBBBBBBBBBBBLBBBBBBBBBBBBBBBBBBBBBBBBBBBBBBBBBBBBBBBBBBBBBBBBBBBBBBBBBBBBBBBBLBBBBBBBBBBBBBBBBBBBBBBBBBBBBBBBBBBBBBBBBBBBBBBBBBBBBBBBBBBBBBBBBLBBBBBBBBBBBBBBBBBBBBBBBBBBBBBBBBBBBBBBBBBBBBBBBBBBBBBBBBBBBBBBBBLBBBBBBBBBBBBBBBBBBBBBBBBBBBBBBBBBBBBBBBBBBBBBBBBBBBBBBBBBBBBBBBBL",
"LBBBBBBBBBBBBBBBBBBBBBBBBBBBBBBBBBBBBBBBBBBBBBBBBBBBBBBBBBBBBBBBBLBBBBBBBBBBBBBBBBBBBBBBBBBBBBBBBBBBBBBBBBBBBBBBBBBBBBBBBBBBBBBBBBLBBBBBBBBBBBBBBBBBBBBBBBBBBBBBBBBBBBBBBBBBBBBBBBBBBBBBBBBBBBBBBBBLBBBBBBBBBBBBBBBBBBBBBBBBBBBBBBBBBBBBBBBBBBBBBBBBBBBBBBBBBBBBBBBBLBBBBBBBBBBBBBBBBBBBBBBBBBBBBBBBBBBBBBBBBBBBBBBBBBBBBBBBBBBBBBBBBLBBBBBBBBBBBBBBBBBBBBBBBBBBBBBBBBBBBBBBBBBBBBBBBBBBBBBBBBBBBBBBBBLBBBBBBBBBBBBBBBBBBBBBBBBBBBBBBBBBBBBBBBBBBBBBBBBBBBBBBBBBBBBBBBBLBBBBBBBBBBBBBBBBBBBBBBBBBBBBBBBBBBBBBBBBBBBBBBBBBBBBBBBBBBBBBBBBL",
"LBBBBBBBBBBBBBBBBBBBBBBBBBBBBBBBBBBBBBBBBBBBBBBBBBBBBBBBBBBBBBBBBLBBBBBBBBBBBBBBBBBBBBBBBBBBBBBBBBBBBBBBBBBBBBBBBBBBBBBBBBBBBBBBBBLBBBBBBBBBBBBBBBBBBBBBBBBBBBBBBBBBBBBBBBBBBBBBBBBBBBBBBBBBBBBBBBBLBBBBBBBBBBBBBBBBBBBBBBBBBBBBBBBBBBBBBBBBBBBBBBBBBBBBBBBBBBBBBBBBLBBBBBBBBBBBBBBBBBBBBBBBBBBBBBBBBBBBBBBBBBBBBBBBBBBBBBBBBBBBBBBBBLBBBBBBBBBBBBBBBBBBBBBBBBBBBBBBBBBBBBBBBBBBBBBBBBBBBBBBBBBBBBBBBBLBBBBBBBBBBBBBBBBBBBBBBBBBBBBBBBBBBBBBBBBBBBBBBBBBBBBBBBBBBBBBBBBLBBBBBBBBBBBBBBBBBBBBBBBBBBBBBBBBBBBBBBBBBBBBBBBBBBBBBBBBBBBBBBBBL",
"LBBBBBBBBBBBBBBBBBBBBBBBBBBBBBBBBBBBBBBBBBBBBBBBBBBBBBBBBBBBBBBBBLBBBBBBBBBBBBBBBBBBBBBBBBBBBBBBBBBBBBBBBBBBBBBBBBBBBBBBBBBBBBBBBBLBBBBBBBBBBBBBBBBBBBBBBBBBBBBBBBBBBBBBBBBBBBBBBBBBBBBBBBBBBBBBBBBLBBBBBBBBBBBBBBBBBBBBBBBBBBBBBBBBBBBBBBBBBBBBBBBBBBBBBBBBBBBBBBBBLBBBBBBBBBBBBBBBBBBBBBBBBBBBBBBBBBBBBBBBBBBBBBBBBBBBBBBBBBBBBBBBBLBBBBBBBBBBBBBBBBBBBBBBBBBBBBBBBiiiiiiiiiBBBBBBBBBBBBBBBBBBBBBBBBLBBBBBBBBBBBBBBBBBBBBBBBBBBBBBBBBBBBBBBBBBBBBBBBBBBBBBBBBBBBBBBBBLBBBBBBBBBBBBBBBBBBBBBBBBBBBBBBBBBBBBBBBBBBBBBBBBBBBBBBBBBBBBBBBBL",
"LBBBBBBBBBBBBBBBBBBBBBBBBBBBBBBBBBBBBBBBBBBBBBBBBBBBBBBBBBBBBBBBBLBBBBBBBBBBBBBBBBBBBBBBBBiiiiiiiiiBBBBBBBBBBBBBBBBBBBBBBBBBBBBBBBLBBBBBBBBBBBBBBBBBBBBBBBBBBBBiiiiiiiiiBBBBBBBBBBBBBBBBBBBBBBBBBBBLBBBBBBBBBBBBBBBBBBBBBBBBBBiiiiiiaaaBBBBBBBBBBBBBBBBBBBBBBBBBBBBBLBBBBBBBBBBBBBBBBBBBBBBBBBBBBBllliiaaaBBBBBBBBBBBBBBBBBBBBBBBBBBBLBBBBBBBBBBBBBBBBBBBBBBBBBBBBBBBiiiiiiiotBBBBBBBBBBBBBBBBBBBBBBBBLBBBBBBBBBBBBBBBBBBBBBBBBBBiiiiiiiiiBBBBBBBBBBBBBBBBBBBBBBBBBBBBBLBBBBBBBBBBBBBBBBBBBBBBBBBBBBBBBBiiiiiiiiiBBBBBBBBBBBBBBBBBBBBBBBL",
"LBBBBBBBBBBBBBBBBBBBBBBBBBBBBaaaaaaaaBBBBBBBBBBBBBBBBBBBBBBBBBBBBLBBBBBBBBBBBBBBBBBBBBBBBBwwwwoiiiiBBBBBBBBBBBBBBBBBBBBBBBBBBBBBBBLBBBBBBBBBBBBBBBBBBBBBBBBBBBBwwtoiiiiiBBBBBBBBBBBBBBBBBBBBBBBBBBBLBBBBBBBBBBBBBBBBBBBBBBBBBBtoiiiiaaaBBBBBBBBBBBBBBBBBBBBBBBBBBBBBLBBBBBBBBBBBBBBBBBBBBBBBBBBBBBlliaaaaaBBBBBBBBBBBBBBBBBBBBBBBBBBBLBBBBBBBBBBBBBBBBBBBBBBBBBBBBBBBiiiiiotDDBBBBBBBBBBBBBBBBBBBBBBBBLBBBBBBBBBBBBBBBBBBBBBBBBBBiiiiiotwwBBBBBBBBBBBBBBBBBBBBBBBBBBBBBLBBBBBBBBBBBBBBBBBBBBBBBBBBBBBBBBiiiiowwwwBBBBBBBBBBBBBBBBBBBBBBBL",
"LBBBBBBBBBBBBBBBBBBBBBBBBBBBBlttttttaBBBBBBBBBBBBBBBBBBBBBBBBBBBBLBBBBBBBBBBBBBBBBBBBBBBBBHQQHDoiiiBBBBBBBBBBBBBBBBBBBBBBBBBBBBBBBLBBBBBBBBBBBBBBBBBBBBBBBBBBBBHQQHtoiiiBBBBBBBBBBBBBBBBBBBBBBBBBBBLBBBBBBBBBBBBBBBBBBBBBBBBBBQHtoiiaaaBBBBBBBBBBBBBBBBBBBBBBBBBBBBBLBBBBBBBBBBBBBBBBBBBBBBBBBBBBBiliaaaaiBBBBBBBBBBBBBBBBBBBBBBBBBBBLBBBBBBBBBBBBBBBBBBBBBBBBBBBBBBBiiiioDwDHBBBBBBBBBBBBBBBBBBBBBBBBLBBBBBBBBBBBBBBBBBBBBBBBBBBiiiotHHHHBBBBBBBBBBBBBBBBBBBBBBBBBBBBBLBBBBBBBBBBBBBBBBBBBBBBBBBBBBBBBBiiioDHKKHBBBBBBBBBBBBBBBBBBBBBBBL",
"LBBBBBBBBBBBBBBBBBBBBBBBBBBBBiDZZQQDiBBBBBBBBBBBBBBBBBBBBBBBBBBBBLBBBBBBBBBBBBBBBBBBBBBBBB4Q4QHwHiiBBBBBBBBBBBBBBBBBBBBBBBBBBBBBBBLBBBBBBBBBBBBBBBBBBBBBBBBBBBB44ZQwHHiiBBBBBBBBBBBBBBBBBBBBBBBBBBBLBBBBBBBBBBBBBBBBBBBBBBBBBBZQwHoiaaaBBBBBBBBBBBBBBBBBBBBBBBBBBBBBLBBBBBBBBBBBBBBBBBBBBBBBBBBBBBtliaaaatBBBBBBBBBBBBBBBBBBBBBBBBBBBLBBBBBBBBBBBBBBBBBBBBBBBBBBBBBBBiiiioDDHwBBBBBBBBBBBBBBBBBBBBBBBBLBBBBBBBBBBBBBBBBBBBBBBBBBBii1HwQHQQBBBBBBBBBBBBBBBBBBBBBBBBBBBBBLBBBBBBBBBBBBBBBBBBBBBBBBBBBBBBBBiiHwHQVKVBBBBBBBBBBBBBBBBBBBBBBBL",
"LBBBBBBBBBBBBBBBBBBBBBBBBBBBBt14PZ41tBBBBBBBBBBBBBBBBBBBBBBBBBBBBLBBBBBBBBBBBBBBBBBBBBBBBBGQ0GHHHoiBBBBBBBBBBBBBBBBBBBBBBBBBBBBBBBLBBBBBBBBBBBBBBBBBBBBBBBBBBBBQ0QHHHHiiBBBBBBBBBBBBBBBBBBBBBBBBBBBLBBBBBBBBBBBBBBBBBBBBBBBBBBQHHHoiaaaBBBBBBBBBBBBBBBBBBBBBBBBBBBBBLBBBBBBBBBBBBBBBBBBBBBBBBBBBBBKliaaaaDBBBBBBBBBBBBBBBBBBBBBBBBBBBLBBBBBBBBBBBBBBBBBBBBBBBBBBBBBBBiiitwtDHHBBBBBBBBBBBBBBBBBBBBBBBBLBBBBBBBBBBBBBBBBBBBBBBBBBBii1HHHD0DBBBBBBBBBBBBBBBBBBBBBBBBBBBBBLBBBBBBBBBBBBBBBBBBBBBBBBBBBBBBBBioKHHG0KGBBBBBBBBBBBBBBBBBBBBBBBL",
"LBBBBBBBBBBBBBBBBBBBBBBBBBBBBKV5PDWVKBBBBBBBBBBBBBBBBBBBBBBBBBBBBLBBBBBBBBBBBBBBBBBBBBBBBBP44ZQtwoiBBBBBBBBBBBBBBBBBBBBBBBBBBBBBBBLBBBBBBBBBBBBBBBBBBBBBBBBBBBQ441QQtwoiBBBBBBBBBBBBBBBBBBBBBBBBBBBLBBBBBBBBBBBBBBBBBBBBBBBBBB1QQtwtiaaBBBBBBBBBBBBBBBBBBBBBBBBBBBBBLBBBBBBBBBBBBBBBBBBBBBBBBBBBBBKliaaatDBBBBBBBBBBBBBBBBBBBBBBBBBBBLBBBBBBBBBBBBBBBBBBBBBBBBBBBBBBBBQPKDwKDDBBBBBBBBBBBBBBBBBBBBBBBBLBBBBBBBBBBBBBBBBBBBBBBBBBBioPPVQQQHHBBBBBBBBBBBBBBBBBBBBBBBBBBBBLBBBBBBBBBBBBBBBBBBBBBBBBBBBBBBBBiowtQKKZHBBBBBBBBBBBBBBBBBBBBBBBL",
"LBBBBBBBBBBBBBBBBBBBBBBBBBBBBK14ZP41KBBBBBBBBBBBBBBBBBBBBBBBBBBBBLBBBBBBBBBBBBBBBBBBBBBBBBHZZQQwtoBBBBBBBBBBBBBBBBBBBBBBBBBBBBBBBBLBBBBBBBBBBBBBBBBBBBBBBBBBBBBPVQ1QwtoBBBBBBBBBBBBBBBBBBBBBBBBBBBBLBBBBBBBBBBBBBBBBBBBBBBBBBBQ1QwttooBBBBBBBBBBBBBBBBBBBBBBBBBBBBBBLBBBBBBBBBBBBBBBBBBBBBBBBBBBBBBQtaatDBBBBBBBBBBBBBBBBBBBBBBBBBBBBLBBBBBBBBBBBBBBBBBBBBBBBBBBBBBBBBQPKDDKDtBBBBBBBBBBBBBBBBBBBBBBBBLBBBBBBBBBBBBBBBBBBBBBBBBBBB1VPV1QPKBBBBBBBBBBBBBBBBBBBBBBBBBBBBBLBBBBBBBBBBBBBBBBBBBBBBBBBBBBBBBBBZQZQKKKwBBBBBBBBBBBBBBBBBBBBBBBL",
"LBBBBBBBBBBBBBBBBBBBBBBBBBBBBBQZVVZQBBBBBBBBBBBBBBBBBBBBBBBBBBBBBLBBBBBBBBBBBBBBBBBBBBBBBBt**ZQDwoBBBBBBBBBBBBBBBBBBBBBBBBBBBBBBBBLBBBBBBBBBBBBBBBBBBBBBBBBBBBBwVKZQDwoBBBBBBBBBBBBBBBBBBBBBBBBBBBBLBBBBBBBBBBBBBBBBBBBBBBBBBBKZQDwtooBBBBBBBBBBBBBBBBBBBBBBBBBBBBBBLBBBBBBBBBBBBBBBBBBBBBBBBBBBBBBQVHKHDBBBBBBBBBBBBBBBBBBBBBBBBBBBBLBBBBBBBBBBBBBBBBBBBBBBBBBBBBBBBBQPKDDHHDBBBBBBBBBBBBBBBBBBBBBBBBLBBBBBBBBBBBBBBBBBBBBBBBBBBB1VPVZKPwBBBBBBBBBBBBBBBBBBBBBBBBBBBBBLBBBBBBBBBBBBBBBBBBBBBBBBBBBBBBBBBZQZQK11tBBBBBBBBBBBBBBBBBBBBBBBL",
"LBBBBBBBBBBBBBBBBBBBBBBBBBBBBBQ3*63KBBBBBBBBBBBBBBBBBBBBBBBBBBBBBLBBBBBBBBBBBBBBBBBBBBBBBBHZZQDHtokkBBBBBBBBBBBBBBBBBBBBBBBBBBBBBBLBBBBBBBBBBBBBBBBBBBBBBBBBBBBKPZQDDwoBBBBBBBBBBBBBBBBBBBBBBBBBBBBLBBBBBBBBBBBBBBBBBBBBBBBBBBZQDDwmmmBBBBBBBBBBBBBBBBBBBBBBBBBBBBBBLBBBBBBBBBBBBBBBBBBBBBBBBBBBBBddddddccBBBBBBBBBBBBBBBBBBBBBBBBBBBLBBBBBBBBBBBBBBBBBBBBBBBBBBBBBBcdddddccwBBBBBBBBBBBBBBBBBBBBBBBBBLBBBBBBBBBBBBBBBBBBBBBBBBBBB1VPDQZPKBBBBBBBBBBBBBBBBBBBBBBBBBBBBBLBBBBBBBBBBBBBBBBBBBBBBBBBBBBBBBBBQQKZQKDDBBBBBBBBBBBBBBBBBBBBBBBL",
"LBBBBBBBBBBBBBBBBBBBBBBBBBBBddQZ11ZwclBBBBBBBBBBBBBBBBBBBBBBBBBBBLBBBBBBBBBBBBBBBBBBBBBBBBBBtwHHtokkklBBBBBBBBBBBBBBBBBBBBBBBBBBBBLBBBBBBBBBBBBBBBBBBBBBBBBBBBBBBDHHDtokBBBBBBBBBBBBBBBBBBBBBBBBBBBLBBBBBBBBBBBBBBBBBBBBBBBBBBBBccnnllmBBBBBBBBBBBBBBBBBBBBBBBBBBBBBLBBBBBBBBBBBBBBBBBBBBBBBBBBBBddddccccccBBBBBBBBBBBBBBBBBBBBBBBBBBLBBBBBBBBBBBBBBBBBBBBBBBBBBBBBcdddccclllBBBBBBBBBBBBBBBBBBBBBBBBBLBBBBBBBBBBBBBBBBBBBBBBBBBBcctPHHDaBBBBBBBBBBBBBBBBBBBBBBBBBBBBBBLBBBBBBBBBBBBBBBBBBBBBBBBBBBBBBBBdoQKHwtiBBBBBBBBBBBBBBBBBBBBBBBBL",
"LBBBBBBBBBBBBBBBBBBBBBBBBBddcdZwHHHwllllBBBBBBBBBBBBBBBBBBBBBBBBBLBBBBBBBBBBBBBBBBBBBBBBBBBdZPHwtokakklBBBBBBBBBBBBBBBBBBBBBBBBBBBLBBBBBBBBBBBBBBBBBBBBBBBBBBBBBdVKdddcmBBBBBBBBBBBBBBBBBBBBBBBBBBBLBBBBBBBBBBBBBBBBBBBBBBBBBBBdddccmmmmBBBBBBBBBBBBBBBBBBBBBBBBBBBBLBBBBBBBBBBBBBBBBBBBBBBBBBBBdddddddddddcBBBBBBBBBBBBBBBBBBBBBBBBBLBBBBBBBBBBBBBBBBBBBBBBBBBBBBcdddddddcckkBBBBBBBBBBBBBBBBBBBBBBBBLBBBBBBBBBBBBBBBBBBBBBBBBBBcccccwwlBBBBBBBBBBBBBBBBBBBBBBBBBBBBBBLBBBBBBBBBBBBBBBBBBBBBBBBBBBBBBdddotKHwwmcBBBBBBBBBBBBBBBBBBBBBBBL",
"LBBBBBBBBBBBBBBBBBBBBBBBddddccdZPZPomlllllBBBBBBBBBBBBBBBBBBBBBBBLBBBBBBBBBBBBBBBBBBBBBBBBddZHDtodcccnllBBBBBBBBBBBBBBBBBBBBBBBBBBLBBBBBBBBBBBBBBBBBBBBBBBBBBBBBlKDdcccmmBBBBBBBBBBBBBBBBBBBBBBBBBBLBBBBBBBBBBBBBBBBBBBBBBBBBdddddccnikkmBBBBBBBBBBBBBBBBBBBBBBBBBBBLBBBBBBBBBBBBBBBBBBBBBBBBBdddddddcdddddcclBBBBBBBBBBBBBBBBBBBBBBBLBBBBBBBBBBBBBBBBBBBBBBBBBBBcddddddddddckkBBBBBBBBBBBBBBBBBBBBBBBLBBBBBBBBBBBBBBBBBBBBBBBBBccdddccliiBBBBBBBBBBBBBBBBBBBBBBBBBBBBBLBBBBBBBBBBBBBBBBBBBBBBBBBBBBdddddcotDwoikkBBBBBBBBBBBBBBBBBBBBBBL",
"LBBBBBBBBBBBBBBBBBBBBBdddddcccctfcfllnlllllBBBBBBBBBBBBBBBBBBBBBBLBBBBBBBBBBBBBBBBBBBBBBBBccdcdddddddcnnlBBBBBBBBBBBBBBBBBBBBBBBBBLBBBBBBBBBBBBBBBBBBBBBBBBBBBBBlddcccccmBBBBBBBBBBBBBBBBBBBBBBBBBBLBBBBBBBBBBBBBBBBBBBBBBBBddddccnkkiiikmBBBBBBBBBBBBBBBBBBBBBBBBBBLBBBBBBBBBBBBBBBBBBBBBBBBddddddddcdddddccclBBBBBBBBBBBBBBBBBBBBBBLBBBBBBBBBBBBBBBBBBBBBBBBBBccddcddddddddckkBBBBBBBBBBBBBBBBBBBBBBLBBBBBBBBBBBBBBBBBBBBBBBBBcddccclkiiBBBBBBBBBBBBBBBBBBBBBBBBBBBBBLBBBBBBBBBBBBBBBBBBBBBBBBBBBddddcclllkiiiikBBBBBBBBBBBBBBBBBBBBBBL",
"LBBBBBBBBBBBBBBBBBBBBdddcccccccntQtnnnnklliiBBBBBBBBBBBBBBBBBBBBBLBBBBBBBBBBBBBBBBBBQBBBBBccdcdddddcdddcnlBBBBBBBBBBBBBBBBBBBBBBBBLBBBBBBBBBBBBBBBBBBBBBBBBBBBBdddcdcdddcBBBBBBBBBBBBBBBBBBBBBBBBBBLBBBBBBBBBBBBBBBBBBBBBQBddddccnmkkiiiikBBBBBBBBBBBBBBBBBBBBBBBBBBLBBBBBBBBBBBBBBBBBBBBBBBBddddddddcdddddccclBBBBBBBBBBBBBBBBBBBBBBLBBBBBBBBBBBBBBBBBBBBBBBBBcccdcddddddcdddckBBBBBBBBBBBBBBBBBBBBBBLBBBBBBBBBBBBBBBBBBBBBBBBBcddddclkkiiBBBBBBBBBBBBBBBBBBBBBBBBBBBBLBBBBBBBBBBBBBBBBBBBBBBBBBBddddccllllkiiiikkBBBBBBBBBBBBBBBBBBBBBL",
"LBBBBBBBBBBBBBBBBBBBddckccnnccccHiHnGnGiiiiklBBBBBBBBBBBBBBBBBBBBLBBBBBBBBBBBBBBBBBBlHHHHDttDcdGGcddddddnllBBBBBBBBBBBBBBBBBBBBBBBLBBBBBBBBBBBBBBBBBQBBBBBBBBBBddddddddddcBBBBBBBBBBBBBBBBBBBBBBBBBLBBBBBBBBBBBBBBBBBBBBHHHddccnmkmkiiiiikBBBBBBBBBBBBBBBBBBBBBBBBBBLBBBBBBBBBBBBBBBBBBBBBBBdddddddddcdddddcncllBBBBBBBBBBBBBBBBBBBBBLBBBBBBBBBBBBBBBBBBBBBBBBBccddcddddddcddddltBBBBBBBBBBBBBBBBBBBBBLBBBBBBBBBBBBBBBBBBBBBBBBBcdcddclkkiiBBBBBBBBBBDBBBBBBBBBBBBBBBBBLBBBBBBBBBBBBBBBBBBBBBBBBBBddddcllllkkkkiiklBQBBBBBBBBBBBBBBBBBBBL",
"LBBBBBBBBBBBBBBBBBBBddliiliinccctookknliiiiikBBBBBBBBBBBBBBBBBBBBLBBBBBBBBBBBBBBBBBBDtoooooiicddddddcdddcnlBBBBBBBBBBBBBBBBBBBBBBBLBBBBBBBBBBBBBBBBBHHHHDDDDDtDcNcdcddddcmBBBBBBBBBBBBBBBBBBBBBBBBBLBBBBBBBBBBBBBBBBBBBBDtoddcnkmmlkiiiiikmBBBBBBBBBBBBBBBBBBBBBBBBBLBBBBBBBBBBBBBBBBBBBBBBBdddcdddddcdddddclcllBBBBBBBBBBBBBBBBBBBBBLBBBBBBBBBBBBBBBBBBBBBBBBcccddcddddddccdddcoBBBBBBBBBBBBBBBBBBBBBLBBBBBBBBBBBBBBBBBBBBBBBBBcdcddclkkixtltttttttttBBBBBBBBBBBBBBBBBLBBBBBBBBBBBBBBBBBBBBBBBBBddddccliklkktltttwDlBBBBBBBBBBBBBBBBBBBL",
"LBBBBBBBBBBBBBBBBBBBddcliBBiknnHVaHikkkiiiiiiBBBBBBBBBBBBBBBBBBBBLBBBBBBBBBBBBBBBBBBBBBiHiaHwHwdddddllddccnlBBBBBBBBBBBBBBBBBBBBBBLBBBBBBBBBBBBBBBBBDtooooooollmmcccdcddcmBBBBBBBBBBBBBBBBBBBBBBBBBLBBBBBBBBBBBBBBBBBBBBBBBddcmkmmlkiiiiikmBBBBBBBBBBBBBBBBBBBBBBBBBLBBBBBBBBBBBBBBBBBBBBBBddddcdddddcddddcclnnlBBBBBBBBBBBBBBBBBBBBBLBBBBBBBBBBBBBBBBBBBBBBBBcclddcddddddcldcclkBBBBBBBBBBBBBBBBBBBBBLBBBBBBBBBBBBBBBBBBBBBBBBBcdcddckkkiilllllllllooBBBBBBBBBBBBBBBBBLBBBBBBBBBBBBBBBBBBBBBBBBBddcllciikkkkiiooooooBBBBBBBBBBBBBBBBBBBL",
"LBBBBBBBBBBBBBBBBBBBdccllD*ViknHPaliiiiilc*llBBBBBBBBBBBBBBBBBBBBLBBBBBBBBBBBBBBBBBBBBBBiDolttollncclkkkccnlBBBBBBBBBBBBBBBBBBBBBBLBBBBBBBBBBBBBBBBBBBBBiHiiHwoHlmmcdcddcmBBBBBBBBBBBBBBBBBBBBBBBBBLBBBBBBBBBBBBBBBBBBBBBBBddckkmmlkiiiiikmBBBBBBBBBBBBBBBBBBBBBBBBBLBBBBBBBBBBBBBBBBBBBBBBddddcdddddccddcccllnllBBBBBBBBBBBBBBBBBBBBLBBBBBBBBBBBBBBBBBBBBBBBBcclcddcddddccllllllkBBBBBBBBBBBBBBBBBBBBLBBBBBBBBBBBBBBBBBBBBBBBBBBdddddkkiiHowHiiHiBBBBBBBBBBBBBBBBBBBBBLBBBBBBBBBBBBBBBBBBBBBBBBdddddclkkkkotwHaiHiBBBBBBBBBBBBBBBBBBBBBL",
"LBBBBBBBBBBBBBBBBBBBcHQ1**VVlknDPwiiiiiicd*clBBBBBBBBBBBBBBBBBBBBLBBBBBBBBBBBBBBBBBBBBBdmQHalliikklllkkdddnlBBBBBBBBBBBBBBBBBBBBBBLBBBBBBBBBBBBBBBBBBBBBBiHtiatwtlmmccddcmBBBBBBBBBBBBBBBBBBBBBBBBBLBBBBBBBBBBBBBBBBBBBBBBccdcmmmmlkiiiiikmBBBBBBBBBBBBBBBBBBBBBBBBBLBBBBBBBBBBBBBBBBBBBBBBddddncddddccccccnlknllBBBBBBBBBBBBBBBBBBBBLBBBBBBBBBBBBBBBBBBBBBBBBclllddcdddcdclilllkkBBBBBBBBBBBBBBBBBBBBLBBBBBBBBBBBBBBBBBBBBBBBBBBddcclliitwtaitHiBBBBBBBBBBBBBBBBBBBBBBLBBBBBBBBBBBBBBBBBBBBBBBBdddddclkkkkottloDikBBBBBBBBBBBBBBBBBBBBBL",
"LBBBBBBBBBBBBBBBBBBBcQQ**VVciintttiiiiiic1*HlBBBBBBBBBBBBBBBBBBBBLBBBBBBBBBBBBBBBBBBBBBQQQHaiiiikklkkkcddnnlBBBBBBBBBBBBBBBBBBBBBBLBBBBBBBBBBBBBBBBBBBBBBBPtialtolmmdccdcmBBBBBBBBBBBBBBBBBBBBBBBBBLBBBBBBBBBBBBBBBBBBBBBBddcnmcmlliiiiikkmBBBBBBBBBBBBBBBBBBBBBBBBBLBBBBBBBBBBBBBBBBBBBBBBcccnlcddddccccccllklkkBBBBBBBBBBBBBBBBBBBBLBBBBBBBBBBBBBBBBBBBBBBBBBllldddcddddclikllkkBBBBBBBBBBBBBBBBBBBBLBBBBBBBBBBBBBBBBBBBBBBBBBBddcccliiotlaitPBBBBBBBBBBBBBBBBBBBBBBBLBBBBBBBBBBBBBBBBBBBBBBBBcdddddcmmkkillaQDmkBBBBBBBBBBBBBBBBBBBBBL",
"LBBBBBBBBBBBBBBBBBBBBQHwwBBliiiiiiiiiiiic1*wwBBBBBBBBBBBBBBBBBBBBLBBBBBBBBBBBBBBBBBBBB11wcaaaclllllllkdddnnBBBBBBBBBBBBBBBBBBBBBBBLBBBBBBBBBBBBBBBBBBBBBBBDoiailllmmddddcmBBBBBBBBBBBBBBBBBBBBBBBBBLBBBBBBBBBBBBBBBBBBBBBBddcnmcmllkiiiiimBBBBBBBBBBBBBBBBBBBBBBBBBBLBBBBBBBBBBBBBBBBBBBBBBcccnlcddddcccccnlikkkkBBBBBBBBBBBBBBBBBBBBLBBBBBBBBBBBBBBBBBBBBBBBBBllldddcddddclikkkkkoBBBBBBBBBBBBBBBBBBBLBBBBBBBBBBBBBBBBBBBBBBBBBBddccclliiliaioDBBBBBBBBBBBBBBBBBBBBBBBLBBBBBBBBBBBBBBBBBBBBBBBBBccddcckkkkiiiaQDmkBBBBBBBBBBBBBBBBBBBBBL",
"LBBBBBBBBBBBBBBBBBBBBBHwBBBliiilkllllkkicwHwwBBBBBBBBBBBBBBBBBBBBLBBBBBBBBBBBBBBBBBBB111wddcocclllnnnHHwnncBBBBBBBBBBBBBBBBBBBBBBBLBBBBBBBBBBBBBBBBBBBBBB6DaaaeecmmdddcciBBBBBBBBBBBBBBBBBBBBBBBBBBLBBBBBBBBBBBBBBBBBBBBBddcnmcmmllkiiiiimBBBBBBBBBBBBBBBBBBBBBBBBBBLBBBBBBBBBBBBBBBBBBBBBBcccnlcddddcccnnnnlikkBBBBBBBBBBBBBBBBBBBBBLBBBBBBBBBBBBBBBBBBBBBBBBBBccddcdddddcliikkkooBBBBBBBBBBBBBBBBBBBLBBBBBBBBBBBBBBBBBBBBBBBBBBcccccclkillaaaBBBBBBBBBBBBBBBBBBBBBBBBLBBBBBBBBBBBBBBBBBBBBBBBBBBcccccwmlkiiaaammDPBBBBBBBBBBBBBBBBBBBBL",
"LBBBBBBBBBBBBBBBBBBBBBBBBBBliilllnnnnnkiBcHwBBBBBBBBBBBBBBBBBBBBBLBBBBBBBBBBBBBBBBBBB111wdBBBcccc1KKK1KwtnBBBBBBBBBBBBBBBBBBBBBBBBLBBBBBBBBBBBBBBBBBBBBBBBHHHHBBddcddcciiiBBBBBBBBBBBBBBBBBBBBBBBBBLBBBBBBBBBBBBBBBBBBBBBdccmmcmmllkiiiiiBBBBBBBBBBBBBBBBBBBBBBBBBBBLBBBBBBBBBBBBBBBBBBBBBBBcccncddddcccccnnlikkBBBBBBBBBBBBBBBBBBBBBLBBBBBBBBBBBBBBBBBBBBBBBBBBccddcddddclkiiBBtoowBBBBBBBBBBBBBBBBBBLBBBBBBBBBBBBBBBBBBBBBBBBBdcccccclliBHHHHBQQBBBBBBBBBBBBBBBBBBBBBLBBBBBBBBBBBBBBBBBBBBBBBBBBBcccQQPPPPPHiiBBDPBBBBBBBBBBBBBBBBBBBBL",
"LBBBBBBBBBBBBBBBBBBBBBBBBBBlllnnlcccccliBBBBBBBBBBBBBBBBBBBBBBBBBLBBBBBBBBBBBBBBBBBBB11BBBBBBcccc1KKKwwttlBBBBBBBBBBBBBBBBBBBBBBBBLBBBBBBBBBBBBBBBBBBBBBBBHHHHBBddcdcciikiBBBBBBBBBBBBBBBBBBBBBBBBBLBBBBBBBBBBBBBBBBBBBBBPwtBBccmlkkiihiiBBBBBBBBBBBBBBBBBBBBBBBBBBBLBBBBBBBBBBBBBBBBBBBBBBBBccndddddcddcccnlrFtBBBBBBBBBBBBBBBBBBBBBLBBBBBBBBBBBBBBBBBBBBBBBBBBBBddcddddclkkiBBtoowBBBBBBBBBBBBBBBBBBLBBBBBBBBBBBBBBBBBBBBBBBBBdcclclllwwwBBQQQQHBBBBBBBBBBBBBBBBBBBBBLBBBBBBBBBBBBBBBBBBBBBBBBBBBddwQKKlPPPHiiBBDPBBBBBBBBBBBBBBBBBBBBL",
"LBBBBBBBBBBBBBBBBBBBBBBBBBcnnnnnlccdddclBBBBBBBBBBBBBBBBBBBBBBBBBLBBBBBBBBBBBBBBBBBBBBBBBBBBBdccc1QQQtwtllBBBBBBBBBBBBBBBBBBBBBBBBLBBBBBBBBBBBBBBBBBBBBBBBHHBBBddKKDciikkiBBBBBBBBBBBBBBBBBBBBBBBBBLBBBBBBBBBBBBBBBBBBBB6PIsBBccmlkiiihiiBBBBBBBBBBBBBBBBBBBBBBBBBBBLBBBBBBBBBBBBBBBBBBBBBBBBHtcdddddcdddccnlHwtBBBBBBBBBBBBBBBBBBBBBLBBBBBBBBBBBBBBBBBBBBBBBBBBBBddcddddclkkiBBBBwwBBBBBBBBBBBBBBBBBBLBBBBBBBBBBBBBBBBBBBBBBBBBddcclklwHDwQQHHHHHBBBBBBBBBBBBBBBBBBBBBLBBBBBBBBBBBBBBBBBBBBBBBBBBdddlKKwlVVVHiiBBBPBBBBBBBBBBBBBBBBBBBBL",
"LBBBBBBBBBBBBBBBBBBBBBBBBBdcnnnnlddcccllBBBBBBBBBBBBBBBBBBBBBBBBBLBBBBBBBBBBBBBBBBBBBBBBBBBBBBccdddddcnnllBBBBBBBBBBBBBBBBBBBBBBBBLBBBBBBBBBBBBBBBBBBBBBBBBVVVVVQKDwwtmkkiBBBBBBBBBBBBBBBBBBBBBBBBBLBBBBBBBBBBBBBBBBBBBB6wwtBcccmkiiiihikBBBBBBBBBBBBBBBBBBBBBBBBBBBLBBBBBBBBBBBBBBBBBBBBBBBBBBcdddddcdddccnlttBBBBBBBBBBBBBBBBBBBBBBLBBBBBBBBBBBBBBBBBBBBBBBBBBBBddcdddclkkiiBBBBDwBBBBBBBBBBBBBBBBBBLBBBBBBBBBBBBBBBBBBBBBBBBBddcclkkDHDwwBHHHHBBBBBBBBBBBBBBBBBBBBBBLBBBBBBBBBBBBBBBBBBBBBBBBBBdccccclliiiiiiBBBBBBBBBBBBBBBBBBBBBBBBL",
"LBBBBBBBBBBBBBBBBBBBBBBBBBdcnnnnldcdddclBBBBBBBBBBBBBBBBBBBBBBBBBLBBBBBBBBBBBBBBBBBBBBBBBBBBBBccddddccnllkBBBBBBBBBBBBBBBBBBBBBBBBLBBBBBBBBBBBBBBBBBBBBBBBB1111QdHwwttmkkiBBBBBBBBBBBBBBBBBBBBBBBBBLBBBBBBBBBBBBBBBBBBBB6BBBdddcmkkkhhhhhBBBBBBBBBBBBBBBBBBBBBBBBBBBLBBBBBBBBBBBBBBBBBBBBBBBBBccdddddldddcccaBBBBBBBBBBBBBBBBBBBBBBBBLBBBBBBBBBBBBBBBBBBBBBBBBBBBBckkkklliiiiiBBBBBBBBBBBBBBBBBBBBBBBBLBBBBBBBBBBBBBBBBBBBBBBBBBddccckkkDwttBBBBBBBBBBBBBBBBBBBBBBBBBBBLBBBBBBBBBBBBBBBBBBBBBBBBBBcddddcnliiikkBBBBBBBBBBBBBBBBBBBBBBBBBL",
"LBBBBBBBBBBBBBBBBBBBBBBBBBccllllldddddclBBBBBBBBBBBBBBBBBBBBBBBBBLBBBBBBBBBBBBBBBBBBBBBBBBBBBBcddddccnnlkBBBBBBBBBBBBBBBBBBBBBBBBBLBBBBBBBBBBBBBBBBBBBBBBBB****3dDtttiiiiiBBBBBBBBBBBBBBBBBBBBBBBBBLBBBBBBBBBBBBBBBBBBBBBBBBdddcnkkihhikkBBBBBBBBBBBBBBBBBBBBBBBBBBBLBBBBBBBBBBBBBBBBBBBBBBBBBccccclllllllllkBBBBBBBBBBBBBBBBBBBBBBBBLBBBBBBBBBBBBBBBBBBBBBBBBBBBBckkcccccllliiBBBBBBBBBBBBBBBBBBBBBBBLBBBBBBBBBBBBBBBBBBBBBBBBBccllkkikkiiBBBBBBBBBBBBBBBBBBBBBBBBBBBBLBBBBBBBBBBBBBBBBBBBBBBBBBBcdddddcniiikkBBBBBBBBBBBBBBBBBBBBBBBBBL",
"LBBBBBBBBBBBBBBBBBBBBBBBBBddccccldddddclBBBBBBBBBBBBBBBBBBBBBBBBBLBBBBBBBBBBBBBBBBBBBBBBBBBBBBdddddccnllkBBBBBBBBBBBBBBBBBBBBBBBBBLBBBBBBBBBBBBBBBBBBBBBBBBBBBBdddddcckiiiBBBBBBBBBBBBBBBBBBBBBBBBBLBBBBBBBBBBBBBBBBBBBBBBBdddcmkkkihhiiBBBBBBBBBBBBBBBBBBBBBBBBBBBBLBBBBBBBBBBBBBBBBBBBBBBBBBcddcnnlkllllllkBBBBBBBBBBBBBBBBBBBBBBBBLBBBBBBBBBBBBBBBBBBBBBBBBBBBBcckcddcclllliBBBBBBBBBBBBBBBBBBBBBBBLBBBBBBBBBBBBBBBBBBBBBBBBBcdcccllkkkiBBBBBBBBBBBBBBBBBBBBBBBBBBBBLBBBBBBBBBBBBBBBBBBBBBBBBBBcdddddcnliikkBBBBBBBBBBBBBBBBBBBBBBBBBL",
"LBBBBBBBBBBBBBBBBBBBBBBBBBddccccndddddclBBBBBBBBBBBBBBBBBBBBBBBBBLBBBBBBBBBBBBBBBBBBBBBBBBBBBBddddccnnkkBBBBBBBBBBBBBBBBBBBBBBBBBBLBBBBBBBBBBBBBBBBBBBBBBBBBBBBdddddcckiiiBBBBBBBBBBBBBBBBBBBBBBBBBLBBBBBBBBBBBBBBBBBBBBBBBddckihhhhhiiiBBBBBBBBBBBBBBBBBBBBBBBBBBBBLBBBBBBBBBBBBBBBBBBBBBBBBBcddcnnlknnnlllkBBBBBBBBBBBBBBBBBBBBBBBBLBBBBBBBBBBBBBBBBBBBBBBBBBBBBccccdddccllliBBBBBBBBBBBBBBBBBBBBBBBLBBBBBBBBBBBBBBBBBBBBBBBBBcddccclllkkiBBBBBBBBBBBBBBBBBBBBBBBBBBBLBBBBBBBBBBBBBBBBBBBBBBBBBBccdddddcnkkkBBBBBBBBBBBBBBBBBBBBBBBBBBL",
"LBBBBBBBBBBBBBBBBBBBBBBBBBddccccndddddclBBBBBBBBBBBBBBBBBBBBBBBBBLBBBBBBBBBBBBBBBBBBBBBBBBBBBddddcnnnlkBBBBBBBBBBBBBBBBBBBBBBBBBBBLBBBBBBBBBBBBBBBBBBBBBBBBBBBdddddccmiiiiBBBBBBBBBBBBBBBBBBBBBBBBBLBBBBBBBBBBBBBBBBBBBBBBddcddkhiihhiikBBBBBBBBBBBBBBBBBBBBBBBBBBBBLBBBBBBBBBBBBBBBBBBBBBBBBBdddcnnkknnnlllkBBBBBBBBBBBBBBBBBBBBBBBBLBBBBBBBBBBBBBBBBBBBBBBBBBBBBBcccdddccclliiBBBBBBBBBBBBBBBBBBBBBBLBBBBBBBBBBBBBBBBBBBBBBBBBcddccccllkkiBBBBBBBBBBBBBBBBBBBBBBBBBBBLBBBBBBBBBBBBBBBBBBBBBBBBBBcdccdddcnikkBBBBBBBBBBBBBBBBBBBBBBBBBBL",
"LBBBBBBBBBBBBBBBBBBBBBBBBBBddcccndddddclBBBBBBBBBBBBBBBBBBBBBBBBBLBBBBBBBBBBBBBBBBBBBBBBBBBBBddddddlhhBBBBBBBBBBBBBBBBBBBBBBBBBBBBLBBBBBBBBBBBBBBBBBBBBBBBBBBBddddccmkiiiiBBBBBBBBBBBBBBBBBBBBBBBBBLBBBBBBBBBBBBBBBBBBBBBBddddcnnkihhiikBBBBBBBBBBBBBBBBBBBBBBBBBBBBLBBBBBBBBBBBBBBBBBBBBBBBBBdddcnnkklllkkkkBBBBBBBBBBBBBBBBBBBBBBBBLBBBBBBBBBBBBBBBBBBBBBBBBBBBBBdccccllllcliiBBBBBBBBBBBBBBBBBBBBBBLBBBBBBBBBBBBBBBBBBBBBBBBBBcddddcclkkiBBBBBBBBBBBBBBBBBBBBBBBBBBBLBBBBBBBBBBBBBBBBBBBBBBBBBBBddddcccmikkBBBBBBBBBBBBBBBBBBBBBBBBBBL",
"LBBBBBBBBBBBBBBBBBBBBBBBBBBdcccccddcccdlBBBBBBBBBBBBBBBBBBBBBBBBBLBBBBBBBBBBBBBBBBBBBBBBBBBBBdddcnlkhkhBBBBBBBBBBBBBBBBBBBBBBBBBBBLBBBBBBBBBBBBBBBBBBBBBBBBBBddddcmkiiiiiiBBBBBBBBBBBBBBBBBBBBBBBBBLBBBBBBBBBBBBBBBBBBBBBBddddcnnkihhiikBBBBBBBBBBBBBBBBBBBBBBBBBBBBLBBBBBBBBBBBBBBBBBBBBBBBBBdddddckknnnllkkBBBBBBBBBBBBBBBBBBBBBBBBLBBBBBBBBBBBBBBBBBBBBBBBBBBBBBdcccdddollliiBBBBBBBBBBBBBBBBBBBBBBLBBBBBBBBBBBBBBBBBBBBBBBBBBccllddclkkiBBBBBBBBBBBBBBBBBBBBBBBBBBBLBBBBBBBBBBBBBBBBBBBBBBBBBBBmmccccnkikBBBBBBBBBBBBBBBBBBBBBBBBBBBL",
"LBBBBBBBBBBBBBBBBBBBBBBBBBddcnnncncccccllBBBBBBBBBBBBBBBBBBBBBBBBLBBBBBBBBBBBBBBBBBBBBBBBBBBBdcccnllkhhBBBBBBBBBBBBBBBBBBBBBBBBBBBLBBBBBBBBBBBBBBBBBBBBBBBBBBddddddckiiiiBBBBBBBBBBBBBBBBBBBBBBBBBBLBBBBBBBBBBBBBBBBBBBBBBBccnkkaaaahiikBBBBBBBBBBBBBBBBBBBBBBBBBBBBLBBBBBBBBBBBBBBBBBBBBBBBBBddcclllknllllkkBBBBBBBBBBBBBBBBBBBBBBBBLBBBBBBBBBBBBBBBBBBBBBBBBBBBBBddcddddclliiBBBBBBBBBBBBBBBBBBBBBBBLBBBBBBBBBBBBBBBBBBBBBBBBBBcdddcclkkiiBBBBBBBBBBBBBBBBBBBBBBBBBBBLBBBBBBBBBBBBBBBBBBBBBBBBBBddccnnmliikBBBBBBBBBBBBBBBBBBBBBBBBBBBL",
"LBBBBBBBBBBBBBBBBBBBBBBBBBdlnnnnnlcnnnnllBBBBBBBBBBBBBBBBBBBBBBBBLBBBBBBBBBBBBBBBBBBBBBBBBBBBBcnnnllhaaaBBBBBBBBBBBBBBBBBBBBBBBBBBLBBBBBBBBBBBBBBBBBBBBBBBBBBBddcccmkkiaiiBBBBBBBBBBBBBBBBBBBBBBBBBLBBBBBBBBBBBBBBBBBBBBBBBkkkkaaaaaaikBBBBBBBBBBBBBBBBBBBBBBBBBBBBBLBBBBBBBBBBBBBBBBBBBBBBBBBdddcnnlkliiiikkBBBBBBBBBBBBBBBBBBBBBBBBLBBBBBBBBBBBBBBBBBBBBBBBBBBBBBcccoolilliiiBBBBBBBBBBBBBBBBBBBBBBBLBBBBBBBBBBBBBBBBBBBBBBBBBBcaacclkiiiBBBBBBBBBBBBBBBBBBBBBBBBBBBBLBBBBBBBBBBBBBBBBBBBBBBBBBBdcccnnmkiikBBBBBBBBBBBBBBBBBBBBBBBBBBBL",
"LBBBBBBBBBBBBBBBBBBBBBBBBBBllnnnnlcnnnlaBBBBBBBBBBBBBBBBBBBBBBBBBLBBBBBBBBBBBBBBBBBBBBBBBBBBBBBnllhaaaaaBBBBBBBBBBBBBBBBBBBBBBBBBBLBBBBBBBBBBBBBBBBBBBBBBBBBBBBcccmmkkaaaaiBBBBBBBBBBBBBBBBBBBBBBBBLBBBBBBBBBBBBBBBBBBBBBBBBBkaaaaaaaiiBBBBBBBBBBBBBBBBBBBBBBBBBBBBBLBBBBBBBBBBBBBBBBBBBBBBBBBeddcnlkkiillaaBBBBBBBBBBBBBBBBBBBBBBBBBLBBBBBBBBBBBBBBBBBBBBBBBBBBBBBcccoolialiiBBBBBBBBBBBBBBBBBBBBBBBBLBBBBBBBBBBBBBBBBBBBBBBBBBlllaklkiiiBBBBBBBBBBBBBBBBBBBBBBBBBBBBBLBBBBBBBBBBBBBBBBBBBBBBBBBBacnnnmmiiiiBBBBBBBBBBBBBBBBBBBBBBBBBBBL",
"LBBBBBBBBBBBBBBBBBBBBBBBBBBllllllailllaaBBBBBBBBBBBBBBBBBBBBBBBBBLBBBBBBBBBBBBBBBBBBBBBBBBBBBBBBaaaaaiaaaBBBBBBBBBBBBBBBBBBBBBBBBBLBBBBBBBBBBBBBBBBBBBBBBBBBBBBBckmkkaahaaaaaBBBBBBBBBBBBBBBBBBBBBBLBBBBBBBBBBBBBBBBBBBBBBBBBBaaaaaaaakkBBBBBBBBBBBBBBBBBBBBBBBBBBBBLBBBBBBBBBBBBBBBBBBBBBBBBBBdcnllkkaiiiaaBBBBBBBBBBBBBBBBBBBBBBBBBLBBBBBBBBBBBBBBBBBBBBBBBBBBBBBBooiaiaaiiBBBBBBBBBBBBBBBBBBBBBBBBBLBBBBBBBBBBBBBBBBBBBBBBBBBlliaaiiiBBBBBBBBBBBBBBBBBBBBBBBBBBBBBBBLBBBBBBBBBBBBBBBBBBBBBBBBBkkammmkiiiiBBBBBBBBBBBBBBBBBBBBBBBBBBBBL",
"LBBBBBBBBBBBBBBBBBBBBBBBBBBaaaaaaaiaaaaaBBBBBBBBBBBBBBBBBBBBBBBBBLBBBBBBBBBBBBBBBBBBBBBBBBBBBBBBBaaiiiaaaaBBBBBBBBBBBBBBBBBBBBBBBBLBBBBBBBBBBBBBBBBBBBBBBBBBBBBBBBkkaahhhaaaaaBBBBBBBBBBBBBBBBBBBBBLBBBBBBBBBBBBBBBBBBBBBBBBBBBBaaaaiiikBBBBBBBBBBBBBBBBBBBBBBBBBBBBLBBBBBBBBBBBBBBBBBBBBBBBBBBiaaaaaBaaaaaaBBBBBBBBBBBBBBBBBBBBBBBBBLBBBBBBBBBBBBBBBBBBBBBBBBBBBBBaoolaaaaaBBBBBBBBBBBBBBBBBBBBBBBBBBLBBBBBBBBBBBBBBBBBBBBBBllliiiaaaiBBBBBBBBBBBBBBBBBBBBBBBBBBBBBBBBLBBBBBBBBBBBBBBBBBBBBBBBBBkkhakkiiiiiBBBBBBBBBBBBBBBBBBBBBBBBBBBBL",
"LBBBBBBBBBBBBBBBBBBBBBBBBBBaiiiiaaaiiaaaBBBBBBBBBBBBBBBBBBBBBBBBBLBBBBBBBBBBBBBBBBBBBBBBBBBBBBBBBBBiiaaaaaaBBBBBBBBBBBBBBBBBBBBBBBLBBBBBBBBBBBBBBBBBBBBBBBBBBBBBBBBBkkhhaaaaaiBBBBBBBBBBBBBBBBBBBBBLBBBBBBBBBBBBBBBBBBBBBBBBBBBBBaaaiiaaBBBBBBBBBBBBBBBBBBBBBBBBBBBBLBBBBBBBBBBBBBBBBBBBBBBBBBBoliaaaBaaoliBBBBBBBBBBBBBBBBBBBBBBBBBBLBBBBBBBBBBBBBBBBBBBBBBBBBBBBBiilaaaaBBBBBBBBBBBBBBBBBBBBBBBBBBBBLBBBBBBBBBBBBBBBBBBBBBBlliaaaaaaaBBBBBBBBBBBBBBBBBBBBBBBBBBBBBBBBLBBBBBBBBBBBBBBBBBBBBBBBBahhhaaaaaaaBBBBBBBBBBBBBBBBBBBBBBBBBBBBBL",
"LBBBBBBBBBBBBBBBBBBBBBBBBBBallliaaaaaaaBBBBBBBBBBBBBBBBBBBBBBBBBBLBBBBBBBBBBBBBBBBBBBBBBBBBBBBBBBBBBaaaaaaaBBBBBBBBBBBBBBBBBBBBBBBLBBBBBBBBBBBBBBBBBBBBBBBBBBBBBBBBBaaaaaaaaiBBBBBBBBBBBBBBBBBBBBBBLBBBBBBBBBBBBBBBBBBBBBBBBBBBBaaaiiiaaBBBBBBBBBBBBBBBBBBBBBBBBBBBBLBBBBBBBBBBBBBBBBBBBBBBBBBBoliaaaBBalliBBBBBBBBBBBBBBBBBBBBBBBBBBLBBBBBBBBBBBBBBBBBBBBBBBBBBBBoliiaaaBBBBBBBBBBBBBBBBBBBBBBBBBBBBBLBBBBBBBBBBBBBBBBBBBBBBiiiaaaaaaaBBBBBBBBBBBBBBBBBBBBBBBBBBBBBBBBLBBBBBBBBBBBBBBBBBBBBBBBkkaaaaaaaaaaBBBBBBBBBBBBBBBBBBBBBBBBBBBBBL",
"LBBBBBBBBBBBBBBBBBBBBBBBBBBBiiiiaaaiaiaaBBBBBBBBBBBBBBBBBBBBBBBBBLBBBBBBBBBBBBBBBBBBBBBBBBBBBBBBBBBBiiaaaaBBBBBBBBBBBBBBBBBBBBBBBBLBBBBBBBBBBBBBBBBBBBBBBBBBBBBBBBBBBaahhaaaBBBBBBBBBBBBBBBBBBBBBBBLBBBBBBBBBBBBBBBBBBBBBBBBBBBBaaiiiiaaBBBBBBBBBBBBBBBBBBBBBBBBBBBBLBBBBBBBBBBBBBBBBBBBBBBBBBBiiiaaaBaaaiaaBBBBBBBBBBBBBBBBBBBBBBBBBLBBBBBBBBBBBBBBBBBBBBBBBBBBBBoliiiaaaBBBBBBBBBBBBBBBBBBBBBBBBBBBBLBBBBBBBBBBBBBBBBBBBBBBaaaaaaaaaBBBBBBBBBBBBBBBBBBBBBBBBBBBBBBBBBLBBBBBBBBBBBBBBBBBBBBBBBkkhaaaaaaaaBBBBBBBBBBBBBBBBBBBBBBBBBBBBBBL",
"LBBBBBBBBBBBBBBBBBBBBBBBBBBBaaaaaBiliaaaBBBBBBBBBBBBBBBBBBBBBBBBBLBBBBBBBBBBBBBBBBBBBBBBBBBBBBBBBBBnniaaaaBBBBBBBBBBBBBBBBBBBBBBBBLBBBBBBBBBBBBBBBBBBBBBBBBBBBBBBBBBBakkhaaiBBBBBBBBBBBBBBBBBBBBBBBLBBBBBBBBBBBBBBBBBBBBBBBBBBBBaiiiiaaaBBBBBBBBBBBBBBBBBBBBBBBBBBBBLBBBBBBBBBBBBBBBBBBBBBBBBBBBaaaaBBaiiiiaBBBBBBBBBBBBBBBBBBBBBBBBBLBBBBBBBBBBBBBBBBBBBBBBBBBBBBliaiiiaaBBBBBBBBBBBBBBBBBBBBBBBBBBBBLBBBBBBBBBBBBBBBBBBBBBBBaaaaaaaaBBBBBBBBBBBBBBBBBBBBBBBBBBBBBBBBBLBBBBBBBBBBBBBBBBBBBBBBBahhaaaaaaaBBBBBBBBBBBBBBBBBBBBBBBBBBBBBBBL",
"LBBBBBBBBBBBBBBBBBBBBBBBBBBBaaaaaaiiiaaaBBBBBBBBBBBBBBBBBBBBBBBBBLBBBBBBBBBBBBBBBBBBBBBBBBBBBBBBBBanniaaaaaBBBBBBBBBBBBBBBBBBBBBBBLBBBBBBBBBBBBBBBBBBBBBBBBBBBBBBBBBBBkhaaiBBBBBBBBBBBBBBBBBBBBBBBBLBBBBBBBBBBBBBBBBBBBBBBBBBBBBaiiaaaaaBBBBBBBBBBBBBBBBBBBBBBBBBBBBLBBBBBBBBBBBBBBBBBBBBBBBBBBBaaaaBBiiiiiaBBBBBBBBBBBBBBBBBBBBBBBBBLBBBBBBBBBBBBBBBBBBBBBBBBBBBBBaaaaiiaaBBBBBBBBBBBBBBBBBBBBBBBBBBBLBBBBBBBBBBBBBBBBBBBBBBBBaaaaaaBBBBBBBBBBBBBBBBBBBBBBBBBBBBBBBBBBLBBBBBBBBBBBBBBBBBBBBBBBBaaaaaaaaaaBBBBBBBBBBBBBBBBBBBBBBBBBBBBBBL",
"LBBBBBBBBBBBBBBBBBBBBBBBBBBanlliaaBaaaaBBBBBBBBBBBBBBBBBBBBBBBBBBLBBBBBBBBBBBBBBBBBBBBBBBBBBBBBBBBaaaaaaaaaBBBBBBBBBBBBBBBBBBBBBBBLBBBBBBBBBBBBBBBBBBBBBBBBBBBBBBBBBBhaaaaBBBBBBBBBBBBBBBBBBBBBBBBBLBBBBBBBBBBBBBBBBBBBBBBBBBBBBBaaaaaaaaBBBBBBBBBBBBBBBBBBBBBBBBBBBLBBBBBBBBBBBBBBBBBBBBBBBBBBoliaaaBBiiiiBBBBBBBBBBBBBBBBBBBBBBBBBBLBBBBBBBBBBBBBBBBBBBBBBBBBBBBoliaaiiaaBBBBBBBBBBBBBBBBBBBBBBBBBBBLBBBBBBBBBBBBBBBBBBBBBBBBBBaaaaaBBBBBBBBBBBBBBBBBBBBBBBBBBBBBBBBBLBBBBBBBBBBBBBBBBBBBBBBBBaaaaaaaaaaaBBBBBBBBBBBBBBBBBBBBBBBBBBBBBL",
"LBBBBBBBBBBBBBBBBBBBBBBBBBBinlliaaBBBBBBBBBBBBBBBBBBBBBBBBBBBBBBBLBBBBBBBBBBBBBBBBBBBBBBBBBBBBBBBaaaaaaaaaBBBBBBBBBBBBBBBBBBBBBBBBLBBBBBBBBBBBBBBBBBBBBBBBBBBBBBBBBkkkhaaaaBBBBBBBBBBBBBBBBBBBBBBBBLBBBBBBBBBBBBBBBBBBBBBBBBBBBBBaaaaaaaaBBBBBBBBBBBBBBBBBBBBBBBBBBBLBBBBBBBBBBBBBBBBBBBBBBBBBBoliaaaBBBBBBBBBBBBBBBBBBBBBBBBBBBBBBBBLBBBBBBBBBBBBBBBBBBBBBBBBBBBBlliaaaaaBBBBBBBBBBBBBBBBBBBBBBBBBBBBLBBBBBBBBBBBBBBBBBBBBBBBBBlliaaaaaBBBBBBBBBBBBBBBBBBBBBBBBBBBBBBBLBBBBBBBBBBBBBBBBBBBBBBBBBaaaaaaaaaaaBBBBBBBBBBBBBBBBBBBBBBBBBBBBL",
"LBBBBBBBBBBBBBBBBBBBBBBBBBBaiiiiaBBBBBBBBBBBBBBBBBBBBBBBBBBBBBBBBLBBBBBBBBBBBBBBBBBBBBBBBBBBBBBBBaaaaaailoBBBBBBBBBBBBBBBBBBBBBBBBLBBBBBBBBBBBBBBBBBBBBBBBBBBBBBBkkkhhaaaaaBBBBBBBBBBBBBBBBBBBBBBBBLBBBBBBBBBBBBBBBBBBBBBBBBBBBBBBaaaaaaaBBBBBBBBBBBBBBBBBBBBBBBBBBBLBBBBBBBBBBBBBBBBBBBBBBBBBBiiiaaaBBBBBBBBBBBBBBBBBBBBBBBBBBBBBBBBLBBBBBBBBBBBBBBBBBBBBBBBBBBBBaaaaaaaaaBBBBBBBBBBBBBBBBBBBBBBBBBBBLBBBBBBBBBBBBBBBBBBBBBBBBBlliaaaaaaaBBBBBBBBBBBBBBBBBBBBBBBBBBBBBLBBBBBBBBBBBBBBBBBBBBBBBBBBBBBaaaaaaaBBBBBBBBBBBBBBBBBBBBBBBBBBBBL",
"LBBBBBBBBBBBBBBBBBBBBBBBBBBBBBBBBBBBBBBBBBBBBBBBBBBBBBBBBBBBBBBBBLBBBBBBBBBBBBBBBBBBBBBBBBBBBBBBBBBBBBBBBBBBBBBBBBBBBBBBBBBBBBBBBBLBBBBBBBBBBBBBBBBBBBBBBBBBBBBBBiiiiaaaaaaBBBBBBBBBBBBBBBBBBBBBBBBLBBBBBBBBBBBBBBBBBBBBBBBBBBBBBBBBBBBBBBBBBBBBBBBBBBBBBBBBBBBBBBBBLBBBBBBBBBBBBBBBBBBBBBBBBBBBBBBBBBBBBBBBBBBBBBBBBBBBBBBBBBBBBBBBBLBBBBBBBBBBBBBBBBBBBBBBBBBBBBBBBBBBBBBBBBBBBBBBBBBBBBBBBBBBBBBBBBLBBBBBBBBBBBBBBBBBBBBBBBBBliaaaaaaaaBBBBBBBBBBBBBBBBBBBBBBBBBBBBBLBBBBBBBBBBBBBBBBBBBBBBBBBBBBBBBBBBBBBBBBBBBBBBBBBBBBBBBBBBBBBBBBL",
"LLLLLLLLLLLLLLLLLLLLLLLLLLLLLLLLLLLLLLLLLLLLLLLLLLLLLLLLLLLLLLLLLLLLLLLLLLLLLLLLLLLLLLLLLLLLLLLLLLLLLLLLLLLLLLLLLLLLLLLLLLLLLLLLLLLLLLLLLLLLLLLLLLLLLLLLLLLLLLLLLLLLLLLLLLLLLLLLLLLLLLLLLLLLLLLLLLLLLLLLLLLLLLLLLLLLLLLLLLLLLLLLLLLLLLLLLLLLLLLLLLLLLLLLLLLLLLLLLLLLLLLLLLLLLLLLLLLLLLLLLLLLLLLLLLLLLLLLLLLLLLLLLLLLLLLLLLLLLLLLLLLLLLLLLLLLLLLLLLLLLLLLLLLLLLLLLLLLLLLLLLLLLLLLLLLLLLLLLLLLLLLLLLLLLLLLLLLLLLLLLLLLLLLLLLLLLLLLLLLLLLLLLLLLLLLLLLLLLLLLLLLLLLLLLLLLLLLLLLLLLLLLLLLLLLLLLLLLLLLLLLLLLLLLLLLLLLLLLLLLLLLLLLLLLLLLLLLLLLLLL",
"LBBBBBBBBBBBBBBBBBBBBBBBBBBBBBBBBBBBBBBBBBBBBBBBBBBBBBBBBBBBBBBBBLBBBBBBBBBBBBBBBBBBBBBBBBBBBBBBBBBBBBBBBBBBBBBBBBBBBBBBBBBBBBBBBBLBBBBBBBBBBBBBBBBBBBBBBBBBBBBBBBBBBBBBBBBBBBBBBBBBBBBBBBBBBBBBBBBLBBBBBBBBBBBBBBBBBBBBBBBBBBBBBBBBBBBBBBBBBBBBBBBBBBBBBBBBBBBBBBBBLBBBBBBBBBBBBBBBBBBBBBBBBBBBBBBBBBBBBBBBBBBBBBBBBBBBBBBBBBBBBBBBBLBBBBBBBBBBBBBBBBBBBBBBBBBBBBBBBBBBBBBBBBBBBBBBBBBBBBBBBBBBBBBBBBLBBBBBBBBBBBBBBBBBBBBBBBBBBBBBBBBBBBBBBBBBBBBBBBBBBBBBBBBBBBBBBBBLLLLLLLLLLLLLLLLLLLLLLLLLLLLLLLLLLLLLLLLLLLLLLLLLLLLLLLLLLLLLLLLLL",
"LBBBBBBBBBBBBBBBBBBBBBBBBBBBBBBBBBBBBBBBBBBBBBBBBBBBBBBBBBBBBBBBBLBBBBBBBBBBBBBBBBBBBBBBBBBBBBBBBBBBBBBBBBBBBBBBBBBBBBBBBBBBBBBBBBLBBBBBBBBBBBBBBBBBBBBBBBBBBBBBBBBBBBBBBBBBBBBBBBBBBBBBBBBBBBBBBBBLBBBBBBBBBBBBBBBBBBBBBBBBBBBBBBBBBBBBBBBBBBBBBBBBBBBBBBBBBBBBBBBBLBBBBBBBBBBBBBBBBBBBBBBBBBBBBBBBBBBBBBBBBBBBBBBBBBBBBBBBBBBBBBBBBLBBBBBBBBBBBBBBBBBBBBBBBBBBBBBBBBBBBBBBBBBBBBBBBBBBBBBBBBBBBBBBBBLBBBBBBBBBBBBBBBBBBBBBBBBBBBBBBBBBBBBBBBBBBBBBBBBBBBBBBBBBBBBBBBBLLLLLLLLLLLLLLLLLLLLLLLLLLLLLLLLLLLLLLLLLLLLLLLLLLLLLLLLLLLLLLLLLL",
"LBBBBBBBBBBBBBBBBBBBBBBBBBBBBBBBBBBBBBBBBBBBBBBBBBBBBBBBBBBBBBBBBLBBBBBBBBBBBBBBBBBBBBBBBBBBBBBBBBBBBBBBBBBBBBBBBBBBBBBBBBBBBBBBBBLBBBBBBBBBBBBBBBBBBBBBBBBBBBBBBBBBBBBBBBBBBBBBBBBBBBBBBBBBBBBBBBBLBBBBBBBBBBBBBBBBBBBBBBBBBBBBBBBBBBBBBBBBBBBBBBBBBBBBBBBBBBBBBBBBLBBBBBBBBBBBBBBBBBBBBBBBBBBBBBBBBBBBBBBBBBBBBBBBBBBBBBBBBBBBBBBBBLBBBBBBBBBBBBBBBBBBBBBBBBBBBBBBBBBBBBBBBBBBBBBBBBBBBBBBBBBBBBBBBBLBBBBBBBBBBBBBBBBBBBBBBBBBBBBBBBBBBBBBBBBBBBBBBBBBBBBBBBBBBBBBBBBLLLLLLLLLLLLLLLLLLLLaaLLLLLLLLLLLLLLLLLLLLLLLLLLLLLLLLLLLLLLLLLLLL",
"LBBBBBBBBBBBBBBBBBBBBBBBBBBBBBBBBBBBBBBBBBBBBBBBBBBBBBBBBBBBBBBBBLBBBBBBBBBBBBBBBBBBBBBBBBBBBBBBBBBBBBBBBBBBBBBBBBBBBBBBBBBBBBBBBBLBBBBBBBBBBBBBBBBBBBBBBBBBBBBBBBBBBBBBBBBBBBBBBBBBBBBBBBBBBBBBBBBLBBBBBBBBBBBBBBBBBBBBBBBBBBBBBBBBBBBBBBBBBBBBBBBBBBBBBBBBBBBBBBBBLBBBBBBBBBBBBBBBBBBBBBBBBBBBBBBBBBBBBBBBBBBBBBBBBBBBBBBBBBBBBBBBBLBBBBBBBBBBBBBBBBBBBBBBBBBBBBBBBBBBBBBBBBBBBBBBBBBBBBBBBBBBBBBBBBLBBBBBBBBBBBBBBBBBBBBBBBBBBBBBBBBBBBBBBBBBBBBBBBBBBBBBBBBBBBBBBBBLLLLLLLLLLLaaaaaLLLLaaLLLLLLLLLLLLLLLLLLLLaaLLLLLLLLLLLLLLLLLLLLLL",
"LBBBBBBBBBBBBBBBBBBBBBBBBBBBBBBBBBBBBBBBBBBBBBBBBBBBBBBBBBBBBBBBBLBBBBBBBBBBBBBBBBBBBBBBBBBBBBBBBBBBBBBBBBBBBBBBBBBBBBBBBBBBBBBBBBLBBBBBBBBBBBBBBBBBBBBBBBBBBBBBBBBBBBBBBBBBBBBBBBBBBBBBBBBBBBBBBBBLBBBBBBBBBBBBBBBBBBBBBBBBBBBBBBBBBBBBBBBBBBBBBBBBBBBBBBBBBBBBBBBBLBBBBBBBBBBBBBBBBBBBBBBBBBBBBBBBBBBBBBBBBBBBBBBBBBBBBBBBBBBBBBBBBLBBBBBBBBBBBBBBBBBBBBBBBBBBBBBBBBBBBBBBBBBBBBBBBBBBBBBBBBBBBBBBBBLBBBBBBBBBBBBBBBBBBBBBBBBBBBBBBBBBBBBBBBBBBBBBBBBBBBBBBBBBBBBBBBBLLLLLLLLLLLaaLLaaLLLLLLLLLLLLLLLLLLLLLLLLLaaLLLLLLLLLLLLLLLLLLLLLL",
"LBBBBBBBBBBBBBBBBBBBBBBBBBBBBBBBBBBBBBBBBBBBBBBBBBBBBBBBBBBBBBBBBLBBBBBBBBBBBBBBBBBBBBBBBBBBBBBBBBBBBBBBBBBBBBBBBBBBBBBBBBBBBBBBBBLBBBBBBBBBBBBBBBBBBBBBBBBBBBBBBBBBBBBBBBBBBBBBBBBBBBBBBBBBBBBBBBBLBBBBBBBBBBBBBBBBBBBBBBBBBBBBBBBBBBBBBBBBBBBBBBBBBBBBBBBBBBBBBBBBLBBBBBBBBBBBBBBBBBBBBBBBBBBBBBBBBBBBBBBBBBBBBBBBBBBBBBBBBBBBBBBBBLBBBBBBBBBBBBBBBBBBBBBBBBBBBBBBBBBBBBBBBBBBBBBBBBBBBBBBBBBBBBBBBBLBBBBBBBBBBBBBBBBBBBBBBBBBBBBBBBBBBBBBBBBBBBBBBBBBBBBBBBBBBBBBBBBLLLLLLLLLLLaaLLaaLaaaaLLLaaaaaLLLaaaaLLLLLaaaaaLLaaLLaaLLLLLLLLLLL",
"LBBBBBBBBBBBBBBBBBBBBBBBBBBBBBBBBBBBBBBBBBBBBBBBBBBBBBBBBBBBBBBBBLBBBBBBBBBBBBBBBBBBBBBBBBBBBBBBBBBBBBBBBBBBBBBBBBBBBBBBBBBBBBBBBBLBBBBBBBBBBBBBBBBBBBBBBBBBBBBBBBBBBBBBBBBBBBBBBBBBBBBBBBBBBBBBBBBLBBBBBBBBBBBBBBBBBBBBBBBBBBBBBBBBBBBBBBBBBBBBBBBBBBBBBBBBBBBBBBBBLBBBBBBBBBBBBBBBBBBBBBBBBBBBBBBBBBBBBBBBBBBBBBBBBBBBBBBBBBBBBBBBBLBBBBBBBBBBBBBBBBBBBBBBBBBBBBBBBBBBBBBBBBBBBBBBBBBBBBBBBBBBBBBBBBLBBBBBBBBBBBBBBBBBBBBBBBBBBBBBBBBBBBBBBBBBBBBBBBBBBBBBBBBBBBBBBBBLLLLLLLLLLLaaLLaaLLLaaLLLaaLLaaLaaLLaaLLLLaaLLaaLaaLLaaLLLLLLLLLLL",
"LBBBBBBBBBBBBBBBBBBBBBBBBBBBBBBBBBBBBBBBBBBBBBBBBBBBBBBBBBBBBBBBBLBBBBBBBBBBBBBBBBBBBBBBBBBBBBBBBBBBBBBBBBBBBBBBBBBBBBBBBBBBBBBBBBLBBBBBBBBBBBBBBBBBBBBBBBBBBBBBBBBBBBBBBBBBBBBBBBBBBBBBBBBBBBBBBBBLBBBBBBBBBBBBBBBBBBBBBBBBBBBBBBBBBBBBBBBBBBBBBBBBBBBBBBBBBBBBBBBBLBBBBBBBBBBBBBBBBBBBBBBBBBBBBBBBBBBBBBBBBBBBBBBBBBBBBBBBBBBBBBBBBLBBBBBBBBBBBBBBBBBBBBBBBBBBBBBBBBBBBBBBBBBBBBBBBBBBBBBBBBBBBBBBBBLBBBBBBBBBBBBBBBBBBBBBBBBBBBBBBBBBBBBBBBBBBBBBBBBBBBBBBBBBBBBBBBBLLLLLLLLLLLaaaaaLLLLaaLLLaaLLaaLaaLLLLLLLLaaLLaaLaaLLaaLLLLLLLLLLL",
"LBBBBBBBBBBBBBBBBBBBBBBBBBBBBBBBBBBBBBBBBBBBBBBBBBBBBBBBBBBBBBBBBLBBBBBBBBBBBBBBBBBBBBBBBBBBBBBBBBBBBBBBBBBBBBBBBBBBBBBBBBBBBBBBBBLBBBBBBBBBBBBBBBBBBBBBBBBBBBBBBBBBBBBBBBBBBBBBBBBBBBBBBBBBBBBBBBBLBBBBBBBBBBBBBBBBBBBBBBBBBBBBBBBBBBBBBBBBBBBBBBBBBBBBBBBBBBBBBBBBLBBBBBBBBBBBBBBBBBBBBBBBBBBBBBBBBBBBBBBBBBBBBBBBBBBBBBBBBBBBBBBBBLBBBBBBBBBBBBBBBBBBBBBBBBBBBBBBBBBBBBBBBBBBBBBBBBBBBBBBBBBBBBBBBBLBBBBBBBBBBBBBBBBBBBBBBBBBBBBBBBBBBBBBBBBBBBBBBBBBBBBBBBBBBBBBBBBLLLLLLLLLLLaaLLaaLLLaaLLLaaLLaaLLaaaaLLLLLaaLLaaLaaLLaaLLLLLLLLLLL",
"LBBBBBBBBBBBBBBBBBBBBBBBBBBBBBBBBBBBBBBBBBBBBBBBBBBBBBBBBBBBBBBBBLBBBBBBBBBBBBBBBBBBBBBBBBBBBBBBBBBBBBBBBBBBBBBBBBBBBBBBBBBBBBBBBBLBBBBBBBBBBBBBBBBBBBBBBBBBBBBBBBBBBBBBBBBBBBBBBBBBBBBBBBBBBBBBBBBLBBBBBBBBBBBBBBBBBBBBBBBBBBBBBBBBBBBBBBBBBBBBBBBBBBBBBBBBBBBBBBBBLBBBBBBBBBBBBBBBBBBBBBBBBBBBBBBBBBBBBBBBBBBBBBBBBBBBBBBBBBBBBBBBBLBBBBBBBBBBBBBBBBBBBBBBBBBBBBBBBBBBBBBBBBBBBBBBBBBBBBBBBBBBBBBBBBLBBBBBBBBBBBBBBBBBBBBBBBBBBBBBBBBBBBBBBBBBBBBBBBBBBBBBBBBBBBBBBBBLLLLLLLLLLLaaLLaaLLLaaLLLaaLLaaLLLLLaaLLLLaaLLaaLaaLLaaLLLLLLLLLLL",
"LBBBBBBBBBBBBBBBBBBBBBBBBBBBBBBBBBBBBBBBBBBBBBBBBBBBBBBBBBBBBBBBBLBBBBBBBBBBBBBBBBBBBBBBBBBBBBBBBBBBBBBBBBBBBBBBBBBBBBBBBBBBBBBBBBLBBBBBBBBBBBBBBBBBBBBBBBBBBBBBBBBBBBBBBBBBBBBBBBBBBBBBBBBBBBBBBBBLBBBBBBBBBBBBBBBBBBBBBBBBBBBBBBBBBBBBBBBBBBBBBBBBBBBBBBBBBBBBBBBBLBBBBBBBBBBBBBBBBBBBBBBBBBBBBBBBBBBBBBBBBBBBBBBBBBBBBBBBBBBBBBBBBLBBBBBBBBBBBBBBBBBBBBBBBBBBBBBBBBBBBBBBBBBBBBBBBBBBBBBBBBBBBBBBBBLBBBBBBBBBBBBBBBBBBBBBBBBBBBBBBBBBBBBBBBBBBBBBBBBBBBBBBBBBBBBBBBBLLLLLLLLLLLaaLLaaLLLaaLLLaaLLaaLaaLLaaLLLLaaLLaaLaaLLaaLLLLLLLLLLL",
"LBBBBBBBBBBBBBBBBBBBBBBBBBBBBBBBBBBBBBBBBBBBBBBBBBBBBBBBBBBBBBBBBLBBBBBBBBBBBBBBBBBBBBBBBBBBBBBBBBBBBBBBBBBBBBBBBBBBBBBBBBBBBBBBBBLBBBBBBBBBBBBBBBBBBBBBBBBBBBBBBBBBBBBBBBBBBBBBBBBBBBBBBBBBBBBBBBBLBBBBBBBBBBBBBBBBBBBBBBBBBBBBBBBBBBBBBBBBBBBBBBBBBBBBBBBBBBBBBBBBLBBBBBBBBBBBBBBBBBBBBBBBBBBBBBBBBBBBBBBBBBBBBBBBBBBBBBBBBBBBBBBBBLBBBBBBBBBBBBBBBBBBBBBBBBBBBBBBBBBBBBBBBBBBBBBBBBBBBBBBBBBBBBBBBBLBBBBBBBBBBBBBBBBBBBBBBBBBBBBBBBBBBBBBBBBBBBBBBBBBBBBBBBBBBBBBBBBLLLLLLLLLLLaaLLaaLaaaaaaLaaaaaLLLaaaaLLLLLaaaaaLLLaaaaaLLLLLLLLLLL",
"LBBBBBBBBBBBBBBBBBBBBBBBBBBBBBBBBBBBBBBBBBBBBBBBBBBBBBBBBBBBBBBBBLBBBBBBBBBBBBBBBBBBBBBBBBBBBBBBBBBBBBBBBBBBBBBBBBBBBBBBBBBBBBBBBBLBBBBBBBBBBBBBBBBBBBBBBBBBBBBBBBBBBBBBBBBBBBBBBBBBBBBBBBBBBBBBBBBLBBBBBBBBBBBBBBBBBBBBBBBBBBBBBBBBBBBBBBBBBBBBBBBBBBBBBBBBBBBBBBBBLBBBBBBBBBBBBBBBBBBBBBBBBBBBBBBBBBBBBBBBBBBBBBBBBBBBBBBBBBBBBBBBBLBBBBBBBBBBBBBBBBBBBBBBBBBBBBBBBBBBBBBBBBBBBBBBBBBBBBBBBBBBBBBBBBLBBBBBBBBBBBBBBBBBBBBBBBBBBBBBBBBBBBBBBBBBBBBBBBBBBBBBBBBBBBBBBBBLLLLLLLLLLLLLLLLLLLLLLLLLaaLLLLLLLLLLLLLLLLLLLLLLLLLLaaLLLLLLLLLLL",
"LBBBBBBBBBBBBBBBBBBBBBBBBBBBBBBBBBBBBBBBBBBBBBBBBBBBBBBBBBBBBBBBBLBBBBBBBBBBBBBBBBBBBBBBBBBBBBBBBBBBBBBBBBBBBBBBBBBBBBBBBBBBBBBBBBLBBBBBBBBBBBBBBBBBBBBBBBBBBBBBBBBBBBBBBBBBBBBBBBBBBBBBBBBBBBBBBBBLBBBBBBBBBBBBBBBBBBBBBBBBBBBBBBBBBBBBBBBBBBBBBBBBBBBBBBBBBBBBBBBBLBBBBBBBBBBBBBBBBBBBBBBBBBBBBBBBBBBBBBBBBBBBBBBBBBBBBBBBBBBBBBBBBLBBBBBBBBBBBBBBBBBBBBBBBBBBBBBBBBBBBBBBBBBBBBBBBBBBBBBBBBBBBBBBBBLBBBBBBBBBBBBBBBBBBBBBBBBBBBBBBBBBBBBBBBBBBBBBBBBBBBBBBBBBBBBBBBBLLLLLLLLLLLLLLLLLLLLLLLLLaaLLLLLLLLLLLLLLLLLLLLLLaaLLaaLLLLLLLLLLL",
"LBBBBBBBBBBBBBBBBBBBBBBBBBBBBBBBBBBBBBBBBBBBBBBBBBBBBBBBBBBBBBBBBLBBBBBBBBBBBBBBBBBBBBBBBBBBBBBBBBBBBBBBBBBBBBBBBBBBBBBBBBBBBBBBBBLBBBBBBBBBBBBBBBBBBBBBBBBBBBBBBBBBBBBBBBBBBBBBBBBBBBBBBBBBBBBBBBBLBBBBBBBBBBBBBBBBBBBBBBBBBBBBBBBBBBBBBBBBBBBBBBBBBBBBBBBBBBBBBBBBLBBBBBBBBBBBBBBBBBBBBBBBBBBBBBBBBBBBBBBBBBBBBBBBBBBBBBBBBBBBBBBBBLBBBBBBBBBBBBBBBBBBBBBBBBBBBBBBBBBBBBBBBBBBBBBBBBBBBBBBBBBBBBBBBBLBBBBBBBBBBBBBBBBBBBBBBBBBBBBBBBBBBBBBBBBBBBBBBBBBBBBBBBBBBBBBBBBLLLLLLLLLLLLLLLLLLLLLLLLLaaLLLLLLLLLLLLLLLLLLLLLLLaaaaLLLLLLLLLLLL",
"LBBBBBBBBBBBBBBBBBBBBBBBBBBBBBBBBBBBBBBBBBBBBBBBBBBBBBBBBBBBBBBBBLBBBBBBBBBBBBBBBBBBBBBBBBBBBBBBBBBBBBBBBBBBBBBBBBBBBBBBBBBBBBBBBBLBBBBBBBBBBBBBBBBBBBBBBBBBBBBBBBBBBBBBBBBBBBBBBBBBBBBBBBBBBBBBBBBLBBBBBBBBBBBBBBBBBBBBBBBBBBBBBBBBBBBBBBBBBBBBBBBBBBBBBBBBBBBBBBBBLBBBBBBBBBBBBBBBBBBBBBBBBBBBBBBBBBBBBBBBBBBBBBBBBBBBBBBBBBBBBBBBBLBBBBBBBBBBBBBBBBBBBBBBBBBBBBBBBBBBBBBBBBBBBBBBBBBBBBBBBBBBBBBBBBLBBBBBBBBBBBBBBBBBBBBBBBBBBBBBBBBBBBBBBBBBBBBBBBBBBBBBBBBBBBBBBBBLLLLLLLLLLLLLLLLLLLLLLLLLLLLLLLLLLLLLLLLLLLLLLLLLLLLLLLLLLLLLLLLLL",
"LBBBBBBBBBBBBBBBBBBBBBBBBBBBBBBBBBBBBBBBBBBBBBBBBBBBBBBBBBBBBBBBBLBBBBBBBBBBBBBBBBBBBBBBBBBBBBBBBBBBBBBBBBBBBBBBBBBBBBBBBBBBBBBBBBLBBBBBBBBBBBBBBBBBBBBBBBBBBBBBBBBBBBBBBBBBBBBBBBBBBBBBBBBBBBBBBBBLBBBBBBBBBBBBBBBBBBBBBBBBBBBBBBBBBBBBBBBBBBBBBBBBBBBBBBBBBBBBBBBBLBBBBBBBBBBBBBBBBBBBBBBBBBBBBBBBBBBBBBBBBBBBBBBBBBBBBBBBBBBBBBBBBLBBBBBBBBBBBBBBBBBBBBBBBBBBBBBBBBBBBBBBBBBBBBBBBBBBBBBBBBBBBBBBBBLBBBBBBBBBBBBBBBBBBBBBBBBBBBBBBBBBBBBBBBBBBBBBBBBBBBBBBBBBBBBBBBBLLLLLLLLLLLLLLLLLLLLLLLLLLLLLLLLLLLLLLLLLLLLLLLLLLLLLLLLLLLLLLLLLL",
"LBBBBBBBBBBBBBBBBBBBBBBBBBBBBBBBBBBBBBBBBBBBBBBBBBBBBBBBBBBBBBBBBLBBBBBBBBBBBBBBBBBBBBBBBBBBBBBBBBBBBBBBBBBBBBBBBBBBBBBBBBBBBBBBBBLBBBBBBBBBBBBBBBBBBBBBBBBBBBBBBBBBBBBBBBBBBBBBBBBBBBBBBBBBBBBBBBBLBBBBBBBBBBBBBBBBBBBBBBBBBBBBBBBBBBBBBBBBBBBBBBBBBBBBBBBBBBBBBBBBLBBBBBBBBBBBBBBBBBBBBBBBBBBBBBBBBBBBBBBBBBBBBBBBBBBBBBBBBBBBBBBBBLBBBBBBBBBBBBBBBBBBBBBBBBBBBBBBBBBBBBBBBBBBBBBBBBBBBBBBBBBBBBBBBBLBBBBBBBBBBBBBBBBBBBBBBBBBBBBBBBBBBBBBBBBBBBBBBBBBBBBBBBBBBBBBBBBLLLLLLLLLLLLLLLLLLLLLLLLLLLLLLLLLLLLLLLLLLLLLLLLLLLLLLLLLLLLLLLLLL",
"LBBBBBBBBBBBBBBBBBBBBBBBBBBBBBBBBBBBBBBBBBBBBBBBBBBBBBBBBBBBBBBBBLBBBBBBBBBBBBBBBBBBBBBBBBBBBBBBBBBBBBBBBBBBBBBBBBBBBBBBBBBBBBBBBBLBBBBBBBBBBBBBBBBBBBBBBBBBBBBBiiiiiiBBBBBBBBBBBBBBBBBBBBBBBBBBBBBLBBBBBBBBBBBBBBBBBBBBBBBBBBBBBBBBBBBBBBBBBBBBBBBBBBBBBBBBBBBBBBBBLBBBBBBBBBBBBBBBBBBBBBBBBBBBBBBBBBBBBBBBBBBBBBBBBBBBBBBBBBBBBBBBBLBBBBBBBBBBBBBBBBBBBBBBBBBBBBBBBBBBBBBBBBBBBBBBBBBBBBBBBBBBBBBBBBLBBBBBBBBBBBBBBBBBBBBBBBBBBBBBBBBBBBBBBBBBBBBBBBBBBBBBBBBBBBBBBBBLLLLLLLLLLLLLLLLLLLLLLLLLLLLLLLLLLLLLLLLLLLLLLLLLLLLLLLLLLLLLLLLLL",
"LBBBBBBBBBBBBBBBBBBBBBBBBBBBBBBBBBBBBBBBBBBBBBBBBBBBBBBBBBBBBBBBBLBBBBBBBBBBBBBBBBBBBBBBBBBBBBBBBBBBBBBBBBBBBBBBBBBBBBBBBBBBBBBBBBLBBBBBBBBBBBBBBBBBBBBBBBBBBBBliiiiiiaBBBBBBBBBBBBBBBBBBBBBBBBBBBBLBBBBBBBBBBBBBBBBBBBBBBBBBBBBBBBBBBBBBBBBBBBBBBBBBBBBBBBBBBBBBBBBLBBBBBBBBBBBBBBBBBBBBBBBBBBBBBBBBBBBBBBBBBBBBBBBBBBBBBBBBBBBBBBBBLBBBBBBBBBBBBBBBBBBBBBBBBBBBBBBBBBBBBBBBBBBBBBBBBBBBBBBBBBBBBBBBBLBBBBBBBBBBBBBBBBBBBBBBBBBBBBBBBBBBBBBBBBBBBBBBBBBBBBBBBBBBBBBBBBLLLLLLLLLLLLLLLLLLLLLLLLLLLLLLLLLLLLLLLLLLLLLLLLLLLLLLLLLLLLLLLLLL",
"LBBBBBBBBBBBBBBBBBBBBBBBBBBBBBBBBBBBBBBBBBBBBBBBBBBBBBBBBBBBBBBBBLBBBBBBBBBBBBBBBBBBBBBBBBBBBBBBBBBBBBBBBBBBBBBBBBBBBBBBBBBBBBBBBBLBBBBBBBBBBBBBBBBBBBBBBBBBBBBiiiiiiiiBBBBBBBBBBBBBBBBBBBBBBBBBBBBLBBBBBBBBBBBBBBBBBBBBBBBBBBBBBBBBBBBBBBBBBBBBBBBBBBBBBBBBBBBBBBBBLBBBBBBBBBBBBBBBBBBBBBBBBBBBBBBBBBBBBBBBBBBBBBBBBBBBBBBBBBBBBBBBBLBBBBBBBBBBBBBBBBBBBBBBBBBBBBBBBBBBBBBBBBBBBBBBBBBBBBBBBBBBBBBBBBLBBBBBBBBBBBBBBBBBBBBBBBBBBBBBBBBBBBBBBBBBBBBBBBBBBBBBBBBBBBBBBBBLLLLLLLLLLLLLLLLLLLLLLLLLLLLLLLLLLLLLLLLLLLLLLLLLLLLLLLLLLLLLLLLLL",
"LBBBBBBBBBBBBBBBBBBBBBBBBBBBBBBBBBBBBBBBBBBBBBBBBBBBBBBBBBBBBBBBBLBBBBBBBBBBBBBBBBBBBBBBBBBBBBBBBBBBBBBBBBBBBBBBBBBBBBBBBBBBBBBBBBLBBBBBBBBBBBBBBBBBBBBBBBBBBBBiaaiiiaiBBBBBBBBBBBBBBBBBBBBBBBBBBBBLBBBBBBBBBBBBBBBBBBBBBBBBBBBBaaaaaaaaBBBBBBBBBBBBBBBBBBBBBBBBBBBBLBBBBBBBBBBBBBBBBBBBBBBBBBBBBBBBBBBBBBBBBBBBBBBBBBBBBBBBBBBBBBBBBLBBBBBBBBBBBBBBBBBBBBBBBBBBBBBBBBBBBBBBBBBBBBBBBBBBBBBBBBBBBBBBBBLBBBBBBBBBBBBBBBBBBBBBBBBBBBBBBBBBBBBBBBBBBBBBBBBBBBBBBBBBBBBBBBBLLLLLLLLLLLLLLLLLLLLLLLLLLLLLLLLLLLLLLLLLLLLLLLLLLLLLLLLLLLLLLLLLL",
"LBBBBBBBBBBBBBBBBBBBBBBBBBBBBBBBBBBBBBBBBBBBBBBBBBBBBBBBBBBBBBBBBLBBBBBBBBBBBBBBBBBBBBBBBBBBBBBBBBBBBBBBBBBBBBBBBBBBBBBBBBBBBBBBBBLBBBBBBBBBBBBBBBBBBBBBBBBBBBBKtollotDBBBBBBBBBBBBBBBBBBBBBBBBBBBBLBBBBBBBBBBBBBBBBBBBBBBBBBBBBlttttttaBBBBBBBBBBBBBBBBBBBBBBBBBBBBLBBBBBBBBBBBBBBBBBBBBBBBBBBBBBBBBBBBBBBBBBBBBBBBBBBBBBBBBBBBBBBBBLBBBBBBBBBBBBBBBBBBBBBBBBBBBBBBBBBBBBBBBBBBBBBBBBBBBBBBBBBBBBBBBBLBBBBBBBBBBBBBBBBBBBBBBBBBBBBBBBBBBBBBBBBBBBBBBBBBBBBBBBBBBBBBBBBLLLLLLLLLLLLLLLLLLLLLLLLLLLLLLLLLLLLLLLLLLLLLLLLLLLLLLLLLLLLLLLLLL",
"LBBBBBBBBBBBBBBBBBBBBBBBBBBBBBBBBBBBBBBBBBBBBBBBBBBBBBBBBBBBBBBBBLBBBBBBBBBBBBBBBBBBBBBBBBBBBBBBBBBBBBBBBBBBBBBBBBBBBBBBBBBBBBBBBBLBBBBBBBBBBBBBBBBBBBBBBBBBBBBKDQPPKDHBBBBBBBBBBBBBBBBBBBBBBBBBBBBLBBBBBBBBBBBBBBBBBBBBBBBBBBBBiDZZQQDiBBBBBBBBBBBBBBBBBBBBBBBBBBBBLBBBBBBBBBBBBBBBBBBBBBBBBBBBBBBBBBBBBBBBBBBBBBBBBBBBBBBBBBBBBBBBBLBBBBBBBBBBBBBBBBBBBBBBBBBBBBBBBBBBBBBBBBBBBBBBBBBBBBBBBBBBBBBBBBLBBBBBBBBBBBBBBBBBBBBBBBBBBBBBBBBBBBBBBBBBBBBBBBBBBBBBBBBBBBBBBBBLLLLLLLLLLLLLLLLLLLLLLLLLLLLLLLLLLLLLLLLLLaaLLLLLLLLLLLLLLLLLLLLLL",
"LBBBBBBBBBBBBBBBBBBBBBBBBBBBBBllllllBBBBBBBBBBBBBBBBBBBBBBBBBBBBBLBBBBBBBBBBBBBBBBBBBBBBBBBBBBBllllllBBBBBBBBBBBBBBBBBBBBBBBBBBBBBLBBBBBBBBBBBBBBBBBBBBBBBBBBBBK14PZ41wBBBBBBBBBBBBBBBBBBBBBBBBBBBBLBBBBBBBBBBBBBBBBBBBBBBBBBBBBt14PZ41tBBBBBBBBBBBBBBBBBBBBBBBBBBBBLBBBBBBBBBBBBBBBBBBBBBBBBBBBBBBBBBBBBBBBBBBBBBBBBBBBBBBBBBBBBBBBBLBBBBBBBBBBBBBBBBBBBBBBBBBBBBBBBBBBBBBBBBBBBBBBBBBBBBBBBBBBBBBBBBLBBBBBBBBBBBBBBBBBBBBBBBBBBBBBBBBBBBBBBBBBBBBBBBBBBBBBBBBBBBBBBBBLLLLLLLLLLLLLLaaLLLLLaaaaLLLLLLLLaaaaaLLLLaaLLLLLaaLLLLLLLLLLLLLLL",
"LBBBBBBBBBBBBBBBBBBBBBBBBBBBBlllllllaBBBBBBBBBBBBBBBBBBBBBBBBBBBBLBBBBBBBBBBBBBBBBBBBBBBBBBBBBlllllllaBBBBBBBBBBBBBBBBBBBBBBBBBBBBLBBBBBBBBBBBBBBBBBBBBBEBBBBBBwVHPDHVoBBBBBBBBBBBBBBBBBBBBBBBBBBBBLBBBBBBBBBBBBBBBBBBBBBBBBBBBBKVKPDKVKBBBBBBBBBBBBBBBBBBBBBBBBBBBBLBBBBBBBBBBBBBBBBBBBBBBBBBBBBBBBBBBBBBBBBBBBBBBBBBBBBBBBBBBBBBBBBLBBBBBBBBBBBBBBBBBBBBBBBBBBBBBBBBBBBBBBBBBBBBBBBBBBBBBBBBBBBBBBBBLBBBBBBBBBBBBBBBBBBBBBBBBBBBBBBBBBBBBBBBBBBBBBBBBBBBBBBBBBBBBBBBBLLLLLLLLLLLLaaaaLLLLaaLLLLLLLLLLLaaLLaaLLLLLLLLLLaaLLLLLLLLLLLLLLL",
"LBBBBBBBBBBBBBBBBBBBBBBBBBBBBillllliaBBBBBBBBBBBBBBBBBBBBBBBBBBBBLBBBBBBBBBBBBBBBBBBBBBBBBBBBBillllliaBBBBBBBBBBBBBBBBBBBBBBBBBBBBLBBBBBBBBBBBBBBBBBBBBBBBBBBddlKVZPVKllllBBBEBBBBBBBBBBBBBBBBBBBBBLBBBBBBBBBBBBBBBBBBBBBBBEBBBBK14ZP41KBBBBBBBBBBBBBBBBBBBBBBBBBBBBLBBBBBBBBBBBBBBBBBBBBBBBBBBBBBBBBBBBBBBBBBBBBBBBBBBBBBBBBBBBBBBBBLBBBBBBBBBBBBBBBBBBBBBBBBBBBBBBBBBBBBBBBBBBBBBBBBBBBBBBBBBBBBBBBBLBBBBBBBBBBBBBBBBBBBBBBBBBBBBBBBBBBBBBBBBBBBBBBBBBBBBBBBBBBBBBBBBLLLLLLLLLLLLLLaaLLLaaLLLLLLLLLLLLaaLLaaLaaaaLLLaaaaaaLLLLLLLLLLLLL",
"LBBBBBBBBBBBBBBBBBBBBBBBBBBBBillllliaBBBBBBBBBBBBBBBBBBBBBBBBBBBBLBBBBBBBBBBBBBBBBBBBBBBBBBBBBillllliaBBBBBBBBBBBBBBBBBBBBBBBBBBBBLBBBBBBBBBBBBBBBBBBBBBBBBdddddDKKKKwnllnnlBBBBBBBBBBBBBBBBBBBBBBBLBBBBBBBBBBBBBBBBBBBBBBBBBBBBBQZVVZQBBBBBBBBEBBBBBBBBBBBBBBBBBBBBLBBBBBBBBBBBBBBBBBBBBBBBBBBBBBBBBBBBBBBBBBBBBBBBBBBBBBBBBBBBBBBBBLBBBBBBBBBBBBBBBBBBBBBBBBBBBBBBBBBBBBBBBBBBBBBBBBBBBBBBBBBBBBBBBBLBBBBBBBBBBBBBBBBBBBBBBBBBBBBBBBBBBBBBBBBBBBBBBBBBBBBBBBBBBBBBBBBLLLLLLLLLLLLLLaaLLLaaLLLLLLLLLLLLaaLLaaLLLaaLLLLLaaLLLLLLLLLLLLLLL",
"LBBBBBBBBBBBBBBBBBBBBBBBBBBBBKlllllioBBBBBBBBBBBBBBBBBBBBBBBBBBBBLBBBBBBBBBBBBBBBBBBBBBBBBBBBBKlllllioBBBBBBBBBBBBBBBBBBBBBBBBBBBBLBBBBBBBBBBBBBBBBBBBBBBdddEdEdowwwwonllnEnlBBBBBBBBBBBBBBBBBBBBBBLBBBBBBBBBBBBBBBBBBBBBBBBBBBBMQV44VKBBMBBBBBBBBBBBBBBBBBBBBBBBBBBLBBBBBBBBBBBBBBBBBBBBBBBBBBBBBBBBBBBBBBBBBBBBBBBBBBBBBBBBBBBBBBBBLBBBBBBBBBBBBBBBBBBBBBBBBBBBBBBBBBBBBBBBBBBBBBBBBBBBBBBBBBBBBBBBBLBBBBBBBBBBBBBBBBBBBBBBBBBBBBBBBBBBBBBBBBBBBBBBBBBBBBBBBBBBBBBBBBLLLLLLLLLLLLLLaaLLLaaaaaLLaaaaaaLaaaaaLLLLaaLLLLLaaLLLLLLLLLLLLLLL",
"LBBBBBBBBBBBBBBBBBBBBBBBBBBBBKtaaaatwBBBBBBBBBBBBBBBBBBBBBBBBBBBBLBBBBBBBBBBBBBBBBBBBBBBBBBBBBKtaaaatwBBBBBBBBBBBBBBBBBBBBBBBBBBBBLBBBBBBBBBBBBBBBBBBBBddcddcncqMccllliqMlncnnlBBBBBBBBBBBBBBBBBBBBLBBBBBBBBBBBBBBBBBBBBBBBBMBBBBQZZZZwBBBBBRBBBBBBBBBBBBBBBBBBBBBBBLBBBBBBBBBBBBBBBBBBBBBBBBBBBBBBBBBBBBBBBBBBBBBBBBBBBBBBBBBBBBBBBBLBBBBBBBBBBBBBBBBBBBBBBBBBBBBBBBBBBBBBBBBBBBBBBBBBBBBBBBBBBBBBBBBLBBBBBBBBBBBBBBBBBBBBBBBBBBBBBBBBBBBBBBBBBBBBBBBBBBBBBBBBBBBBBBBBLLLLLLLLLLLLLLaaLLLaaLLaaLLLLLLLLaaLLaaLLLaaLLLLLaaLLLLLLLLLLLLLLL",
"LBBBBBBBBBBBBBBBBBBBBBBBBBBddwDHHDwtolllBBBBBBBBBBBBBBBBBBBBBBBBBLBBBBBBBBBBBBBBBBBBBBBBBBBBddwDHHDwtolllBBBBBBBBBBBBBBBBBBBBBBBBBLBBBBBBBBBBBBBBBBBBBdddlccilycclMcqclliimlnlnlBBBBBBBBBBBBBBBBBBBLBBBBBBBBBBBBBBBBBBBBBEBRBBBBdZwHHHwdBBBBBBBBBBBBBBBBBBBBBBBBBBBBLBBBBBBBBBBBBBBBBBBBBBBBBBBBBBD4PZ4DBBBBBBBBBBBBBBBBBBBBBBBBBBBBBLBBBBBBBBBBBBBBBBBBBBBBBBBBBBBBBBBBBBBBBBBBBBBBBBBBBBBBBBBBBBBBBBLBBBBBBBBBBBBBBBBBBBBBBBBBBBBBBBBBBBBBBBBBBBBBBBBBBBBBBBBBBBBBBBBLLLLLLLLLLLLLLaaLLLaaLLaaLLLLLLLLaaLLaaLLLaaLLLLLaaLLLLLLLLLLLLLLL",
"LBBBBBBBBBBBBBBBBBBBBBBBBddddl1PHPQKlllcclBBBBBBBBBBBBBBBBBBBBBBBLBBBBBBBBBBBBBBBBBBBBBBBBddddl1PHPQKlllcclBBBBBBBBBBBBBBBBBBBBBBBLBBBBBBBBBBBBBBBBBBddccliiiilElHtyllRiiEinljcnlBBBBBBBBBBBBBBBBBBLBBBBBBBBBBBBBBBBBBBBEBBBBdMddoMPZPoMdMlBBBEBBBBBBBBBBBBBBBBBBBBBLBBBBBBBBBBBBBBBBBBBBBBBBBBBBl1KPDK1aBBBBBBBBBBBBBBBBBBBBBBBBBBBBLBBBBBBBBBBBBBBBBBBBBBBBBBBBBBBBBBBBBBBBBBBBBBBBBBBBBBBBBBBBBBBBBLBBBBBBBBBBBBBBBBBBBBBBBBBBBBBBBBBBBBBBBBBBBBBBBBBBBBBBBBBBBBBBBBLLLLLLLLLLLLLLaaLLLaaLLaaLLLLLLLLaaLLaaLLLaaLLLLLaaLLLLLLLLLLLLLLL",
"LBBBBBBBBBBBBBBBBBBBBBBdddddddPKPDKwillccclBBBBBBBBBBBBBBBBBBBBBBLBBBBBBBBBBBBBBBBBBBBBBdddddddPKPDKwillccclBBBBBBBBBBBBBBBBBBBBBBLBBBBBBBBBBBBBBBBBVPDclliBiiiqtQtthypphajjlinclBBBBBBBBBBBBBBBBBBLBBBBBBBBBBBBBBBBBBBBBddddddMdtttQtddqdnnllBBBBBBBBBBBBBBBBBBBBBBLBBBBBBBBBBBBBBBBBBBBBBBBBBBBtV4ZP4VtBBBBBBBBBBBBBBBBBBBBBBBBBBBBLBBBBBBBBBBBBBBBBBBBBBBBBBBBBBBBBBBBBBBBBBBBBBBBBBBBBBBBBBBBBBBBBLBBBBBBBBBBBBBBBBBBBBBBBBBBBBBBBBBBBBBBBBBBBBBBBBBBBBBBBBBBBBBBBBLLLLLLLLLLLLaaaaaaLLaaaaLLLLLLLLLaaaaaLLaaaaaaLLLLaaaLLLLLLLLLLLLL",
"LBBBBBBBBBBBBBBBBBBBBddcddcncctwwwwiiillncnnBBBBBBBBBBBBBBBBBBBBBLBBBBBBBBBBBBBBBBBBBBddcddcncctwwwwiiillncnnBBBBBBBBBBBBBBBBBBBBBLBBBBBBBBBBBBBBBBB41DliBBBEqMqHiHioMqhaaBBBllDPBBBBBBBBBBBBBBBBBBLBBBBBBBBBBBBBBBBBBBddddcccEddDQKiHdddddEnnnllBBBBBBBBBBBBBBBBBBBLBBBBBBBBBBBBBBBBBBBBBBMBMBBBK1Z44Z1KBBBBBBBBBBBBBBBBBBBBBBBBBBBBLBBBBBBBBBBBBBBBBBBBBBBBBBBBBBBBBBBBBBBBBBBBBBBBBBBBBBBBBBBBBBBBBLBBBBBBBBBBBBBBBBBBBBBBBBBBBBBBBBBBBBBBBBBBBBBBBBBBBBBBBBBBBBBBBBLLLLLLLLLLLLLLLLLLLLLLLLLLLLLLLLLLLLLLLLLLLLLLLLLLLLLLLLLLLLLLLLLL",
"LBBBBBBBBBBBBBBBBBBBBddcccillccliiiiiiiimlclBBBBBBBBBBBBBBBBBBBBBLBBBBBBBBBBBBBBBBBBBBddcccillccliiiiiiiimlclBBBBBBBBBBBBBBBBBBBBBLBBBBBBBBBBBBBBBBBVwwBBBBBBiqqtooooqqaajBBBBBcDBBBBBBBBBBBBBBBBBBLBBBBBBBBBBBBBBBdddccccclllcdEDHHHoqJJMlncnlnnlllBBBBBBBBBBBBBBBBLBBBBBBBBBBBBBBBBBMBBBBBBBBBBiQVVVVQiBBBMBBBBBBBBBBBBBBBBBBBBBBBBLBBBBBBBBBBBBBBBBBBBBBBBBBBBBBBBBBBBBBBBBBBBBBBBBBBBBBBBBBBBBBBBBLBBBBBBBBBBBBBBBBBBBBBBBBBBBBBBBBBBBBBBBBBBBBBBBBBBBBBBBBBBBBBBBBLLLLLLLLLLLLLLLLLaaaaLLaaaaLLLLLLLLLLaaLLLLLLLLLLLLLLLLLLLLLLLLLLL",
"LBBBBBBBBBBBBBBBBBBBBdllliiillllohhiiiiiincnnBBBBBBBBBBBBBBBBBBBBLBBBBBBBBBBBBBBBBBBBBdllliiillllohhiiiiiincnnBBBBBBBBBBBBBBBBBBBBLBBBBBBBBBBBBBBBBBBBBBBBBBByll6aHwoiaMajBBBBBlDBBBBBBBBBBBBBBBBBBLBBBBBBBBBBBBBBBPDllllllililEyoooooqqciimllllnnlwPBBBBBBBBBBBBBBBLBBBBBBBBBBBBBBBBBBBBBBBBMBBBiHwwdtKiBMBBRBBMBBBBBBBBBBBBBBBBBBBBLBBBBBBBBBBBBBBBBBBBBBBBBBBBBBB2BBBBBBBBBBBBBBBBBBBBBBBBBBBBBBBBBLBBBBBBBBBBBBBBBBBBBBBBBBBBBBBBBBBBBBBBBBBBBBBBBBBBBBBBBBBBBBBBBBLLLLLLLLLLLLLLLLaaLLaaLLLaaLLLLLLLLLLaaLLLLLLLLLLLLLLLLLLLLLLLLLLL",
"LBBBBBBBBBBBBBBBBBBBddcliBiiiitQtthipphajjccnBBBBBBBBBBBBBBBBBBBBLBBBBBBBBBBBBBBBBBBBddcliBiiiitQtthipphajjccnBBBBBBBBBBBBBBBBBBBBLBBBBBBBBBBBBBBBBBBBBBBBBBBlMlDaltlyhhhaBBBBBBBBBBBBBBBBBBBBBBBBBLBBBBBBBBBBBBBBV1DlliiiiiiiMyyZtoooqRqiEiiijlllnHDHBBBBBBBBBBBBBBLBBBBBBBBBBBBBBBBBBMBBEBRBBtddddddtQHttMBBBEBBMBBBBBBBBBBBBBBBBBBLBBBBBBBBBBBBBBBBBBBBBBBBBBBBBBBBBBBBBBBBBBBBBBBBBBBBBBBBBBBBBBBBLBBBBBBBBBBBBBBBBBBBBBBBBBBBBBBBBBBBBBBBBBBBBBBBBBBBBBBBBBBBBBBBBLLLLLLLLLLLLLLLLaaLLaaLLLaaLLLLaaaaLLaaaaaLLLaaaaLLLLLLLLLLLLLLLLL",
"LBBBBBBBBBBBBBBBBBBBddciBBBjiiHiHiihhhaaBjnncBBBBBBBBBBBBBBBBBBBBLBBBBBBBBBBBBBBBBBBBddciBBBjiiHiHiihhhaaBjnncBBBBBBBBBBBBBBBBBBBBLBBBBBBBBBBBBBBBBBBBBBBBBBjicclaaahhhhiaBBBBBBBBBBBBBBBBBBBBBBBBBLBBBBBBBBBBBBBB4wwiiiiBBBBiiqq6ZaHoyqhhaBBBBiillwDwBBBBBBBBBBBBBBLBBBBBBBBBBBBBBBBBBBBddddddMddoMttQKHwMlnllnlBBBBBBBBBBBBBBBBBBBBLBBBBBBBBBBBBBBBBBBBBBBBBBBBEBKK44KKB2BBBBBBBBBBBBBBBBBBBBBBBBBBBLBBBBBBBBBBBBBBBBBBBBBBBBBBBBBBBBBBBBBBBBBBBBBBBBBBBBBBBBBBBBBBBBLLLLLLLLLLLLLLLLaaLLLLLLLaaLLLaaLLaaLaaLLaaLaaLLaaLLLLLLLLLLLLLLLL",
"LBBBBBBBBBBBBBBBBBBBdcliBBBiiitooioaaaajBicccBBBBBBBBBBBBBBBBBBBBLBBBBBBBBBBBBBBBBBBBdcliBBBiiitooioaaaajBicccBBBBBBBBBBBBBBBBBBBBLBBBBBBBBBBBBBBBBBBBBBBBBBjcccdmmihhhhhhhBBBBBBBBBBBBBBBBBBBBBBBBLBBBBBBBBBBBBBBVBBBBBBBBBBEqMqZDaloMhhhaBEBBBBBBBBwBBBBBBBBBBBBBBLBBBBBBBBBBBBBBPDddcccddccMdMdtDDwtotodnEnnlnnllllBBBBBBBBBBBBBBBLBBBBBBBBBBBBBBBBBBBBBBBBMBBBt244R4VtBBBBBBBBBBBBBBBBBBBBBBBBBBBBLBBBBBBBBBBBBBBBBBBBBBBBBBBBBBBBBBBBBBBBBBBBBBBBBBBBBBBBBBBBBBBBBLLLLLLLLLLLLLLLLaaLaaaLLLaaLLLaaLLaaLaaLLaaLaaLLaaLLLLLLLLLLLLLLLL",
"LBBBBBBBBBBBBBBBBBBBcVPiBBBill6aHwoiaaajBccncBBBBBBBBBBBBBBBBBBBBLBBBBBBBBBBBBBBBBBBBcVPiBBBill6aHwoiaaajBccncBBBBBBBBBBBBBBBBBBBBLBBBBBBBBBBBBBBBBBBBBBBBBBjlnondmiiiiihhhBBBBBBBBBBBBBBBBBBBBBBBBLBBBBBBBBBBBBBBBBBBBBBBBMBBiqcwwttoqqaajqBBBBBBBBBBBBBBBBBBBBBBBBLBBBBBBBBBBBBVPPPlllllcclMcEddtoZtoooqydncnllnnllw1PHBBBBBBBBBBBBLBBBBBBBBBBBBBBBBBBBBBBBBBBB2K1RPPV1KBBBMBBBBBBBBBBBBBBBBBBBBBBBBLBBBBBBBBBBBBBBBBBBBBBBBBBBBBBBBBBBBBBBBBBBBBBBBBBBBBBBBBBBBBBBBBLLLLLLLLLLLLLLLLaaLLaaLLLaaLLLaaLLaaLaaLLaaLaaaaaaLLLLLLLLLLLLLLLL",
"LBBBBBBBBBBBBBBBBBBBc41tBBBlllDaltoahhhaBDPclBBBBBBBBBBBBBBBBBBBBLBBBBBBBBBBBBBBBBBBBc41tBBBlllDaltoahhhaBDPclBBBBBBBBBBBBBBBBBBBBLBBBBBBBBBBBBBBBBBBBBBBBBBjdddlllaihhaaaaBBBBBBBBBBBBBBBBBBBBBBBBLBBBBBBBBBBBBBBBBBBBBBBBBMBylccoooliaMajBByBBBBBBBBBBBBBBBBBBBBBBLBBBBBBBBBBBB4DDDllliillillcyEoP6ZaHqyMlmlljlllnnHDKwBBBBBBBBBBBBLBBBBBBBBBBBBBBBBBBBBBBBBMBBE2HwwdtKiBMB2RBBBBBBBBBBBBBBBBBBBBBBBLBBBBBBBBBBBBBBBBBBBBBBBBBBBBBBBBBBBBBBBBBBBBBBBBBBBBBBBBBBBBBBBBLLLLLLLLLLLLLLLLaaLLaaLLLaaLLLaaLLaaLaaLLaaLaaLLLLLLLLLLLLLLLLLLLL",
"LBBBBBBBBBBBBBBBBBBBBV66BBjilllaaahhhhiaB6DlBBBBBBBBBBBBBBBBBBBBBLBBBBBBBBBBBBBBBBBBBBV66BBjilllaaahhhhiaB6DlBBBBBBBBBBBBBBBBBBBBBLBBBBBBBBBBBBBBBBBBBBBBBBBddddcliaaaahhhhaBBBBBBBBBBBBBBBBBBBBBBBLBBBBBBBBBBBBBBBBBBBBBEBBBBlMccllllyhhhayBBBBBBBBBBBBBBBBBBBBBBBBLBBBBBBBBBBBBPDwwiiiiiiiiiilEyDPZDalqqiiiMiBiilllwDKwBBBBBBBBBBBBLBBBBBBBBBBBBBBBBBBMBBEBRBBtEdoRttttDQtMBBBEBBMBBBBBBBBBBBBBBBBBBLBBBBBBBBBBBBBBBBBBBBBBBBBBBBBBBBBBBBBBBBBBBBBBBBBBBBBBBBBBBBBBBBLLLLLLLLLLLLLLLLaaLLaaLLLaaLLLaaLLaaLaaLLaaLaaLLaaLLLLLLLLLLLLLLLL",
"LBBBBBBBBBBBBBBBBBBBBB66BBjjmmmmmihhhhhhhKDBBBBBBBBBBBBBBBBBBBBBBLBBBBBBBBBBBBBBBBBBBBB66BBjjmmmmmihhhhhhhKDBBBBBBBBBBBBBBBBBBBBBBLBBBBBBBBBBBBBBBBBBBBBBBBBddddcliahhiiiiiiBBBBBBBBBBBBBBBBBBBBBBBLBBBBBBBBBBBBBBBBBBBBBBBBBjilllaaahhhhiaBBBBBBBBBBBBBBBBBBBBBBBBBLBBBBBBBBBBBBBBBBBBBBBBBMBiMyyDDwwtoqqqEBBBBBBBBBBBBBBBBBBBBBBBBBLBBBBBBBBBBBBBBBBBBBBBdddddMddtDDKKQKHwlnllnBBBBBBBBBBBBBBBBBBBBBLBBBBBBBBBBBBBBBBBBBBBBBBBBBBBBBBBBBBBBBBBBBBBBBBBBBBBBBBBBBBBBBBLLLLLLLLLLLLLLLLLaaaaLLaaaaaaLLaaaaLLaaaaaLLLaaaaLLLLLLLLLLLLLLLLL",
"LBBBBBBBBBBBBBBBBBBBBBB6BBjcccddmiiiiihhhKBBBBBBBBBBBBBBBBBBBBBBBLBBBBBBBBBBBBBBBBBBBBBB6BBjcccddmiiiiihhhKBBBBBBBBBBBBBBBBBBBBBBBLBBBBBBBBBBBBBBBBBBBBBBBBddddddliahhiiiiiiBBBBBBBBBBBBBBBBBBBBBBBLBBBBBBBBBBBBBBBBBBBBBBBBBjcdddcmiahhhhhhBBBBBBBBBBBBBBBBBBBBBBBBLBBBBBBBBBBBBBBBBBBBBBBBBBiiqqtttoiqqihaBBBBBBBBBBBBBBBBBBBBBBBBBLBBBBBBBBBBBBBBBBBBcccddccMdMRtoZtototonEnnlnnlBBBBBBBBBBBBBBBBBBLBBBBBBBBBBBBBBBBBBBBBBBBBBBBBBBBBBBBBBBBBBBBBBBBBBBBBBBBBBBBBBBBLLLLLLLLLLLLLLLLLLLLLLLLLLLLLLLLLLLLLLLLLLLLLLLLLLLLLLLLLLLLLLLLLL",
"LBBBBBBBBBBBBBBBBBBBBBBBBBjlnonllaihhaaaaBBBBBBBBBBBBBBBBBBBBBBBBLBBBBBBBBBBBBBBBBBBBBBBBBBjlnonllaihhaaaaBBBBBBBBBBBBBBBBBBBBBBBBLBBBBBBBBBBBBBBBBBBBBBBBBdddddciiiaaiiiiiiiBBBBBBBBBBBBBBBBBBBBBBLBBBBBBBBBBBBBBBBBBBBBBBBBcdddddmihaaaaaaBBBBBBBBBBBBBBBBBBBBBBBBLBBBBBBBBBBBBBBBBBBBBBMBBMEylccoooliaMajBEyBBBBBBBBBBBBBBBBBBBBBBLBBBBBBBBBBBBBBBDddccccclMcEREoP6ZaHqyMdncnllnnlllBBBBBBBBBBBBBBBLBBBBBBBBBBBBBBBBBBBBBBBBBBBBBBBBBBBBBBBBBBBBBBBBBBBBBBBBBBBBBBBBLLLLLLLLLLLLLLLLLLLLLLLLLLLLLLLLLLLLLLLLLLLLLLLLLLLLLLLLLLLLLLLLLL",
"LBBBBBBBBBBBBBBBBBBBBBBBBBlcddlliaaaahhhhaBBBBBBBBBBBBBBBBBBBBBBBLBBBBBBBBBBBBBBBBBBBBBBBBBlcddlliaaaahhhhaBBBBBBBBBBBBBBBBBBBBBBBLBBBBBBBBBBBBBBBBBBBBBBBdccccdcliiiahhiiiiiBBBBBBBBBBBBBBBBBBBBBBLBBBBBBBBBBBBBBBBBBBBBBBBcddddcclahhhhhaaBBBBBBBBBBBBBBBBBBBBBBBBLBBBBBBBBBBBBBBBBBBBBBBBMBBlMllllllyhhhayBBBBBBBBBBBBBBBBBBBBBBBBLBBBBBBBBBBBBBP4PlcliillillcyEDwwDalqqilmlljlllllwQBBBBBBBBBBBBBBLBBBBBBBBBBBBBBBBBBBBBBBBBBBBBBBBBBBBBBBBBBBBBBBBBBBBBBBBBBBBBBBBLLLLLLLLLLLLLLLLLLLLLLLLLLLLLLLLLLLLLLLLLLLLLLLLLLLLLLLLLLLLLLLLLL",
"LBBBBBBBBBBBBBBBBBBBBBBBBBddddcliahhiiiiiiBBBBBBBBBBBBBBBBBBBBBBBLBBBBBBBBBBBBBBBBBBBBBBBBBddddcliahhiiiiiiBBBBBBBBBBBBBBBBBBBBBBBLBBBBBBBBBBBBBBBBBBBBBBBcccclcliiBBiahhiiiiBBBBBBBBBBBBBBBBBBBBBBLBBBBBBBBBBBBBBBBBBBBBBBBdddddcliahhhhhhhaBBBBBBBBBBBBBBBBBBBBBBBLBBBBBBBBBBBBBBBBBBBBBBBBBjiddddaaahhhhhhBBBBBBBBBBBBBBBBBBBBBBBBLBBBBBBBBBBBBVPDDcliiiiiliilMllllllyhhhayiiiiilnnH4PBBBBBBBBBBBBBLBBBBBBBBBBBBBBBBBBBBBBBBBBBBBBBBBBBBBBBBBBBBBBBBBBBBBBBBBBBBBBBBLLLLLLLLLLLLLLLLLLLLLLLLLLLLLLLLLLLLLLLLLLLLLLLLLLLLLLLLLLLLLLLLLL",
"LBBBBBBBBBBBBBBBBBBBBBBBBBdddddliahhiiiiiiBBBBBBBBBBBBBBBBBBBBBBBLBBBBBBBBBBBBBBBBBBBBBBBBBdddddliahhiiiiiiBBBBBBBBBBBBBBBBBBBBBBBLBBBBBBBBBBBBBBBBBBBBBBBclcccliiBBBmiiiiiiiBBBBBBBBBBBBBBBBBBBBBBLBBBBBBBBBBBBBBBBBBBBBBBdccccdcliahhiiiiiiBBBBBBBBBBBBBBBBBBBBBBBLBBBBBBBBBBBBBBBBBBBBBEBBdddddccmihaaaaaaBBBBBBBBBBBBBBBBBBBBBBBBLBBBBBBBBBBBB4DwwiiBBBBBMBjcddddaaahhhhhhBBBBBBllwDKwBBBBBBBBBBBBLBBBBBBBBBBBBBBBBBBBBBBBBBBBBBBBBBBBBBBBBBBBBBBBBBBBBBBBBBBBBBBBBLLLLLLLLLLLLLLLLLLLLLLLLLLLLLLLLLLLLLLLLLLLLLLLLLLLLLLLLLLLLLLLLLL",
"LBBBBBBBBBBBBBBBBBBBBBBBBcdddddiiiaaiiiiiiiBBBBBBBBBBBBBBBBBBBBBBLBBBBBBBBBBBBBBBBBBBBBBBBcdddddiiiaaiiiiiiiBBBBBBBBBBBBBBBBBBBBBBLBBBBBBBBBBBBBBBBBBBBBBBaaaaiiiiBBBBaiiiiiaBBBBBBBBBBBBBBBBBBBBBBLBBBBBBBBBBBBBBBBBBBBBBBaaaaiidliahhiiiiiiBBBBBBBBBBBBBBBBBBBBBBBLBBBBBBBBBBBBBBBBBBBBBBBdccccdclmihhllllaBBBBBBBBBBBBBBBBBBBBBBBBLBBBBBBBBBBBBPwBBBBBBBoooidddcccmihaalllaiBBBBBBBBBKwBBBBBBBBBBBBLBBBBBBBBBBBBBBBBBBBBBBBBBBBBBBBBBBBBBBBBBBBBBBBBBBBBBBBBBBBBBBBBLLLLLLLLLLLLLLLLLLLLLLLLLLLLLLLLLLLLLLLLLLLLLLLLLLLLLLLLLLLLLLLLLL",
"LBBBBBBBBBBBBBBBBBBBBBBBBcddddcliiiahhiiiiiBBBBBBBBBBBBBBBBBBBBBBLBBBBBBBBBBBBBBBBBBBBBBBBcddddcliiiahhiiiiiBBBBBBBBBBBBBBBBBBBBBBLBBBBBBBBBBBBBBBBBBBBBBaiiiiiaiBBBBBaaaaaaBBBBBBBBBBBBBBBBBBBBBBBLBBBBBBBBBBBBBBBBBBBBBBaiiiiiaciBBaaiiiiiiiBBBBBBBBBBBBBBBBBBBBBBLBBBBBBBBBBBBBBBBBBBBBBBaaaaicdllahhillliiBBBBBBBBBBBBBBBBBBBBBBBLBBBBBBBBBBBBwBBBBBBBoaaaiiiccclmihhllllliiBBBBBBBBBwBBBBBBBBBBBBLBBBBBBBBBBBBBBBBBBBBBBBBBBBBBBBBBBBBBBBBBBBBBBBBBBBBBBBBBBBBBBBBLLLLLLLLLLLLLLLLLLLLLLLLLLLLLLLLLLLLLLLLLLLLLLLLLLLLLLLLLLLLLLLLLL",
"LBBBBBBBBBBBBBBBBBBBBBBBBddccdciiBmiahhiiiiBBBBBBBBBBBBBBBBBBBBBBLBBBBBBBBBBBBBBBBBBBBBBBBddccdciiBmiahhiiiiBBBBBBBBBBBBBBBBBBBBBBLBBBBBBBBBBBBBBBBBBBBBBaoooiiaBBBBBBaaaaaaBBBBBBBBBBBBBBBBBBBBBBBLBBBBBBBBBBBBBBBBBBBBBBaoooiiaclBBBihhiiiiiBBBBBBBBBBBBBBBBBBBBBBLBBBBBBBBBBBBBBBBBBBBBBaiiiiiacliahhiillliBBBBBBBBBBBBBBBBBBBBBBBLBBBBBBBBBBBBBBBBBBBBaaaaaaiaddllahhhiilllliBBBBBBBBBBBBBBBBBBBBBLBBBBBBBBBBBBBBBBBBBBBBBBBBBBBBBBBBBBBBBBBBBBBBBBBBBBBBBBBBBBBBBBLLLLLLLLLLLLLLLLLLLLLLLLLLLLLLLLLLLLLLLLLLLLLLLLLLLLLLLLLLLLLLLLLL",
"LBBBBBBBBBBBBBBBBBBBBBBBBcccccdaaBamiiiiiiBBBBBBBBBBBBBBBBBBBBBBBLBBBBBBBBBBBBBBBBBBBBBBBBcccccdaaBamiiiiiiBBBBBBBBBBBBBBBBBBBBBBBLBBBBBBBBBBBBBBBBBBBBBBiooliaBBBBBBBBaaaaaBBBBBBBBBBBBBBBBBBBBBBBLBBBBBBBBBBBBBBBBBBBBBBoaaaiaalBBBBiahhiiiiBBBBBBBBBBBBBBBBBBBBBBLBBBBBBBBBBBBBBBBBBBBBBaoooiiaciiahaillllllBBBBBBBBBBBBBBBBBBBBBBLBBBBBBBBBBBBBBBBBBBBaaaaaaaallliahiiiillllllBBBBBBBBBBBBBBBBBBBBLBBBBBBBBBBBBBBBBBBBBBBBBBBBBBt244R4VtBMBBBBBBBBBBBBBBBBBBBBBBBBBLLLLLLLaaLLaaLLLLLLLLLLLLLLLLLLLLLLLLLLLLLLLLLLLLaaLLLLLLLLLLLLLLL",
"LBBBBBBBBBBBBBBBBBBBBBBBBcllllclaBaaiiiiiiBBBBBBBBBBBBBBBBBBBBBBBLBBBBBBBBBBBBBBBBBBBBBBBBcllllclaBaaiiiiiiBBBBBBBBBBBBBBBBBBBBBBBLBBBBBBBBBBBBBBBBBBBBBBiiiaaBBBBBBBBaaaaaBBBBBBBBBBBBBBBBBBBBBBBBLBBBBBBBBBBBBBBBBBBBBBBaaaaaaaBBBBBmiiiiiiiBBBBBBBBBBBBBBBBBBBBBBLBBBBBBBBBBBBBBBBBBBBBBoaaaiaalliBaaahillliBBBBBBBBBBBBBBBBBBBBBBLBBBBBBBBBBBBBBBBBBBBaaaaaaaalliiahaaaahillliBBBBBBBBBBBBBBBBBBBBLBBBBBBBBBBBBBBBBBBBBBBBBBBBBdoRttttDQtMBBBBBBBBBBBBBBBBBBBBBBBBBLLLLLLLaaLLaaLLLLLLLLLLLLLLLLLLLLLLLLLLLLLLLLLLLLaaLLLLLLLLLLLLLLL",
"LBBBBBBBBBBBBBBBBBBBBBBBBlllllliaBaaaaaaiBBBBBBBBBBBBBBBBBBBBBBBBLBBBBBBBBBBBBBBBBBBBBBBBBlllllliaBaaaaaaiBBBBBBBBBBBBBBBBBBBBBBBBLBBBBBBBBBBBBBBBBBBBBBBoooiaBBBBBBBBaaaaaaBBBBBBBBBBBBBBBBBBBBBBBLBBBBBBBBBBBBBBBBBBBBBBaaaaaaBBBBBBBaiiiiiaBBBBBBBBBBBBBBBBBBBBBBLBBBBBBBBBBBBBBBBBBBBBBaaaaaaaBBBBBiaahiiiiBBBBBBBBBBBBBBBBBBBBBBLBBBBBBBBBBBBBBBBBBBBBaaaaaaallBqqaaaaiihiiiiBBBBBBBBBBBBBBBBBBBBLBBBBBBBBBBBBBBBBBBBBBBBBBdEMRtoZtototonEnBBBBBBBBBBBBBBBBBBBBBBBLLLLLLLaaaLaaLLaaaaLLLLLLaaaaLLaaaaaLLLaaaaLLLaaaaaLLaaaaLLLLLLLLL",
"LBBBBBBBBBBBBBBBBBBBBBBBBBlllliijaaaaaaaBBBBBBBBBBBBBBBBBBBBBBBBBLBBBBBBBBBBBBBBBBBBBBBBBBBlllliijaaaaaaaBBBBBBBBBBBBBBBBBBBBBBBBBLBBBBBBBBBBBBBBBBBBBBBlooollaBBBBBBBaaaaaaBBBBBBBBBBBBBBBBBBBBBBBLBBBBBBBBBBBBBBBBBBBBBBBaaaaaBBBBBBBaaaaaaBBBBBBBBBBBBBBBBBBBBBBBLBBBBBBBBBBBBBBBBBBBBBBaaaaaaBBBBBBmiiiiiiiBBBBBBBBBBBBBBBBBBBBBBLBBBBBBBBBBBBBBBBBBBBBaaaaaBBBBByqBBiaiiiiiiiBBBBBBBBBBBBBBBBBBBBLBBBBBBBBBBBBBBBBBBBBBBdicdBhhhhhihlcccccccBBBBBBBBBBBBBBBBBBBBBBLLLLLLLaaaLaaLaaLLaaLLLLaaLLaaLaaLLaaLaaLLaaLaaLLaaLaaLLaaLLLLLLLL",
"LBBBBBBBBBBBBBBBBBBBBBBBBBiiiiiaBaaaaaaaBBBBBBBBBBBBBBBBBBBBBBBBBLBBBBBBBBBBBBBBBBBBBBBBBBBiiiiiaBaaaaaaaBBBBBBBBBBBBBBBBBBBBBBBBBLBBBBBBBBBBBBBBBBBBBBBaaaaaaaBBBBBBBaaaaaaBBBBBBBBBBBBBBBBBBBBBBBLBBBBBBBBBBBBBBBBBBBBBBBaaaaaBBBBBBBaaaaaaBBBBBBBBBBBBBBBBBBBBBBBLBBBBBBBBBBBBBBBBBBBBBBBaaaaaBBBBBBaaiiiiiaBBBBBBBBBBBBBBBBBBBBBBLBBBBBBBBBBBBBBBBBBBBBBaaaBBBBBBEBBaaaaiiiiiBBBBBBBBBBBBBBBBBBBBBLBBBBBBBBBBBBBBBBBBdddddqqMccccccalcddddddccinlBBBBBBBBBBBBBBBBBBLLLLLLLaaLaaaLaaLLaaLLLLaaLLaaLaaLLaaLaaLLaaLaaLLaaLaaLLLLLLLLLLLL",
"LBBBBBBBBBBBBBBBBBBBBBBBBBoooiiaBaaaaaBBBBBBBBBBBBBBBBBBBBBBBBBBBLBBBBBBBBBBBBBBBBBBBBBBBBBoooiiaBaaaaaBBBBBBBBBBBBBBBBBBBBBBBBBBBLBBBBBBBBBBBBBBBBBBBBBBaaaaaBBBBBBBBBaaaaBBBBBBBBBBBBBBBBBBBBBBBBLBBBBBBBBBBBBBBBBBBBBBBBBaaaBBBBBBBBBaaaaaBBBBBBBBBBBBBBBBBBBBBBBLBBBBBBBBBBBBBBBBBBBBBBBaaaaaBBBBBBaaaaaaaBBBBBBBBBBBBBBBBBBBBBBBLBBBBBBBBBBBBBBBBBBBBBBBBBBBBBBBBBaaaaaaaaaBBBBBBBBBBBBBBBBBBBBBBLBBBBBBBBBBBBBP4PlccciqqoicdddddmacccahlccclicclllBBBBBBBBBBBBBBBLLLLLLLaaLaaaLaaLLaaLLLLaaLLLLLaaLLLLLaaaaaaLaaLLaaLLaaaaLLLLLLLLL",
"LBBBBBBBBBBBBBBBBBBBBBBBBBoooliaBaaaaaaBBBBBBBBBBBBBBBBBBBBBBBBBBLBBBBBBBBBBBBBBBBBBBBBBBBBoooliaBaaaaaaBBBBBBBBBBBBBBBBBBBBBBBBBBLBBBBBBBBBBBBBBBBBBBBBBBBBBBBBBBBBBBBBBBBBBBBBBBBBBBBBBBBBBBBBBBBLBBBBBBBBBBBBBBBBBBBBBBBBBBBBBBBBBBBaaaaaBBBBBBBBBBBBBBBBBBBBBBBBLBBBBBBBBBBBBBBBBBBBBBBBBaaaBBBBBBBaaaaaaaBBBBBBBBBBBBBBBBBBBBBBBLBBBBBBBBBBBBBBBBBBBBBBBBBBBBBBBBBaaaaaaaaBBBBBBBBBBBBBBBBBBBBBBBLBBBBBBBBBBBBVPDDddccooaaiiicdclllalllaahiillllclwQBBBBBBBBBBBBBBLLLLLLLaaLLaaLaaLLaaLLLLaaLLaaLaaLLLLLaaLLLLLaaLLaaLLLLLaaLLLLLLLL",
"LBBBBBBBBBBBBBBBBBBBBBBBBBiooliaBBaaaaaaBBBBBBBBBBBBBBBBBBBBBBBBBLBBBBBBBBBBBBBBBBBBBBBBBBBiooliaBBaaaaaaBBBBBBBBBBBBBBBBBBBBBBBBBLBBBBBBBBBBBBBBBBBBBBBBBBBBBBBBBBBBBBBBBBBBBBBBBBBBBBBBBBBBBBBBBBLBBBBBBBBBBBBBBBBBBBBBBBBBBBBBBBBBBBaaaaaaBBBBBBBBBBBBBBBBBBBBBBBLBBBBBBBBBBBBBBBBBBBBBBBBBBBBBBBBBaaaaaaaBBBBBBBBBBBBBBBBBBBBBBBBLBBBBBBBBBBBBBBBBBBBBBBBBBBBBBBBBaaaaaaaBBBBBBBBBBBBBBBBBBBBBBBBBLBBBBBBBBBBBB4DwwiiiioaaaaaiadcaaaliiiaaaiillilnnH4PBBBBBBBBBBBBBLLLLLLLaaLLaaLaaLLaaLLLLaaLLaaLaaLLLLLaaLLaaLaaLLaaLaaLLaaLLLLLLLL",
"LBBBBBBBBBBBBBBBBBBBBBBBBBiiiaaBBBaaaaaaBBBBBBBBBBBBBBBBBBBBBBBBBLBBBBBBBBBBBBBBBBBBBBBBBBBiiiaaBBBaaaaaaBBBBBBBBBBBBBBBBBBBBBBBBBLBBBBBBBBBBBBBBBBBBBBBBBBBBBBBBBBBBBBBBBBBBBBBBBBBBBBBBBBBBBBBBBBLBBBBBBBBBBBBBBBBBBBBBBBBBBBBBBBBBBBaaaaaaBBBBBBBBBBBBBBBBBBBBBBBLBBBBBBBBBBBBBBBBBBBBBBBBBBBBBBBBBaaaaaaBBBBBBBBBBBBBBBBBBBBBBBBBLBBBBBBBBBBBBBBBBBBBBBBBBBBBBBBBBaaaaaaBBBBBBBBBBBBBBBBBBBBBBBBBBLBBBBBBBBBBBBPwBBBBBBaaaaaaaaccaaaaliaaaaaiiqqyllwDKwBBBBBBBBBBBBLLLLLLLaaLLaaLLaaaaLLLLLLaaaaLLaaLLLLLLaaaaLLLaaaaaLLaaaaLLLLLLLLL",
"LBBBBBBBBBBBBBBBBBBBBBBBBBBiaaaBBBBBBBBBBBBBBBBBBBBBBBBBBBBBBBBBBLBBBBBBBBBBBBBBBBBBBBBBBBBBiaaaBBBBBBBBBBBBBBBBBBBBBBBBBBBBBBBBBBLBBBBBBBBBBBBBBBBBBBBBBBBBBBBBBBBBBBBBBBBBBBBBBBBBBBBBBBBBBBBBBBBLBBBBBBBBBBBBBBBBBBBBBBBBBBBBBBBBBBBaaaaaaBBBBBBBBBBBBBBBBBBBBBBBLBBBBBBBBBBBBBBBBBBBBBBBBBBBBBBBBBaaaaaBBBBBBBBBBBBBBBBBBBBBBBBBBLBBBBBBBBBBBBBBBBBBBBBBBBBBBBBBBBaaaaaBBBBBBBBBBBBBBBBBBBBBBBBBBBLBBBBBBBBBBBBBBBBBBBBaaaaaaaallaaaalaaaaaaqqqyyyBBBBwBBBBBBBBBBBBLLLLLLLLLLLLLLLLLLLLLLLLLLLLLLLLLLLLLLLLLLLLLLLLLLLLLLLLLLLLLLLLLL",
"LBBBBBBBBBBBBBBBBBBBBBBBBBiooolaBBBBBBBBBBBBBBBBBBBBBBBBBBBBBBBBBLBBBBBBBBBBBBBBBBBBBBBBBBBiooolaBBBBBBBBBBBBBBBBBBBBBBBBBBBBBBBBBLBBBBBBBBBBBBBBBBBBBBBBBBBBBBBBBBBBBBBBBBBBBBBBBBBBBBBBBBBBBBBBBBLBBBBBBBBBBBBBBBBBBBBBBBBBBBBBBBBBBBBaaaaBBBBBBBBBBBBBBBBBBBBBBBBLBBBBBBBBBBBBBBBBBBBBBBBBBBBBBBBBBaaaaaBBBBBBBBBBBBBBBBBBBBBBBBBBLBBBBBBBBBBBBBBBBBBBBBBBBBBBBBBBBBaaaBBBBBBBBBBBBBBBBBBBBBBBBBBBBLBBBBBBBBBBBBBBBBBBBBBaaaaaaallaaaaiaaaBBBBBBBBBBBBBBBBBBBBBBBBBBLLLLLLLLLLLLLLLLLLLLLLLLLLLLLLLLLLLLLLLLLLLLLLLLLLLLLLLLLLLLLLLLLL",
"LBBBBBBBBBBBBBBBBBBBBBBBBioooolaBBBBBBBBBBBBBBBBBBBBBBBBBBBBBBBBBLBBBBBBBBBBBBBBBBBBBBBBBBioooolaBBBBBBBBBBBBBBBBBBBBBBBBBBBBBBBBBLBBBBBBBBBBBBBBBBBBBBBBBBBBBBBBBBBBBBBBBBBBBBBBBBBBBBBBBBBBBBBBBBLBBBBBBBBBBBBBBBBBBBBBBBBBBBBBBBBBBBBBBBBBBBBBBBBBBBBBBBBBBBBBBBBLBBBBBBBBBBBBBBBBBBBBBBBBBBBBBBBBBBaaaBBBBBBBBBBBBBBBBBBBBBBBBBBBLBBBBBBBBBBBBBBBBBBBBBBBBBBBBBBBBBBBBBBBBBBBBBBBBBBBBBBBBBBBBBBBBLBBBBBBBBBBBBBBBBBBBBBBaaaaaBBBBaaaaBBBBBBBBBBBBBBBBBBBBBBBBBBBBBLLLLLLLLLLLLLLLLLLLLLLLLLLLLLLLLLLLLLLLLLLLLLLLLLLLLLLLLLLLLLLLLLL",
"LBBBBBBBBBBBBBBBBBBBBBBBBillliaBBBBBBBBBBBBBBBBBBBBBBBBBBBBBBBBBBLBBBBBBBBBBBBBBBBBBBBBBBBillliaBBBBBBBBBBBBBBBBBBBBBBBBBBBBBBBBBBLBBBBBBBBBBBBBBBBBBBBBBBBBBBBBBBBBBBBBBBBBBBBBBBBBBBBBBBBBBBBBBBBLBBBBBBBBBBBBBBBBBBBBBBBBBBBBBBBBBBBBBBBBBBBBBBBBBBBBBBBBBBBBBBBBLBBBBBBBBBBBBBBBBBBBBBBBBBBBBBBBBBBBBBBBBBBBBBBBBBBBBBBBBBBBBBBBBLBBBBBBBBBBBBBBBBBBBBBBBBBBBBBBBBBBBBBBBBBBBBBBBBBBBBBBBBBBBBBBBBLBBBBBBBBBBBBBBBBBBBBBBBBBBBBBBBBBBBBBBBBBBBBBBBBBBBBBBBBBBBBBBBBLLLLLLLLLLLLLLLLLLLLLLLLLLLLLLLLLLLLLLLLLLLLLLLLLLLLLLLLLLLLLLLLLL",
"LLLLLLLLLLLLLLLLLLLLLLLLLLLLLLLLLLLLLLLLLLLLLLLLLLLLLLLLLLLLLLLLLLLLLLLLLLLLLLLLLLLLLLLLLLLLLLLLLLLLLLLLLLLLLLLLLLLLLLLLLLLLLLLLLLLLLLLLLLLLLLLLLLLLLLLLLLLLLLLLLLLLLLLLLLLLLLLLLLLLLLLLLLLLLLLLLLLLLLLLLLLLLLLLLLLLLLLLLLLLLLLLLLLLLLLLLLLLLLLLLLLLLLLLLLLLLLLLLLLLLLLLLLLLLLLLLLLLLLLLLLLLLLLLLLLLLLLLLLLLLLLLLLLLLLLLLLLLLLLLLLLLLLLLLLLLLLLLLLLLLLLLLLLLLLLLLLLLLLLLLLLLLLLLLLLLLLLLLLLLLLLLLLLLLLLLLLLLLLLLLLLLLLLLLLLLLLLLLLLLLLLLLLLLLLLLLLLLLLLLLLLLLLLLLLLLLLLLLLLLLLLLLLLLLLLLLLLLLLLLLLLLLLLLLLLLLLLLLLLLLLLLLLLLLLLLLLLLLLLLL",
"LBBBBBBBBBBBBBBBBBBBBBBBBBBBBBBBBBBBBBBBBBBBBBBBBBBBBBBBBBBBBBBBBLBBBBBBBBBBBBBBBBBBBBBBBBBBBBBBBBBBBBBBBBBBBBBBBBBBBBBBBBBBBBBBBBLBBBBBBBBBBBBBBBBBBBBBBBBBBBBBBBBBBBBBBBBBBBBBBBBBBBBBBBBBBBBBBBBLBBBBBBBBBBBBBBBBBBBBBBBBBBBBBBBBBBBBBBBBBBBBBBBBBBBBBBBBBBBBBBBBLLLLLLLLLLLLLLLLLLLLLLLLLLLLLLLLLLLLLLLLLLLLLLLLLLLLLLLLLLLLLLLLLLLLLLLLLLLLLLLLLLLLLLLLLLLLLLLLLLLLLLLLLLLLLLLLLLLLLLLLLLLLLLLLLLLLLLLLLLLLLLLLLLLLLLLLLLLLLLLLLLLLLLLLLLLLLLLLLLLLLLLLLLLLLLLLLLLLLLLLLLLLLLLLLLLLLLLLLLLLLLLLLLLLLLLLLLLLLLLLLLLLLLLLLLLLLLLLLLLLL",
"LBBBBBBBBBBBBBBBBBBBBBBBBBBBBBBBBBBBBBBBBBBBBBBBBBBBBBBBBBBBBBBBBLBBBBBBBBBBBBBBBBBBBBBBBBBBBBBBBBBBBBBBBBBBBBBBBBBBBBBBBBBBBBBBBBLBBBBBBBBBBBBBBBBBBBBBBBBBBBBBBBBBBBBBBBBBBBBBBBBBBBBBBBBBBBBBBBBLBBBBBBBBBBBBBBBBBBBBBBBBBBBBBBBBBBBBBBBBBBBBBBBBBBBBBBBBBBBBBBBBLLLLLLLLLLLLLLLLLLLLLLLLLLLLLLLLLLLLLLLLLLLLLLLLLLLLLLLLLLLLLLLLLLLLLLLLLLLLLLLLLLLLLLLLLLLLLLLLLLLLLLLLLLLLLLLLLLLLLLLLLLLLLLLLLLLLLLLLLLLLLLLLLLLLLLLLLLLLLLLLLLLLLLLLLLLLLLLLLLLLLLLLLLLLLLLLLLLLLLLLLLLLLLLLLLLLLLLLLLLLLLLLLLLLLLLLLLLLLLLLLLLLLLLLLLLLLLLLLLLLL",
"LBBBBBBBBBBBBBBBBBBBBBBBBBBBBBBBBBBBBBBBBBBBBBBBBBBBBBBBBBBBBBBBBLBBBBBBBBBBBBBBBBBBBBBBBBBBBBBBBBBBBBBBBBBBBBBBBBBBBBBBBBBBBBBBBBLBBBBBBBBBBBBBBBBBBBBBBBBBBBBBBBBBBBBBBBBBBBBBBBBBBBBBBBBBBBBBBBBLBBBBBBBBBBBBBBBBBBBBBBBBBBBBBBBBBBBBBBBBBBBBBBBBBBBBBBBBBBBBBBBBLLLLLLLLLLLLLLLLLLLLLLLLLLLLLLLLLLLLLLLLLLLLLLLLLLLLLLLLLLLLLLLLLLLLLLLLLLLLLLLLLLLLLLLLLLLLLLLLLLLLLLLLLLLLLLLLLLLLLLLLLLLLLLLLLLLLLLLLLLLLLLLLLLLLLLLLLLLLLLLLLLLLLLLLLLLLLLLLLLLLLLLLLLLLLLLLLLLLLLLLLLLLLLLLLLLLLLLLLLLLLLLLLLLLLLLLLLLLLLLLLLLLLLLLLLLLLLLLLLLLL",
"LBBBBBBBBBBBBBBBBBBBBBBBBBBBBBBBBBBBBBBBBBBBBBBBBBBBBBBBBBBBBBBBBLBBBBBBBBBBBBBBBBBBBBBBBBBBBBBBBBBBBBBBBBBBBBBBBBBBBBBBBBBBBBBBBBLBBBBBBBBBBBBBBBBBBBBBBBBBBBBBBBBBBBBBBBBBBBBBBBBBBBBBBBBBBBBBBBBLBBBBBBBBBBBBBBBBBBBBBBBBBBBBBBBBBBBBBBBBBBBBBBBBBBBBBBBBBBBBBBBBLLLLLLLLLLLLLLLLLLLLLLLLLLLLLLLLLLLLLLLLLLLLLLLLLLLLLLLLLLLLLLLLLLLLLLLLLLLLLLLLLLLLLLLLLLLLLLLLLLLLLLLLLLLLLLLLLLLLLLLLLLLLLLLLLLLLLLLLLLLLLLLLLLLLLLLLLLLLLLLLLLLLLLLLLLLLLLLLLLLLLLLLLLLLLLLLLLLLLLLLLLLLLLLLLLLLLLLLLLLLLLLLLLLLLLLLLLLLLLLLLLLLLLLLLLLLLLLLLLLLL",
"LBBBBBBBBBBBBBBBBBBBBBBBBBBBBBBBBBBBBBBBBBBBBBBBBBBBBBBBBBBBBBBBBLBBBBBBBBBBBBBBBBBBBBBBBBBBBBBBBBBBBBBBBBBBBBBBBBBBBBBBBBBBBBBBBBLBBBBBBBBBBBBBBBBBBBBBBBBBBBBBBBBBBBBBBBBBBBBBBBBBBBBBBBBBBBBBBBBLBBBBBBBBBBBBBBBBBBBBBBBBBBBBBBBBBBBBBBBBBBBBBBBBBBBBBBBBBBBBBBBBLLLLLLLLLLLLLLLLLLLLLLLLLLLLLLLLLLLLLLLLLLLLLLLLLLLLLLLLLLLLLLLLLLLLLLLLLLLLLLLLLLLLLLLLLLLLLLLLLLLLLLLLLLLLLLLLLLLLLLLLLLLLLLLLLLLLLLLLLLLLLLLLLLLLLLLLLLLLLLLLLLLLLLLLLLLLLLLLLLLLLLLLLLLLLLLLLLLLLLLLLLLLLLLLLLLLLLLLLLLLLLLLLLLLLLLLLLLLLLLLLLLLLLLLLLLLLLLLLLLLL",
"LBBBBBBBBBBBBBBBBBBBBBBBBBBBBBBBBBBBBBBBBBBBBBBBBBBBBBBBBBBBBBBBBLBBBBBBBBBBBBBBBBBBBBBBBBBBBBBBBBBBBBBBBBBBBBBBBBBBBBBBBBBBBBBBBBLBBBBBBBBBBBBBBBBBBBBBBBBBBBBBBBBBBBBBBBBBBBBBBBBBBBBBBBBBBBBBBBBLBBBBBBBBBBBBBBBBBBBBBBBBBBBBBBBBBBBBBBBBB6BBBBBBBBBBBBBBBBBBBBBBLLLLLLLLLLLLLLLLLLLLLLLLLLLLLLLLLLLLLLLLLLLLLLLLLLLLLLLLLLLLLLLLLLLLLLLLLLLLLLLLLLLLLLLLLLLLLLLLLLLLLLLLLLLLLLLLLLLLLLLLLLLLLLLLLLLLLLLLLLLLLLLLLLLLLLLLLLLLLLLLLLLLLLLLLLLLLLLLLLLLLLLLLLLLLLLLLLLLLLLLLLLLLLLLLLLLLLLLLLLLLLLLLLLLLLLLLLLLLLLLLLLLLLLLLLLLLLLLLLLLL",
"LBBBBBBBBBBBBBBBBBBBBBBBBBBBBBBBBBBBBBBBBBBBBBBBBBBBBBBBBBBBBBBBBLBBBBBBBBBBBBBBBBBBBBBBBBBBBBBBBBBBBBBBBBBBBBBBBBBBBBBBBBBBBBBBBBLBBBBBBBBBBBBBBBBBBBBBBBBBBBBBBBBBBBBBBBBBBBBBBBBBBBBBBBBBBBBBBBBLBBBBBBBBBBBBBBBBBBBBBBBBBBBBBBBBBBBBBBBBB66BBBBBBBBBBBBBBBBBBBBBLLLLLLLLLLLLLLaaLLLLLLLLLLLLLLLLLLLLLLLLLLLLLLLLLLLLLLLLLLLLLLLLLLLLLLLLLLLLLLLLLLLLLLLLLLLLLLLLLLLLLLLLLLLLLLLLLLLLLLLLLLLLLLLLLLLLLLLLLLLLLLLLLLLLLLLLLLLLLLLLLLLLLLLLLLLLLLLLLLLLLLLLLLLLLLLLLLLLLLLLLLLLLLLLLaaLLLLLLLLLLLLLLLLLLLLLLLLLLLaaLLLLLLLLLLLLLLLLLLLLL",
"LBBBBBBBBBBBBBBBBBBBBBBBBBBBBBBBBBBBBBBBBBBBBBBBBBBBBBBBBBBBBBBBBLBBBBBBBBBBBBBBBBBBBBBBBBBBBBBBBBBBBBBBBBBBBBBBBBBBBBBBBBBBBBBBBBLBBBBBBBBBBBBBBBBBBBBBBBBBBBBBBBBBBBBBBBBBBBBBBBBBBBBBBBBBBBBBBBBLBBBBBBBBBBBBBBBBBBBBBBBBBBBBBBBBBBBBBBBBB6ZBBBBBBBBBBBBBBBBBBBBBLLLLLaaaaaaLLLaaLLLLLLLLLLLLLLLLLLLaaLLLLLLLLaaLLLLLLLLLLLLLLLLLLLLLLLLaaaLLLLLLLLLLLLLLLLLLLLLLLLLLLLLLLLLLLLLLLLLLLLLLLLLLaaaLLLLLLaaLLLaaLLLLLLLLLLLLLLLLLLLaaLLLLLLLLLLLLLLLLLaaLLLaaLLLLLLLLLLLLLLLLLLLLLLLLaaLLLLLLLLLLLLLLLLLLLLaaLLLLLaaLLLLLLLLLLLLLLLLLLLLL",
"LBBBBBBBBBBBBBBBBBBBBBBBBBBBBBBBBBBBBBBBBBBBBBBBBBBBBBBBBBBBBBBBBLBBBBBBBBBBBBBBBBBBBBB66BBBBBBBBBBBBBBBBBBBBBBBBBBBBBBBBBBBBBBBBBLBBBBBBBBBBBBBBBBBBBBBBBBBBBBBBBBBBBBBBBBBBBBBBBBBBBBBBBBBBBBBBBBLBBBBBBBBBBBBBBBBBBBBBBBBBBBBBBBBBBBBBBBBB6ZBBBBBBBBBBBBBBBBBBBBBLLLLLaaLLLLLLLLLLLLLLLLLLLLLLLLLLLLaaLLLLLLLLaaLLLLLLLLLLLLLLLLLLLLLLLaaLLLLLLLLLLLLLLLLLLLLLLLLLLLLLLLLLLLLLLLLLLLLLLLLLLLaaLLLLLLLLaaLLLaaLLLLLLLLLLLLLLLLLLLaaLLLLLLLLLLLLLLLLLaaLLLaaLLLLLLLLLLLLLLLLLLLLLLLLLLLLLLLLLLLLLLLLLLLLLLaaLLLLLLLLLLLLLLLLLLLLLLLLLLLL",
"LBBBBBBBBBBBBBBBBBBBBBBBBBBBBBBBBBBBBBBBBBBBBBBBBBBBBBBBBBBBBBBBBLBBBBBBBBBBBBBBBBBBBBB6VBBBBBBBBBBBBBBBBBBBBBBBBBBBBBBBBBBBBBBBBBLBBBBBBBBBBBBBBBBBBBBBBBBBBBBBBBBBBBBBBBBBBBBBBBBBBBBBBBBBBBBBBBBLBBBBBBBBBBBBBBBBBBBBBBBBBBBBBBBBBBBBBBBBB6ZBBBBBBBBBBBBBBBBBBBBBLLLLLaaLLLLLaaaaLLLaaaaaLLLaaaaLLaaaaaaLLLLaaaaaaLaaLLLaaLLaaaaLLLLLLLaaLLLaaaaaLLLaaaaLLaaaLaaLLLaaaaLLLaaaaLLLLLLaaaaLLLLaaLLLLLLaaaaaaLaaaaaLLLaaaaLLLLLLaaaaaLLaaaaLLLaaaaLLaaaaaaLaaaaaLLLLLLaaaaLLaaaaaLLaaaaLLLaaaLaaLLLaaaaLLaaaaaaLaaaaLLLLaaaaLLaaaaaLLLLLL",
"LBBBBBBBBBBBBBBBBBBBBBBBBBBBBBBBBBBBBBBBBBBBBBBBBBBBBBBBBBBBBBBBBLBBBBBBBBBBBBBBBBBBBBB6VBBBBBBBBBBBBBBBBBBBBBBBBBBBBBBBBBBBBBBBBBLBBBBBBBBBBBBBBBBBBBBBBBBBBBBBBBBBBBBBBBBBBBBBBBBBBBBBBBBBBBBBBBBLBBBBBBBBBBBBBBBBBBBBBBBBBBBBBBBBBBBBBBBBB6ZBBBBBBBBBBBBBBBBBBBBBLLLLLaaLLLLLLLaaLLLaaLLaaLaaLLaaLLLaaLLLLLLLLaaLLLaaLaLaaLaaLLaaLLLLaaaaaaLaaLLaaLaaLLaaLaaaaaaaLaaLLaaLaaLLaaLLLLaaLLaaLaaaaaaLLLLLLaaLLLaaLLaaLaaLLaaLLLLaaLLaaLaaLLaaLaaLLaaLLLaaLLLaaLLaaLLLLaaLLaaLaaLLaaLLLaaLLLaaaaaaaLaaLLaaLLLaaLLLLLaaLLLaaLLaaLaaLLaaLLLLL",
"LBBBBBBBBBBBBBBBBBBBBBBBBBBBBBBBBBBBBBBBBBBBBBBBBBBBBBBBBBBBBBBBBLBBBBBBBBBBBBBBBBBBBBB6VBBBBBBBBBBBBBBBBBBBBBBBBBBBBBBBBBBBBBBBBBLBBBBBBBBBBBBBBBBBBBBBBBBBBBBBBBBBBBBBBBBBBBBBBBBBBBBBBBBBBBBBBBBLBBBBBBBBBBBBBBBBBBBBBBBBBBBBBBBBBBBBBBBBB6QPBBBBBBBBBBBBBBBBBBBBLLLLLaaaaaLLLLaaLLLaaLLaaLaaLLLLLLLaaLLLLLLLLaaLLLaaLaLaaLaaLLaaLLLLLLaaLLLaaLLaaLLLLLaaLaaLaLaaLaaLLaaLaaLLLLLLLLaaLLaaLLLaaLLLLLLLLaaLLLaaLLaaLaaLLaaLLLLaaLLaaLaaLLaaLLLLLaaLLLaaLLLaaLLaaLLLLLLLLaaLaaLLaaLLLaaLLLaaLaLaaLLLLLaaLLLaaLLLLLaaLLLaaLLaaLaaLLaaLLLLL",
"LBBBBBBBBBBBBBBBBBBBBBBBBBBBBBBBBBBBBBBBBBBBBBBBBBBBBBBBBBBBBBBBBLBBBBBBBBBBBBBBBBBBBBB6VBBBBBBBBBBBBBBBBBBBBBBBBBBBBBBBBBBBBBBBBBLBBBBBBBBBBBBBBBBBBBBBBBBBBBBBBBBBBBBBBBBBBBBBBBBBBBBBBBBBBBBBBBBLBBBBBBBBBBBBBBBBBBBBBBBBBBBBBBBBBBBBBBBBB66DBBBBBBBBBBBBBBBBBBBBLLLLLaaLLLLLLLaaLLLaaLLLLLLaaaaLLLLaaLLLLLLLLaaLLLaaLaLaaLaaLLaaLLLLLLaaLLLaaLLLLLLaaaaaLaaLaLaaLaaaaaaLLaaaaLLLLLaaLLaaLLLaaLLLLLLLLaaLLLaaLLaaLaaaaaaLLLLaaLLaaLaaaaaaLLaaaaaLLLaaLLLaaLLaaLLLLLaaaaaLaaLLaaLLLaaLLLaaLaLaaLLaaaaaLLLaaLLLLLaaLLLaaLLaaLaaLLaaLLLLL",
"LBBBBBBBBBBBBBBBBBBBBBBBBBBBBBBBBBBBBBBBBBBBBBBBBBBBBBBBBBBBBBBBBLBBBBBBBBBBBBBBBBBBBBB6VBBBBBBBBBBBBBBBBBBBBBBBBBBBBBBBBBBBBBBBBBLBBBBBBBBBBBBBBBBBBBBBBBBBBBBBBBBBBBBBBBBBBBBBBBBBBBBBBBBBBBBBBBBLBBBBBBBBBBBBBBBBBBBBBBBBBBBBBBBBBBBBBBBBBPPDBBBBBBBBBBBBBBBBBBBBLLLLLaaLLLLLLLaaLLLaaLLLLLLLLLaaLLLaaLLLLLLLLaaLLLaaLaLaaLaaLLaaLLLLLLaaLLLaaLLLLLaaLLaaLaaLaLaaLaaLLLLLLLLLaaLLLLaaLLaaLLLaaLLLLLLLLaaLLLaaLLaaLaaLLLLLLLLaaLLaaLaaLLLLLaaLLaaLLLaaLLLaaLLaaLLLLaaLLaaLaaLLaaLLLaaLLLaaLaLaaLaaLLaaLLLaaLLLLLaaLLLaaLLaaLaaLLaaLLLLL",
"LBBBBBBBBBBBBBBBBBBBBBBBBBBBBBBBBBBBBBBBBBBBBBBBBBBBBBBBBBBBBBBBBLBBBBBBBBBBBBBBBBBBBBBV6PBBBBBBBBBBBBBBBBBBBBBBBBBBBBBBBBBBBBBBBBLBBBBBBBBBBBBBBBBBBBBBBBBBBBBBBBBBBBBBBBBBBBBBBBBBBBBBBBBBBBBBBBBLBBBBBBBBBBBBBBBBBBBBBBBBBBBBBBBBBBBBBBBBBdclBBBBBBBBBBBBBBBBBBBBLLLLLaaLLLLLLLaaLLLaaLLLLLaaLLaaLLLaaLLLLLLLLaaLLLLaaLaaLLaaLLaaLLLLLLaaLLLaaLLLLLaaLLaaLaaLaLaaLaaLLaaLaaLLaaLLLLaaLLaaLLLaaLLLLLLLLaaLLLaaLLaaLaaLLaaLLLLaaLLaaLaaLLaaLaaLLaaLLLaaLLLaaLLaaLLLLaaLLaaLaaLLaaLLLaaLLLaaLaLaaLaaLLaaLLLaaLLLLLaaLLLaaLLaaLaaLLaaLLLLL",
"LBBBBBBBBBBBBBBBBBBBBBBBBBBBBBBBBBBBBBBBBBBBBBBBBBBBBBBBBBBBBBBBBLBBBBBBBBBBBBBBBBBBBBBVPPBBBBBBBBBBBBBBBBBBBBBBBBBBBBBBBBBBBBBBBBLBBBBBBBBBBBBBBBBBBBBBBBBBBBBBBBBBBBBBBBBBBBBBBBBBBBBBBBBBBBBBBBBLBBBBBBBBBBBBBBBBBBBBBBBBBBBBBBBBBBBBBBBBBdclBBBBBBBBBBBBBBBBBBBBLLLLLaaLLLLLaaaaaaLaaLLLLLLaaaaLLLLLaaaLLLLLLLaaaLLaaLaaLLLaaaaLLLLLLLaaLLLaaLLLLLLaaaaaLaaLLLaaLLaaaaLLLaaaaLLLLLLaaaaLLLLaaLLLLLLLLLaaaLaaLLaaLLaaaaLLLLLLaaaaaLLaaaaLLLaaaaaLLLLaaaLaaLLaaLLLLLaaaaaLaaLLaaLaaaaaaLaaLLLaaLLaaaaaLLLLaaaLaaaaaaLLaaaaLLaaLLaaLLLLL",
"LBBBBBBBBBBBBBBBBBBBBBBBBBBBBBBBBBBBBBBBBBBBBBBBBBBBBBBBBBBBBBBBBLBBBBBBBBBBBBBBBBBBBBBVVPcBBBBBBBBBBBBBBBBBBBBBBBBBBBBBBBBBBBBBBBLBBBBBBBBBBBBBBBBBBBBBBBBBBBBBBBBBBBBBBBBBBBBBBBBBBBBBBBBBBBBBBBBLBBBBBBBBBBBBBBBBBBBBBBBBBBBBBBBBBBBBBBBBBdclBBBBBBBBBBBBBBBBBBBBLLLLLLLLLLLLLLLLLLLLLLLLLLLLLLLLLLLLLLLLLLLLLLLLLLLLLLLLLLLLLLLLLLLLLLLLLLLLLLLLLLLLLLLLLLLLLLLLLLLLLLLLLLLLLLLLLLLLLLLLLLLLLLLLLLLLLLLLLLLLLLLLLLLLLLLLLLLLLLLLLLLLLLLLLLLLLLLLLLLLLLLLLLLLLLLLLLLLLLLLLLLLLLLLLLLLLLLLLLLLLLLLLLLLLLLLLLLLLLLLLLLLLLLLLLLLLLLLLLLLL",
"LBBBBBBBBBBBBBBBBBBBBBBBBBBBBBBBBBBBBBBBBBBBBBBBBBBBBBBBBBBBBBBBBLBBBBBBBBBBBBBBBBBBBBBdTllBBBBBBBBBBBBBBBBBBBBBBBBBBBBBBBBBBBBBBBLBBBBBBBBBBBBBBBBBBBBBBBBBBBBBBBBBBBBBBBBBBBBBBBBBBBBBBBBBBBBBBBBLBBBBBBBBBBBBBBBBBBBBBBBBBBBBBBBBBBBBBBBBddclBBBBBBBBBBBBBBBBBBBBLLLLLLLLLLLLLLLLLLLLLLLLLLLLLLLLLLLLLLLLLLLLLLLLLLLLLLLLLLLLLLLLLLLLLLLLLLLLLLLLLLLLLLLLLLLLLLLLLLLLLLLLLLLLLLLLLLLLLLLLLLLLLLLLLLLLLLLLLLLLLLLLLLLLLLLLLLLLLLLLLLLLLLLLLLLLLLLLLLLLLLLLLLLLLLLLLLLLLLLLLLLLLLLLLLLLLLLLLLLLLLLLLLLLLLLLLLLLLLLLLLLLLLLLLLLLLLLLLLLLL",
"LBBBBBBBBBBBBBBBBBBBBBBBBBBBBBBBBBBBBBBBBBBBBBBBBBBBBBBBBBBBBBBBBLBBBBBBBBBBBBBBBBBBBBBdcllBBBiiiiiiiaBBBBBBBBBBBBBBBBBBBBBBBBBBBBLBBBBBBBBBBBBBBBBBBBBBBBBBBBBBBBBBBBBBBBBBBBBBBBBBBBBBBBBBBBBBBBBLBBBBBBBBBBBBBBBBBBBBBBBBBBBBiiiiiiiaBBBBddclBBBBBBBBBBBBBBBBBBBBLLLLLLLLLLLLLLLLLLLLLLLLLLLLLLLLLLLLLLLLLLLLLLLLLLLLLLLLLLLLLLLLLLLLLLLLLLLLLLLLLLLLLLLLLLLLLLLLLLLLLLLLLLaaLLLLLLLLLLLLLLLLLLLLLaaLLLLLLLLLaaaLLLLLLLLLLLLLLLLLLLLLLLLLLLLLLLLLLLLLLLLLLLLLLLLLLLLLLLLLLLLLLLLLLLLLLLLLLLLLLLLLLLLLLLLLLLLLLLLLLLLLLLLLLLLLLLLLLLLLL",
"LBBBBBBBBBBBBBBBBBBBBBBBBBBBBBBBBBBBBBBBBBBBBBBBBBBBBBBBBBBBBBBBBLBBBBBBBBBBBBBBBBBBBBBdcllcBBlooooooaBBBBBBBBBBBBBBBBBBBBBBBBBBBBLBBBBBBBBBBBBBBBBBBBBBBBBBBBBBBBBBBBBBBBBBBBBBBBBBBBBBBBBBBBBBBBBLBBBBBBBBBBBBBBBBBBBBBBBBBBBBlooooooaBBBBddnlBBBBBBBBBBBBBBBBBBBBLLLLLLLLLLLLLLLLLLLLLLLLLLLLLLLLLLLLLLLLLLLLLLLLLLLLLLLLLLLLLLLLLLLLLLLLLLLLLLLLLLLLLLLLLLLLLLLLLLLLLLLLLLaaLLLLLLLLLLLLLLLLLLLLLaaLLLLLLLLaaLLLLLLLLLLLLLLLLLLLLLLLLLLLLLLLLLLLLLLLLLLLLLLLLLLLLLLLLLLLLLLLLLLLLLLLLLLLLLLLLLLLLLLLLLLLLLLLLLLLLLLLLLLLLLLLLLLLLLLLL",
"LBBBBBBBBBBBBBBBBBBBBBBBBBBBBiiiiiiiaBBBBBBBBBBBBBBBBBBBBBBBBBBBBLBBBBBBBBBBBBBBBBBBBBBddclcBBiDZZQQDiBBBBBBBBBBBBBBBBBBBBBBBBBBBBLBBBBBBBBBBBBBBBBBBBBBBBBBBBBiiiiiiiaBBBBBBBBBBBBBBBBBBBBBBBBBBBBLBBBBBBBBBBBBBBBBBBBBBBBBBBBBiDZZQQDiBBBddcnlBBBBBBBBBBBBBBBBBBBBLLLLLLLLLLLLLLLLLLLLLLLLLLLLLLLLLLLLLLLLLLLLLLLLLLLLLLLLLLLLLLLLLLLLLLLLLLLLLLLLLLLaaaaLLaaaaaLLLaaaaLLLLLaaaaaLLaaLLaaLaaaaaLLaaaaaaLLLLLLaaLLLaaaaaLLLaaaaLLaaaLaaLLLaaaaLLLaaaaLLLLLLLLLLLLLLLLLLLLLLLLLLLLLLLLLLLLLLLLLLLLLLLLLLLLLLLLLLLLLLLLLLLLLLLLLLLLLLLLLLL",
"LBBBBBBBBBBBBBBBBBBBBBBBBBBBBliiiiiaaBBBBBBBBBBBBBBBBBBBBBBBBBBBBLBBBBBBBBBBBBBBBBBBBBBBddllBBt14PZ41tBBBBBBBBBBBBBBBBBBBBBBBBBBBBLBBBBBBBBBBBBBBBBBBBBBBBBBBBBliiiiiaaBBBBBBBBBBBBBBBBBBBBBBBBBBBBLBBBBBBBBBBBBBBBBBBBBBBBBBBBBt14PZ41tBBBddclBBBBBBBBBBBBBBBBBBBBBLLLLLLLLLLLLLLLLLLLLLLLLLLLLLLLLLLLLLLLLLLLLLLLLLLLLLLLLLLLLLLLLLLLLLLLLLLLLLLLLLLaaLLaaLaaLLaaLaaLLaaLLLLaaLLaaLaaLLaaLaaLLaaLLLaaLLLLLLaaaaaaLaaLLaaLaaLLaaLaaaaaaaLaaLLaaLaaLLaaLLLLLLLLLLLLLLLLLLLLLLLLLLLLLLLLLLLLLLLLLLLLLLLLLLLLLLLLLLLLLLLLLLLLLLLLLLLLLLLLLL",
"LBBBBBBBBBBBBBBBBBBBBBBBBBBBBiooooooiBBBBBBBBBBBBBBBBBBBBBBBBBBBBLBBBBBBBBBBBBBBBBBBBBBBdcllcBKV5DtWVKBBBBBBBBBBBBBBBBBBBBBBBBBBBBLBBBBBBBBBBBBBBBBBBBBBBBBBBBBiooooooiBBBBBBBBBBBBBBBBBBBBBBBBBBBBLBBBBBBBBBBBBBBBBBBBBBBBBBBBBKV5DtWVKBBdccnlBBBBBBBBBBBBBBBBBBBBBLLLLLLLLLLLLLLLLLLLLLLLLLLLLLLLLLLLLLLLLLLLLLLLLLLLLLLLLLLLLLLLLLLLLLLLLLLLLLLLLLLLLLLaaLaaLLaaLaaLLaaLLLLaaLLaaLaaLLaaLaaLLaaLLLaaLLLLLLLLaaLLLaaLLaaLLLLLaaLaaLaLaaLaaLLaaLaaLLLLLLLLLLLLLLLLLLLLLLLLLLLLLLLLLLLLLLLLLLLLLLLLLLLLLLLLLLLLLLLLLLLLLLLLLLLLLLLLLLLLLL",
"LBBBBBBBBBBBBBBBBBBBBBBBBBBBBtDZZQQDtBBBBBBBBBBBBBBBBBBBBBBBBBBBBLBBBBBBBBBBBBBBBBBBBBBBdclicBK14ZP41KBBBBBBBBBBBBBBBBBBBBBBBBBBBBLBBBBBBBBBBBBBBBBBBBBBBBBBBBBtDZZQQDtBBBBBBBBBBBBBBBBBBBBBBBBBBBBLBBBBBBBBBBBBBBBBBBBBBBBBBBBBK14ZP41KBBdclliBBBBBBBBBBBBBBBBBBBBBLLLLLLLLLLLLLLLLLLLLLLLLLLLLLLLLLLLLLLLLLLLLLLLLLLLLLLLLLLLLLLLLLLLLLLLLLLLLLLLLLLLaaaaaLaaLLLLLaaaaaaLLLLaaLLaaLaaLLaaLaaLLLLLLLaaLLLLLLLLaaLLLaaLLLLLLaaaaaLaaLaLaaLaaaaaaLLaaaaLLLLLLLLLLLLLLLLLLLLLLLLLLLLLLLLLLLLLLLLLLLLLLLLLLLLLLLLLLLLLLLLLLLLLLLLLLLLLLLLLLL",
"LBBBBBBBBBBBBBBBBBBBBBBBBBBBBK14PZ41KBBBBBBBBBBBBBBBBBBBBBBBBBBBBLBBBBBBBBBBBBBBBBBBBBBBdlillcBQZVVZQBBBBBBBBBBBBBBBBBBBBBBBBBBBBBLBBBBBBBBBBBBBBBBBBBBBBBBBBBBK14PZ41KBBBBBBBBBBBBBBBBBBBBBBBBBBBBLBBBBBBBBBBBBBBBBBBBBBBBBBBBBBQZVVZQBBdddcliBBBBBBBBBBBBBBBBBBBBBLLLLLLLLLLLLLLLLLLLLLLLLLLLLLLLLLLLLLLLLLLLLLLLLLLLLLLLLLLLLLLLLLLLLLLLLLLLLLLLLLLaaLLaaLaaLLLLLaaLLLLLLLLaaLLaaLaaLLaaLaaLLLLLLLaaLLLLLLLLaaLLLaaLLLLLaaLLaaLaaLaLaaLaaLLLLLLLLLaaLLLLLLLLLLLLLLLLLLLLLLLLLLLLLLLLLLLLLLLLLLLLLLLLLLLLLLLLLLLLLLLLLLLLLLLLLLLLLLLLLL",
"LBBBBBBBBBBBBBBBBBBBBBBBBBBBBKV5DtWVKBBBBBBBBBBBBBBBBBBBBBBBBBBBBLBBBBBBBBBBBBBBBBBBBBBBdccdlccQZ66ZKBBBBBBBBBBBBBBBBBBBBBBBBBBBBBLBBBBBBBBBBBBBBBBBBBBBBBBBBBBKV5DtWVKBBBBBBBBBBBBBBBBBBBBBBBBBBBBLBBBBBBBBBBBBBBBBBBBBBBBBBBBBBQZ66ZKBdddcnlBBBBBBBBBBBBBBBBBBBBBBLLLLLLLLLLLLLLLLLLLLLLLLLLLLLLLLLLLLLLLLLLLLLLLLLLLLLLLLLLLLLLLLLLLLLLLLLLLLLLLLLLaaLLaaLaaLLLLLaaLLaaLLLLaaLLaaLaaLLaaLaaLLLLLLLaaLLLLLLLLaaLLLaaLLLLLaaLLaaLaaLaLaaLaaLLaaLaaLLaaLaaLLLLLLLLLLLLLLLLLLLLLLLLLLLLLLLLLLLLLLLLLLLLLLLLLLLLLLLLLLLLLLLLLLLLLLLLLLLLLLL",
"LBBBBBBBBBBBBBBBBBBBBBBBBBBBBB14ZP41BBBBBBBBBBBBBBBBBBBBBBBBBBBBBLBBBBBBBBBBBBBBBBBBBBBBBddclccDZ11ZwlBBBBBBBBBBBBBBBBBBBBBBBBBBBBLBBBBBBBBBBBBBBBBBBBBBBBBBBBBB14ZP41BBBBBBBBBBBBBBBBBBBBBBBBBBBBBLBBBBBBBBBBBBBBBBBBBBBBBBBBBBBDZ11ZwldddcniBBBBBBBBBBBBBBBBBBBBBBLLLLLLLLLLLLLLLLLLLLLLLLLLLLLLLLLLLLLLLLLLLLLLLLLLLLLLLLLLLLLLLLLLLLLLLLLLLLLLLLLLLaaaaaLaaLLLLLLaaaaLLLLLaaLLaaLLaaaaaLaaLLLLLLLLaaaLLLLLLaaLLLaaLLLLLLaaaaaLaaLLLaaLLaaaaLLLaaaaLLaaLLLLLLLLLLLLLLLLLLLLLLLLLLLLLLLLLLLLLLLLLLLLLLLLLLLLLLLLLLLLLLLLLLLLLLLLLLLLLLL",
"LBBBBBBBBBBBBBBBBBBBBBBBBBBBBBQZVVZQBBBBBBBBBBBBBBBBBBBBBBBBBBBBBLBBBBBBBBBBBBBBBBBBBBBBBdddclltKKDDtlBBBBBBBBBBBBBBBBBBBBBBBBBBBBLBBBBBBBBBBBBBBBBBBBBBBBBBBBBBQZVVZQBBBBBBBBBBBBBBBBBBBBBBBBBBBBBLBBBBBBBBBBBBBBBBBBBBBBBBBBBBltKKDDtlcdcnliBBBBBBBBBBBBBBBBBBBBBBLLLLLLLLLLLLLLLLLLLLLLLLLLLLLLLLLLLLLLLLLLLLLLLLLLLLLLLLLLLLLLLLLLLLLLLLLLLLLLLLLLLLLLLLLLLLLLLLLLLLLLLLLLLLLLLLLLLLLLLLLLLLLLLLLLLLLLLLLLLLLLLLLLLLLLLLLLLLLLLLLLLLLLLLLLLLLLLLLLLLLLLLLLLLLLLLLLLLLLLLLLLLLLLLLLLLLLLLLLLLLLLLLLLLLLLLLLLLLLLLLLLLLLLLLLLLLLLLLLLLL",
"LBBBBBBBBBBBBBBBBBBBBBBBBBBBccQZ66ZKccBBBBBBBBBBBBBBBBBBBBBBBBBBBLBBBBBBBBBBBBBBBBBBBBBBBBddclcctwwwtcllBBBBBBBBBBBBBBBBBBBBBBBBBBLBBBBBBBBBBBBBBBBBBBBBBBBBBBccQZ66ZKccBBBBBBBBBBBBBBBBBBBBBBBBBBBLBBBBBBBBBBBBBBBBBBBBBBBBBBddcctwwwlccdnliBBBBBBBBBBBBBBBBBBBBBBBLLLLLLLLLLLLLLLLLLLLLLLLLLLLLLLLLLLLLLLLLLLLLLLLLLLLLLLLLLLLLLLLLLLLLLLLLLLLLLLLLLLLLLLLLLLLLLLLLLLLLLLLLLLLLLLLLLLLLLLLLLLLLLLLLLLLLLLLLLLLLLLLLLLLLLLLLLLLLLLLLLLLLLLLLLLLLLLLLLLLLLLLLLLLLLLLLLLLLLLLLLLLLLLLLLLLLLLLLLLLLLLLLLLLLLLLLLLLLLLLLLLLLLLLLLLLLLLLLLLLL",
"LBBBBBBBBBBBBBBBBBBBBBBBBBcdddDZ11ZwlccccBBBBBBBBBBBBBBBBBBBBBBBBLBBBBBBBBBBBBBBBBBBBBBBBBdddccoll7lllnlllBBBBBBBBBBBBBBBBBBBBBBBBLBBBBBBBBBBBBBBBBBBBBBBBBBcdddDZ11ZwlccccBBBBBBBBBBBBBBBBBBBBBBBBLBBBBBBBBBBBBBBBBBBBBBBBBddddcoll7lllnnlliBBBBBBBBBBBBBBBBBBBBBBBLLLLLLLLLLLLLLLLLLLLLLLLLLLLLLLLLLLLLLLLLLLLLLLLLLLLLLLLLLLLLLLLLLLLLLLLLLLLLLLLLLLLLLLLLLLLLLLLLLLLLLLLLLLLLLLLLLLLLLLLLLLLLLLLLLLLLLLLLLLLLLLLLLLLLLLLLLLLLLLLLLLLLLLLLLLLLLLLLLLLLLLLLLLLLLLLLLLLLLLLLLLLLLLLLLLLLLLLLLLLLLLLLLLLLLLLLLLLLLLLLLLLLLLLLLLLLLLLLLLLL",
"LBBBBBBBBBBBBBBBBBBBBBBBcdddddowwwwllncccccBBBBBBBBBBBBBBBBBBBBBBLBBBBBBBBBBBBBBBBBBBBBBBBBddcd5XX9XX5accclBBBBBBBBBBBBBBBBBBBBBBBLBBBBBBBBBBBBBBBBBBBBBBBcdddddowwwwllncccccBBBBBBBBBBBBBBBBBBBBBBLBBBBBBBBBBBBBBBBBBBBBBBddcddd5XX9XX5adliiBBBBBBBBBBBBBBBBBBBBBBBLLLLLLLLLLLLLLLLLLLLLLLLLLLLLLLLLLLLLLLLLLLLLLLLLLLLLLLLLLLLLLLLLLLLLLLLLLLLLLLLLLLLLLLLLLLLLLLLLLLLLLLLLLLLLLLLLLLLLLLLLLLLLLLLLLLLLLLLLLLLLLLLLLLLLLLLLLLLLLLLLLLLLLLLLLLLLLLLLLLLLLLLLLLLLLLLLLLLLLLLLLLLLLLLLLLLLLLLLLLLLLLLLLLLLLLLLLLLLLLLLLLLLLLLLLLLLLLLLLLLL",
"LBBBBBBBBBBBBBBBBBBBBBccddcdddclnilllnccdddccBBBBBBBBBBBBBBBBBBBBLBBBBBBBBBBBBBBBBBBBBBBBBBdddcC5X%X5CccddllBBBBBBBBBBBBBBBBBBBBBBLBBBBBBBBBBBBBBBBBBBBBccddcdddclnilllnccdddccBBBBBBBBBBBBBBBBBBBBLBBBBBBBBBBBBBBBBBBBBBBdddcnccC5X%X5CclliiBBBBBBBBBBBBBBBBBBBBBBBLLLLLLLLLLLLLLLLLLLLLLLLLLLLLLLLLLLLLLLLLLLLLLLLLLLLLLLLLLLLLLLLLLLLLLLLLLLLLLLLLLLLLLLLLLLLLLLLLLLLLLLLLLLLLLLLLLLLLLLLLLLLLLLLLLLLLLLLLLLLLLLLLLLLLLLLLLLLLLLLLLLLLLLLLLLLLLLLLLLLLLLLLLLLLLLLLLLLLLLLLLLLLLLLLLLLLLLLLLLLLLLLLLLLLLLLLLLLLLLLLLLLLLLLLLLLLLLLLLLLL",
"LBBBBBBBBBBBBBBBBBBBBcddddcncddcninnnncddddcddBBBBBBBBBBBBBBBBBBBLBBBBBBBBBBBBBBBBBBBBBBBBBlcdd5#&&&#XcdcddccBBBBBBBBBBBBBBBBBBBBBLBBBBBBBBBBBBBBBBBBBBcddddcncddcninnnncddddcddBBBBBBBBBBBBBBBBBBBLBBBBBBBBBBBBBBBBBBBBBBddclccd5#&&&#XclliBBBBBBBBBBBBBBBBBBBBBBBBLLLLLLLLLLLLLLLLLLLLLLLLLLLLLLLLLLLLLLLLLLLLLLLLLLLLLLLLLLLLLLLLLLLLLLLLLLLLLLLLLLLLLLLLLLLLLLLLLLLLLLLLLLLLLLLLLLLLLLLLLLLLLLLLLLLLLLLLLLLLLLLLLLLLLLLLLLLLLLLLLLLLLLLLLLLLLLLLLLLLLLLLLLLLLLLLLLLLLLLLLLLLLLLLLLLLLLLLLLLLLLLLLLLLLLLLLLLLLLLLLLLLLLLLLLLLLLLLLLLLL",
"LBBBBBBBBBBBBBBBBBBBccddddlccccctQtGcGdlmdcdddcBBBBBBBBBBBBBBBBBBLBBBBBBBBBBBBBBBBBBBBBBBBBBlc58%&6&855nlcddclBBBBBBBBBBBBBBBBBBBBLBBBBBBBBBBBBBBBBBBBccddddlccccctQtGcGdlmdcdddcBBBBBBBBBBBBBBBBBBLBBBBBBBBBBBBBBBBBBBBBddcljnc58%&6&855liiBBBBBBBBBBBBBBBBBBBBBBBBLLLLLLLLLLLLLLLLLLLLLLLLLLLLLLLLLLLLLLLLLLLLLLLLLLLLLLLLLLLLLLLLLLLLLLLLLLLLLLLLLLLLLLLLLLLLLLLLLLLLLLLLLLLLLLLLLLLLLLLLLLLLLLLLLLLLLLLLLLLLLLLLLLLLLLLLLLLLLLLLLLLLLLLLLLLLLLLLLLLLLLLLLLLLLLLLLLLLLLLLLLLLLLLLLLLLLLLLLLLLLLLLLLLLLLLLLLLLLLLLLLLLLLLLLLLLLLLLLLLLL",
"LBBBBBBBBBBBBBBBBBBBddlllllnccccHiHccdnlidlddQcBBBBBBBBBBBBBBBBBBLBBBBBBBBBBBBBBBBBBBBBBBBBBcldX58%&5XanlcdddclBBBBBBBBBBBBBBBBBBBLBBBBBBBBBBBBBBBBBBBddlllllnccccHiHccdnlidlddQcBBBBBBBBBBBBBBBBBBLBBBBBBBBBBBBBBBBBBBBBdccljlddX58%&5XaliBBBBBBBBBBBBBBBBBBBBBBBBBLLLLLLLLLLLLLLLLLLLLLLLLLLLLLLLLLLLLLLLLLLLLLLLLLLLLLLLLLLLLLLLLLLLLLLLLLLLLLLLLLLLLLLLLLLLLLLLLLLLLLLLLLLLLLLLLLLLLLLLLLLLLLLLLLLLLLLLLLLLLLLLLLLLLLLLLLLLLLLLLLLLLLLLLLLLLLLLLLLLLLLLLLLLLLLLLLLLLLLLLLLLLLLLLLLLLLLLLLLLLLLLLLLLLLLLLLLLLLLLLLLLLLLLLLLLLLLLLLLLLL",
"LBBBBBBBBBBBBBBBBBQcdddllBllnnnntoolnnnljillcQDcBBBBBBBBBBBBBBBBBLBBBBBBBBBBBBBBBBBBBBBBBBBBdccC8#$X8CXljjcdcclBBBBBBBBBBBBBBBBBBBLBBBBBBBBBBBBBBBBBQcdddllBllnnnntoolnnnljillcQDcBBBBBBBBBBBBBBBBBLBBBBBBBBBBBBBBBBBBBBddclljjlcC8#$X8CXljBBBBBBBBBBBBBBBBBBBBBBBBBLLLLLLLLLLLLLLLLLLLLLLLLLLLLLLLLLLLLLLLLLLLLLLLLLLLLLLLLLLLLLLLLLLLLLLLLLLLLLLLLLLLLLLLLLLLLLLLLLLLLLLLLLLLLLLLLLLLLLLLLLLLLLLLLLLLLLLLLLLLLLLLLLLLLLLLLLLLLLLLLLLLLLLLLLLLLLLLLLLLLLLLLLLLLLLLLLLLLLLLLLLLLLLLLLLLLLLLLLLLLLLLLLLLLLLLLLLLLLLLLLLLLLLLLLLLLLLLLLLLLL",
"LBBBBBBBBBBBBBBBBB6DddclBBljlllP6aHilnljjlBlc6QcBBBBBBBBBBBBBBBBBLBBBBBBBBBBBBBBBBBBBBBBBBBBdcccCX8XCaainjccllclBBBBBBBBBBBBBBBBBBLBBBBBBBBBBBBBBBBB6DddclBBljlllP6aHilnljjlBlc6QcBBBBBBBBBBBBBBBBBLBBBBBBBBBBBBBBBBBBBBdlllBBjlccCX8XCaaijBBBBBBBBBBBBBBBBBBBBBBBBBLLLLLLLLLLLLLLLLLLLLLLLLLLLLLLLLLLLLLLLLLLLLLLLLLLLLLLLLLLLLLLLLLLLLLLLLLLLLLLLLLLLLLLLLLLLLLLLLLLLLLLLLLLLLLLLLLLLLLLLLLLLLLLLLLLLLLLLLLLLLLLLLLLLLLLLLLLLLLLLLLLLLLLLLLLLLLLLLLLLLLLLLLLLLLLLLLLLLLLLLLLLLLLLLLLLLLLLLLLLLLLLLLLLLLLLLLLLLLLLLLLLLLLLLLLLLLLLLLLLLL",
"LBBBBBBBBBBBBBBBBB6QdclBBBBjlllPDaliiiijjBBBl6QPBBBBBBBBBBBBBBBBBLBBBBBBBBBBBBBBBBBBBBBBBBBBddccPD8oiaaajBBlcdclBBBBBBBBBBBBBBBBBBLBBBBBBBBBBBBBBBBB6QdclBBBBjlllPDaliiiijjBBBl6QPBBBBBBBBBBBBBBBBBLBBBBBBBBBBBBBBBBBBBBdcllBBilllPD5oiiiijBBBBBBBBBBBBBBBBBBBBBBBBBLLLLLLLLLLLLLLLLLLLLLLLLLLLLLLLLLLLLLLLLLLLLLLLLLLLLLLLLLLLLLLLLLLLLLLLLLLLLLLLLLLLLLLLLLLLLLLLLLLLLLLLLLLLLLLLLLLLLLLLLLLLLLLLLLLLLLLLLLLLLLLLLLLLLLLLLLLLLLLLLLLLLLLLLLLLLLLLLLLLLLLLLLLLLLLLLLLLLLLLLLLLLLLLLLLLLLLLLLLLLLLLLLLLLLLLLLLLLLLLLLLLLLLLLLLLLLLLLLLLLL",
"LBBBBBBBBBBBBBBBBB66PcBBBBBilllPDwoiiiijBBBBB66DBBBBBBBBBBBBBBBBBLBBBBBBBBBBBBBBBBBBBBBBBBBBcddcDttoiiiaaBBBcdclBBBBBBBBBBBBBBBBBBLBBBBBBBBBBBBBBBBB66PcBBBBBilllPDwoiiiijBBBBB66DBBBBBBBBBBBBBBBBBLBBBBBBBBBBBBBBBBBBBddclBBBlcllDttoiiiiaBBBBBBBBBBBBBBBBBBBBBBBBBLLLLLLLLLLLLLLLLLLLLLLLLLLLLLLLLLLLLLLLLLLLLLLLLLLLLLLLLLLLLLLLLLLLLLLLLLLLLLLLLLLLLLLLLLLLLLLLLLLLLLLLLLLLLLLLLLLLLLLLLLLLLLLLLLLLLLLLLLLLLLLLLLLLLLLLLLLLLLLLLLLLLLLLLLLLLLLLLLLLLLLLLLLLLLLLLLLLLLLLLLLLLLLLLLLLLLLLLLLLLLLLLLLLLLLLLLLLLLLLLLLLLLLLLLLLLLLLLLLLLL",
"LBBBBBBBBBBBBBBBBB6PPlBBBBBlcllDttoiiiiaBBBBBPPDBBBBBBBBBBBBBBBBBLBBBBBBBBBBBBBBBBBBBBBBBBBddcdclaaiiiiiaiBBccdlBBBBBBBBBBBBBBBBBBLBBBBBBBBBBBBBBBBB6PPlBBBBBlcllDttoiiiiaBBBBBPPDBBBBBBBBBBBBBBBBBLBBBBBBBBBBBBBBBBBBBddllBBjilcllaaiiiciaiBBBBBBBBBBBBBBBBBBBBBBBBLLLLLLLLLLLLLLLLLLLLLLLLLLLLLLLLLLLLLLLLLLLLLLLLLLLLLLLLLLLLLLLLLLLLLLLLLLLLLLLLLLLLLLLLLLLLLLLLLLLLLLLLLLLLLLLLLLLLLLLLLLLLLLLLLLLLLLLLLLLLLLLLLLLLLLLLLLLLLLLLLLLLLLLLLLLLLLLLLLLLLLLLLLLLLLLLLLLLLLLLLLLLLLLLLLLLLLLLLLLLLLLLLLLLLLLLLLLLLLLLLLLLLLLLLLLLLLLLLLLLL",
"LBBBBBBBBBBBBBBBBB6VPBBBBBjilcllaaiiiiiaiBBBBBBBBBBBBBBBBBBBBBBBBLBBBBBBBBBBBBBBBBBBBBBBBBBddcccccllliliiiBBBddclBBBBBBBBBBBBBBBBBLBBBBBBBBBBBBBBBBB6VPBBBBBjilcllaaiiiiiaiBBBBBBBBBBBBBBBBBBBBBBBBLBBBBBBBBBBBBBBBBBBBddllBBjcccccclllciiiiBBBBBBBBBBBBBBBBBBBBBBBBLLLLLLLLLLLLLLLLLLLLLLLLLLLLLLLLLLLLLLLLLLLLLLLLLLLLLLLLLLLLLLLLLLLLLLLLLLLLLLLLLLLLLLLLLLLLLLLLLLLLLLLLLLLLLLLLLLLLLLLLLLLLLLLLLLLLLLLLLLLLLLLLLLLLLLLLLLLLLLLLLLLLLLLLLLLLLLLLLLLLLLLLLLLLLLLLLLLLLLLLLLLLLLLLLLLLLLLLLLLLLLLLLLLLLLLLLLLLLLLLLLLLLLLLLLLLLLLLLLLLL",
"LBBBBBBBBBBBBBBBBBBBBBBBBBjcccccclllliiiiBBBBBBBBBBBBBBBBBBBBBBBBLBBBBBBBBBBBBBBBBBBBBBBBBccccccccillliliiBBBccclBBBBBBBBBBBBBBBBBLBBBBBBBBBBBBBBBBBBBBBBBBBjcccccclllliiiiBBBBBBBBBBBBBBBBBBBBBBBBLBBBBBBBBBBBBBBBBBBBddlBBBjcdcccclllliiiiBBBBBBBBBBBBBBBBBBBBBBBBLLLLLLLLLLLLLLLLLLLLLLLLLLLLLLLLLLLLLLLLLLLLLLLLLLLLLLLLLLLLLLLLLLLLLLLLLLLLLLLLLLLLLLLLLLLLLLLLLLLLLLLLLLLLLLLLLLLLLLLLLLLLLLLLLLLLLLLLLLLLLLLLLLLLLLLLLLLLLLLLLLLLLLLLLLLLLLLLLLLLLLLLLLLLLLLLLLLLLLLLLLLLLLLLLLLLLLLLLLLLLLLLLLLLLLLLLLLLLLLLLLLLLLLLLLLLLLLLLLLLL",
"LBBBBBBBBBBBBBBBBBBBBBBBBBjcdcccclllllmiiBBBBBBBBBBBBBBBBBBBBBBBBLBBBBBBBBBBBBBBBBBBBBBBBBBnnnnnclillllmiiBBBccclBBBBBBBBBBBBBBBBBLBBBBBBBBBBBBBBBBBBBBBBBBBjcdcccclllllmiiBBBBBBBBBBBBBBBBBBBBBBBBLBBBBBBBBBBBBBBBBBBB66PBBBacddccclliicciiBBBBBBBBBBBBBBBBBBBBBBBBLLLLLLLLLLLLLLLLLLLLLLLLLLLLLLLLLLLLLLLLLLLLLLLLLLLLLLLLLLLLLLLLLLLLLLLLLLLLLLLLLLLLLLLLLLLLLLLLLLLLLLLLLLLLLLLLLLLLLLLLLLLLLLLLLLLLLLLLLLLLLLLLLLLLLLLLLLLLLLLLLLLLLLLLLLLLLLLLLLLLLLLLLLLLLLLLLLLLLLLLLLLLLLLLLLLLLLLLLLLLLLLLLLLLLLLLLLLLLLLLLLLLLLLLLLLLLLLLLLLLL",
"LBBBBBBBBBBBBBBBBBBBBBBBBBacddccclclllmiiBBBBBBBBBBBBBBBBBBBBBBBBLBBBBBBBBBBBBBBBBBBBBBBBBBdddnllaalliiiiiBBBB6QPBBBBBBBBBBBBBBBBBLBBBBBBBBBBBBBBBBBBBBBBBBBacddccclclllmiiBBBBBBBBBBBBBBBBBBBBBBBBLBBBBBBBBBBBBBBBBBBB6QPBBjlnonllaalmcccciBBBBBBBBBBBBBBBBBBBBBBBBLLLLLLLLLLLLLLLLLLLLLLLLLLLLLLLLLLLLLLLLLLLLLLLLLLLLLLLLLLLLLLLLLLLLLLLLLLLLLLLLLLLLLLLLLLLLLLLLLLLLLLLLLLLLLLLLLLLLLLLLLLLLLLLLLLLLLLLLLLLLLLLLLLLLLLLLLLLLLLLLLLLLLLLLLLLLLLLLLLLLLLLLLLLLLLLLLLLLLLLLLLLLLLLLLLLLLLLLLLLLLLLLLLLLLLLLLLLLLLLLLLLLLLLLLLLLLLLLLLLLL",
"LBBBBBBBBBBBBBBBBBBBBBBBBjlnonllaalliiiiiBBBBBBBBBBBBBBBBBBBBBBBBLBBBBBBBBBBBBBBBBBBBBBBBBdddddliaalmccciiBBBB6PDBBBBBBBBBBBBBBBBBLBBBBBBBBBBBBBBBBBBBBBBBBjlnonllaalliiiiiBBBBBBBBBBBBBBBBBBBBBBBBLBBBBBBBBBBBBBBBBBBB6PDBBlccclliaalcdddciiBBBBBBBBBBBBBBBBBBBBBBBLLLLLLLLLLLLLLLLLLLLLLLLLLLLLLLLLLLLLLLLLLLLLLLLLLLLLLLLLLLLLLLLLLLLLLLLLLLLLLLLLLLLLLLLLLLLLLLLLLLLLLLLLLLLLLLLLLLLLLLLLLLLLLLLLLLLLLLLLLLLLLLLLLLLLLLLLLLLLLLLLLLLLLLLLLLLLLLLLLLLLLLLLLLLLLLLLLLLLLLLLLLLLLLLLLLLLLLLLLLLLLLLLLLLLLLLLLLLLLLLLLLLLLLLLLLLLLLLLLLLL",
"LBBBBBBBBBBBBBBBBBBBBBBBBlccclliaalmccciiBBBBBBBBBBBBBBBBBBBBBBBBLBBBBBBBBBBBBBBBBBBBBBBBBddddcliaalcdddciiBBB6QDBBBBBBBBBBBBBBBBBLBBBBBBBBBBBBBBBBBBBBBBBBlccclliaalmccciiBBBBBBBBBBBBBBBBBBBBBBBBLBBBBBBBBBBBBBBBBBBB6QDBBldddcliaaldddddciBBBBBBBBBBBBBBBBBBBBBBBLLLLLLLLLLLLLLLLLLLLLLLLLLLLLLLLLLLLLLLLLLLLLLLLLLLLLLLLLLLLLLLLLLLLLLLLLLLLLLLLLLLLLLLLLLLLLLLLLLLLLLLLLLLLLLLLLLLLLLLLLLLLLLLLLLLLLLLLLLLLLLLLLLLLLLLLLLLLLLLLLLLLLLLLLLLLLLLLLLLLLLLLLLLLLLLLLLLLLLLLLLLLLLLLLLLLLLLLLLLLLLLLLLLLLLLLLLLLLLLLLLLLLLLLLLLLLLLLLLLLL",
"LBBBBBBBBBBBBBBBBBBBBBBBBldddcliaalcdddciiBBBBBBBBBBBBBBBBBBBBBBBLBBBBBBBBBBBBBBBBBBBBBBBBddddcliaimdddddciBBB6QBBBBBBBBBBBBBBBBBBLBBBBBBBBBBBBBBBBBBBBBBBBldddcliaalcdddciiBBBBBBBBBBBBBBBBBBBBBBBLBBBBBBBBBBBBBBBBBBB6QBBBddddcliaBlcddddciBBBBBBBBBBBBBBBBBBBBBBBLLLLLLLLLLLLLLLLLLLLLLLLLLLLLLLLLLLLLLLLLLLLLLLLLLLLLLLLLLLLLLLLLLLLLLLLLLLLLLLLLLLLLLLLLLLLLLLLLLLLLLLLLLLLLLLLLLLLLLLLLLLLLLLLLLLLLLLLLLLLLLLLLLLLLLLLLLLLLLLLLLLLLLLLLLLLLLLLLLLLLLLLLLLLLLLLLLLLLLLLLLLLLLLLLLLLLLLLLLLLLLLLLLLLLLLLLLLLLLLLLLLLLLLLLLLLLLLLLLLLL",
"LBBBBBBBBBBBBBBBBBBBBBBBBddddcliaimdddddciBBBBBBBBBBBBBBBBBBBBBBBLBBBBBBBBBBBBBBBBBBBBBBBBddddcliBBlcddddciBBB6QBBBBBBBBBBBBBBBBBBLBBBBBBBBBBBBBBBBBBBBBBBBddddcliaimdddddciBBBBBBBBBBBBBBBBBBBBBBBLBBBBBBBBBBBBBBBBBBB6QBBBddddcliBBlcddddcilBBBBBBBBBBBBBBBBBBBBBBLLLLLLLLLLLLLLLLLLLLLLLLLLLLLLLLLLLLLLLLLLLLLLLLLLLLLLLLLLLLLLLLLLLLLLLLLLLLLLLLLLLLLLLLLLLLLLLLLLLLLLLLLLLLLLLLLLLLLLLLLLLLLLLLLLLLLLLLLLLLLLLLLLLLLLLLLLLLLLLLLLLLLLLLLLLLLLLLLLLLLLLLLLLLLLLLLLLLLLLLLLLLLLLLLLLLLLLLLLLLLLLLLLLLLLLLLLLLLLLLLLLLLLLLLLLLLLLLLLLLL",
"LBBBBBBBBBBBBBBBBBBBBBBBBddddcliaBlcddddciBBBBBBBBBBBBBBBBBBBBBBBLBBBBBBBBBBBBBBBBBBBBBBBddddcclaBBlccdddciBBBKQBBBBBBBBBBBBBBBBBBLBBBBBBBBBBBBBBBBBBBBBBBBddddcliaBlcddddciBBBBBBBBBBBBBBBBBBBBBBBLBBBBBBBBBBBBBBBBBBBKQBBddddcclaBBlmcddddciBBBBBBBBBBBBBBBBBBBBBBLLLLLLLLLLLLLLLLLLLLLLLLLLLLLLLLLLLLLLLLLLLLLLLLLLLLLLLLLLLLLLLLLLLLLLLLLLLLLLLLLLLLLLLLLLLLLLLLLLLLLLLLLLLLLLLLLLLLLLLLLLLLLLLLLLLLLLLLLLLLLLLLLLLLLLLLLLLLLLLLLLLLLLLLLLLLLLLLLLLLLLLLLLLLLLLLLLLLLLLLLLLLLLLLLLLLLLLLLLLLLLLLLLLLLLLLLLLLLLLLLLLLLLLLLLLLLLLLLLLLL",
"LBBBBBBBBBBBBBBBBBBBBBBBddddcclaBBlccdddcilBBBBBBBBBBBBBBBBBBBBBBLBBBBBBBBBBBBBBBBBBBBBBBdddclciBBBlmcddddciBBBKBBBBBBBBBBBBBBBBBBLBBBBBBBBBBBBBBBBBBBBBBBddddcclaBBlccdddcilBBBBBBBBBBBBBBBBBBBBBBLBBBBBBBBBBBBBBBBBBBBKBBdddclciiBBBmcddddciBBBBBBBBBBBBBBBBBBBBBBLLLLLLLLLLLLLLLLLLLLLLLLLLLLLLLLLLLLLLLLLLLLLLLLLLLLLLLLLLLLLLLLLLLLLLLLLLLLLLLLLLLLLLLLLLLLLLLLLLLLLLLLLLLLLLLLLLLLLLLLLLLLLLLLLLLLLLLLLLLLLLLLLLLLLLLLLLLLLLLLLLLLLLLLLLLLLLLLLLLLLLLLLLLLLLLLLLLLLLLLLLLLLLLLLLLLLLLLLLLLLLLLLLLLLLLLLLLLLLLLLLLLLLLLLLLLLLLLLLLLL",
"LBBBBBBBBBBBBBBBBBBBBBBBdddclciiBBlmcddddciBBBBBBBBBBBBBBBBBBBBBBLBBBBBBBBBBBBBBBBBBBBBBBdddddliBBBBcdddddciBBBBBBBBBBBBBBBBBBBBBBLBBBBBBBBBBBBBBBBBBBBBBBdddclciiBBlmcddddciBBBBBBBBBBBBBBBBBBBBBBLBBBBBBBBBBBBBBBBBBBBBBBdddddliBBBBmcddddciBBBBBBBBBBBBBBBBBBBBBBLLLLLLLLLLLLLLLLLLLLLLLLLLLLLLLLLLLLLLLLLLLLLLLLLLLLLLLLLLLLLLLLLLLLLLLLLLLLLLLLLLLLLLLLLLLLLLLLLLLLLLLLLLLLLLLLLLLLLLLLLLLLLLLLLLLLLLLLLLLLLLLLLLLLLLLLLLLLLLLLLLLLLLLLLLLLLLLLLLLLLLLLLLLLLLLLLLLLLLLLLLLLLLLLLLLLLLLLLLLLLLLLLLLLLLLLLLLLLLLLLLLLLLLLLLLLLLLLLLLLL",
"LBBBBBBBBBBBBBBBBBBBBBBddddddliBBBBcdddddciBBBBBBBBBBBBBBBBBBBBBBLBBBBBBBBBBBBBBBBBBBBBBddcccdliBBBBBddddddlBBBBBBBBBBBBBBBBBBBBBBLBBBBBBBBBBBBBBBBBBBBBBddddddliBBBBcdddddciBBBBBBBBBBBBBBBBBBBBBBLBBBBBBBBBBBBBBBBBBBBBBdccccdljBBBBcdddddciBBBBBBBBBBBBBBBBBBBBBBLLLLLLLLLLLLLLLLLLLLLLLLLLLLLLLLLLLLLLLLLLLLLLLLLLLLLLLLLLLLLLLLLLLLLLLLLLLLLLLLLLLLLLLLLLLLLLLLLLLLLLLLLLLLLLLLLLLLLLLLLLLLLLLLLLLLLLLLLLLLLLLLLLLLLLLLLLLLLLLLLLLLLLLLLLLLLLLLLLLLLLLLLLLLLLLLLLLLLLLLLLLLLLLLLLLLLLLLLLLLLLLLLLLLLLLLLLLLLLLLLLLLLLLLLLLLLLLLLLLLL",
"LBBBBBBBBBBBBBBBBBBBBBBdccccdljBBBBBjcddddcBBBBBBBBBBBBBBBBBBBBBBLBBBBBBBBBBBBBBBBBBBBBBdccccdljBBBBBjddccdclBBBBBBBBBBBBBBBBBBBBBLBBBBBBBBBBBBBBBBBBBBBBdccccdljBBBBBjcddddcBBBBBBBBBBBBBBBBBBBBBBLBBBBBBBBBBBBBBBBBBBBBBoccccliiBBBBBmdcccdciBBBBBBBBBBBBBBBBBBBBBLLLLLLLLLLLLLLLLLLLLLLLLLLLLLLLLLLLLLLLLLLLLLLLLLLLLLLLLLLLLLLLLLLLLLLLLLLLLLLLLLLLLLLLLLLLLLLLLLLLLLLLLLLLLLLLLLLLLLLLLLLLLLLLLLLLLLLLLLLLLLLLLLLLLLLLLLLLLLLLLLLLLLLLLLLLLLLLLLLLLLLLLLLLLLLLLLLLLLLLLLLLLLLLLLLLLLLLLLLLLLLLLLLLLLLLLLLLLLLLLLLLLLLLLLLLLLLLLLLLLL",
"LBBBBBBBBBBBBBBBBBBBBBBoccccliiBBBBBmcdccciiBBBBBBBBBBBBBBBBBBBBBLBBBBBBBBBBBBBBBBBBBBBBoccccliBBBBBBmcdcccdiBBBBBBBBBBBBBBBBBBBBBLBBBBBBBBBBBBBBBBBBBBBBoccccliiBBBBBmcdccciiBBBBBBBBBBBBBBBBBBBBBLBBBBBBBBBBBBBBBBBBBBBBllccliiiBBBBBmdcccciiBBBBBBBBBBBBBBBBBBBBBLLLLLLLLLLLLLLLLLLLLLLLLLLLLLLLLLLLLLLLLLLLLLLLLLLLLLLLLLLLLLLLLLLLLLLLLLLLLLLLLLLLLLLLLLLLLLLLLLLLLLLLLLLLLLLLLLLLLLLLLLLLLLLLLLLLLLLLLLLLLLLLLLLLLLLLLLLLLLLLLLLLLLLLLLLLLLLLLLLLLLLLLLLLLLLLLLLLLLLLLLLLLLLLLLLLLLLLLLLLLLLLLLLLLLLLLLLLLLLLLLLLLLLLLLLLLLLLLLLLLL",
"LBBBBBBBBBBBBBBBBBBBBBBllccliiBBBBBBjmccckiiBBBBBBBBBBBBBBBBBBBBBLBBBBBBBBBBBBBBBBBBBBBBllllliiBBBBBBBmkkkkiiBBBBBBBBBBBBBBBBBBBBBLBBBBBBBBBBBBBBBBBBBBBBllccliiBBBBBBjmccckiiBBBBBBBBBBBBBBBBBBBBBLBBBBBBBBBBBBBBBBBBBBBBiiiiiaiBBBBBBBiiiikiaBBBBBBBBBBBBBBBBBBBBBLLLLLLLLLLLLLLLLLLLLLLLLLLLLLLLLLLLLLLLLLLLLLLLLLLLLLLLLLLLLLLLLLLLLLLLLLLLLLLLLLLLLLLLLLLLLLLLLLLLLLLLLLLLLLLLLLLLLLLLLLLLLLLLLLLLLLLLLLLLLLLLLLLLLLLLLLLLLLLLLLLLLLLLLLLLLLLLLLLLLLLLLLLLLLLLLLLLLLLLLLLLLLLLLLLLLLLLLLLLLLLLLLLLLLLLLLLLLLLLLLLLLLLLLLLLLLLLLLLLLL",
"LBBBBBBBBBBBBBBBBBBBBBBiiiiiaiBBBBBBBiiiiiaaBBBBBBBBBBBBBBBBBBBBBLBBBBBBBBBBBBBBBBBBBBBBooiiiaBBBBBBBBiiiiiaaBBBBBBBBBBBBBBBBBBBBBLBBBBBBBBBBBBBBBBBBBBBBiiiiiaiBBBBBBBiiiiiaaBBBBBBBBBBBBBBBBBBBBBLBBBBBBBBBBBBBBBBBBBBBBoooiiaBBBBBBBBiooiiaaBBBBBBBBBBBBBBBBBBBBBLLLLLLLLLLLLLLLLLLLLLLLLLLLLLLLLLLLLLLLLLLLLLLLLLLLLLLLLLLLLLLLLLLLLLLLLLLLLLLLLLLLLLLLLLLLLLLLLLLLLLLLLLLLLLLLLLLLLLLLLLLLLLLLLLLLLLLLLLLLLLLLLLLLLLLLLLLLLLLLLLLLLLLLLLLLLLLLLLLLLLLLLLLLLLLLLLLLLLLLLLLLLLLLLLLLLLLLLLLLLLLLLLLLLLLLLLLLLLLLLLLLLLLLLLLLLLLLLLLLLL",
"LBBBBBBBBBBBBBBBBBBBBBBoooiaaBBBBBBBBiooliaaBBBBBBBBBBBBBBBBBBBBBLBBBBBBBBBBBBBBBBBBBBBooooiaaBBBBBBBBiooliaaBBBBBBBBBBBBBBBBBBBBBLBBBBBBBBBBBBBBBBBBBBBBoooiaaBBBBBBBBiooliaaBBBBBBBBBBBBBBBBBBBBBLBBBBBBBBBBBBBBBBBBBBBooooiaaBBBBBBBBBooliaBBBBBBBBBBBBBBBBBBBBBBLLLLLLLLLLLLLLLLLLLLLLLLLLLLLLLLLLLLLLLLLLLLLLLLLLLLLLLLLLLLLLLLLLLLLLLLLLLLLLLLLLLLLLLLLLLLLLLLLLLLLLLLLLLLLLLLLLLLLLLLLLLLLLLLLLLLLLLLLLLLLLLLLLLLLLLLLLLLLLLLLLLLLLLLLLLLLLLLLLLLLLLLLLLLLLLLLLLLLLLLLLLLLLLLLLLLLLLLLLLLLLLLLLLLLLLLLLLLLLLLLLLLLLLLLLLLLLLLLLLLL",
"LBBBBBBBBBBBBBBBBBBBBBooooaaiBBBBBBBBBaoliaaBBBBBBBBBBBBBBBBBBBBBLBBBBBBBBBBBBBBBBBBBBBooooaaBBBBBBBBBBaoliaiBBBBBBBBBBBBBBBBBBBBBLBBBBBBBBBBBBBBBBBBBBBooooaaiBBBBBBBBBaoliaaBBBBBBBBBBBBBBBBBBBBBLBBBBBBBBBBBBBBBBBBBBBooooaaBBBBBBBBBBaoliaaBBBBBBBBBBBBBBBBBBBBBLLLLLLLLLLLLLLLLLLLLLLLLLLLLLLLLLLLLLLLLLLLLLLLLLLLLLLLLLLLLLLLLLLLLLLLLLLLLLLLLLLLLLLLLLLLLLLLLLLLLLLLLLLLLLLLLLLLLLLLLLLLLLLLLLLLLLLLLLLLLLLLLLLLLLLLLLLLLLLLLLLLLLLLLLLLLLLLLLLLLLLLLLLLLLLLLLLLLLLLLLLLLLLLLLLLLLLLLLLLLLLLLLLLLLLLLLLLLLLLLLLLLLLLLLLLLLLLLLLLLL",
"LBBBBBBBBBBBBBBBBBBBBBoollaaBBBBBBBBBBiaaaaaBBBBBBBBBBBBBBBBBBBBBLBBBBBBBBBBBBBBBBBBBBBoollaaBBBBBBBBBBiaaaaBBBBBBBBBBBBBBBBBBBBBBLBBBBBBBBBBBBBBBBBBBBBoollaaBBBBBBBBBBiaaaaaBBBBBBBBBBBBBBBBBBBBBLBBBBBBBBBBBBBBBBBBBBBoollaaBBBBBBBBBBiaaaaaBBBBBBBBBBBBBBBBBBBBBLLLLLLLLLLLLLLLLLLLLLLLLLLLLLLLLLLLLLLLLLLLLLLLLLLLLLLLLLLLLLLLLLLLLLLLLLLLLLLLLLLLLLLLLLLLLLLLLLLLLLLLLLLLLLLLLLLLLLLLLLLLLLLLLLLLLLLLLLLLLLLLLLLLLLLLLLLLLLLLLLLLLLLLLLLLLLLLLLLLLLLLLLLLLLLLLLLLLLLLLLLLLLLLLLLLLLLLLLLLLLLLLLLLLLLLLLLLLLLLLLLLLLLLLLLLLLLLLLLLLL",
"LBBBBBBBBBBBBBBBBBBBBBiiiaaiBBBBBBBBBBBaaaaaBBBBBBBBBBBBBBBBBBBBBLBBBBBBBBBBBBBBBBBBBBBliiaaBBBBBBBBBBBBiiaaaBBBBBBBBBBBBBBBBBBBBBLBBBBBBBBBBBBBBBBBBBBBiiiaaiBBBBBBBBBBBaaaaaBBBBBBBBBBBBBBBBBBBBBLBBBBBBBBBBBBBBBBBBBBBiiiaaBBBBBBBBBBBBiiaaaBBBBBBBBBBBBBBBBBBBBBLLLLLLLLLLLLLLLLLLLLLLLLLLLLLLLLLLLLLLLLLLLLLLLLLLLLLLLLLLLLLLLLLLLLLLLLLLLLLLLLLLLLLLLLLLLLLLLLLLLLLLLLLLLLLLLLLLLLLLLLLLLLLLLLLLLLLLLLLLLLLLLLLLLLLLLLLLLLLLLLLLLLLLLLLLLLLLLLLLLLLLLLLLLLLLLLLLLLLLLLLLLLLLLLLLLLLLLLLLLLLLLLLLLLLLLLLLLLLLLLLLLLLLLLLLLLLLLLLLLLL",
"LBBBBBBBBBBBBBBBBBBBBBiaaaiBBBBBBBBBBBBaiiaaBBBBBBBBBBBBBBBBBBBBBLBBBBBBBBBBBBBBBBBBBBollaaiBBBBBBBBBBBaooiiaBBBBBBBBBBBBBBBBBBBBBLBBBBBBBBBBBBBBBBBBBBBiaaaiBBBBBBBBBBBBaiiaaBBBBBBBBBBBBBBBBBBBBBLBBBBBBBBBBBBBBBBBBBBioaaaiBBBBBBBBBBBBooiaaBBBBBBBBBBBBBBBBBBBBBLLLLLLLLLLLLLLLLLLLLLLLLLLLLLLLLLLLLLLLLLLLLLLLLLLLLLLLLLLLLLLLLLLLLLLLLLLLLLLLLLLLLLLLLLLLLLLLLLLLLLLLLLLLLLLLLLLLLLLLLLLLLLLLLLLLLLLLLLLLLLLLLLLLLLLLLLLLLLLLLLLLLLLLLLLLLLLLLLLLLLLLLLLLLLLLLLLLLLLLLLLLLLLLLLLLLLLLLLLLLLLLLLLLLLLLLLLLLLLLLLLLLLLLLLLLLLLLLLLLLL",
"LBBBBBBBBBBBBBBBBBBBBiooolaBBBBBBBBBBBaoolliBBBBBBBBBBBBBBBBBBBBBLBBBBBBBBBBBBBBBBBBBBoooolaBBBBBBBBBBBaoolliBBBBBBBBBBBBBBBBBBBBBLBBBBBBBBBBBBBBBBBBBBiooolaBBBBBBBBBBBaoolliBBBBBBBBBBBBBBBBBBBBBLBBBBBBBBBBBBBBBBBBBBiooolaBBBBBBBBBBBBoolliBBBBBBBBBBBBBBBBBBBBBLLLLLLLLLLLLLLLLLLLLLLLLLLLLLLLLLLLLLLLLLLLLLLLLLLLLLLLLLLLLLLLLLLLLLLLLLLLLLLLLLLLLLLLLLLLLLLLLLLLLLLLLLLLLLLLLLLLLLLLLLLLLLLLLLLLLLLLLLLLLLLLLLLLLLLLLLLLLLLLLLLLLLLLLLLLLLLLLLLLLLLLLLLLLLLLLLLLLLLLLLLLLLLLLLLLLLLLLLLLLLLLLLLLLLLLLLLLLLLLLLLLLLLLLLLLLLLLLLLLLL",
"LBBBBBBBBBBBBBBBBBBBioooolaBBBBBBBBBBBaooolliBBBBBBBBBBBBBBBBBBBBLBBBBBBBBBBBBBBBBBBBioooolBBBBBBBBBBBBBooolliBBBBBBBBBBBBBBBBBBBBLBBBBBBBBBBBBBBBBBBBioooolaBBBBBBBBBBBaooolliBBBBBBBBBBBBBBBBBBBBLBBBBBBBBBBBBBBBBBBBioooolaBBBBBBBBBBBBooolliBBBBBBBBBBBBBBBBBBBBLLLLLLLLLLLLLLLLLLLLLLLLLLLLLLLLLLLLLLLLLLLLLLLLLLLLLLLLLLLLLLLLLLLLLLLLLLLLLLLLLLLLLLLLLLLLLLLLLLLLLLLLLLLLLLLLLLLLLLLLLLLLLLLLLLLLLLLLLLLLLLLLLLLLLLLLLLLLLLLLLLLLLLLLLLLLLLLLLLLLLLLLLLLLLLLLLLLLLLLLLLLLLLLLLLLLLLLLLLLLLLLLLLLLLLLLLLLLLLLLLLLLLLLLLLLLLLLLLLLLL",
"LBBBBBBBBBBBBBBBBBBBillliaBBBBBBBBBBBBBaiiiiiBBBBBBBBBBBBBBBBBBBBLBBBBBBBBBBBBBBBBBBBillliaBBBBBBBBBBBBBaiiiiiBBBBBBBBBBBBBBBBBBBBLBBBBBBBBBBBBBBBBBBBillliaBBBBBBBBBBBBBaiiiiiBBBBBBBBBBBBBBBBBBBBLBBBBBBBBBBBBBBBBBBBillliaBBBBBBBBBBBBBaiiiiiBBBBBBBBBBBBBBBBBBBBLLLLLLLLLLLLLLLLLLLLLLLLLLLLLLLLLLLLLLLLLLLLLLLLLLLLLLLLLLLLLLLLLLLLLLLLLLLLLLLLLLLLLLLLLLLLLLLLLLLLLLLLLLLLLLLLLLLLLLLLLLLLLLLLLLLLLLLLLLLLLLLLLLLLLLLLLLLLLLLLLLLLLLLLLLLLLLLLLLLLLLLLLLLLLLLLLLLLLLLLLLLLLLLLLLLLLLLLLLLLLLLLLLLLLLLLLLLLLLLLLLLLLLLLLLLLLLLLLLLLL",
"LLLLLLLLLLLLLLLLLLLLLLLLLLLLLLLLLLLLLLLLLLLLLLLLLLLLLLLLLLLLLLLLLLLLLLLLLLLLLLLLLLLLLLLLLLLLLLLLLLLLLLLLLLLLLLLLLLLLLLLLLLLLLLLLLLLLLLLLLLLLLLLLLLLLLLLLLLLLLLLLLLLLLLLLLLLLLLLLLLLLLLLLLLLLLLLLLLLLLLLLLLLLLLLLLLLLLLLLLLLLLLLLLLLLLLLLLLLLLLLLLLLLLLLLLLLLLLLLLLLLLLLLLLLLLLLLLLLLLLLLLLLLLLLLLLLLLLLLLLLLLLLLLLLLLLLLLLLLLLLLLLLLLLLLLLLLLLLLLLLLLLLLLLLLLLLLLLLLLLLLLLLLLLLLLLLLLLLLLLLLLLLLLLLLLLLLLLLLLLLLLLLLLLLLLLLLLLLLLLLLLLLLLLLLLLLLLLLLLLLLLLLLLLLLLLLLLLLLLLLLLLLLLLLLLLLLLLLLLLLLLLLLLLLLLLLLLLLLLLLLLLLLLLLLLLLLLLLLLLLLL"};
